Sungjin-Park-dev/vision_inspection_sogang/data/sample/trajectory/163/trajectory.csv
time,ur20-shoulder_pan_joint,ur20-shoulder_lift_joint,ur20-elbow_joint,ur20-wrist_1_joint,ur20-wrist_2_joint,ur20-wrist_3_joint,target-POS_X,target-POS_Y,target-POS_Z,target-ROT_X,target-ROT_Y,target-ROT_Z,target-ROT_W
0.0,-0.232456371197382,-0.8335513317274375,2.2550333624156775,-0.9745897233402829,1.3604684015154274,-0.099721625632804,-0.5558681745856447,-0.056660001795900264,-0.07545941469740661,-0.5963720619553534,0.596373211632564,0.3799209868052286,-0.3799202547260707
1.0,-0.2118265334168977,-0.8493947940153158,2.2475898409323722,-0.9531751127853267,1.3790722690487283,-0.09063038427439309,-0.5605847123777303,-0.06510437098204619,-0.0669510208492213,0.5963619297955889,-0.5963611468991724,-0.3799377922120343,0.37993829131666873
2.0,-0.23146697792329832,-0.8561669903070624,2.246195507313132,-0.9433021042305145,1.361351236833714,-0.09926992178930921,-0.5630386545495087,-0.05542485729295101,-0.06331643411385396,0.5963587458266301,-0.5963585047735886,-0.3799425371769144,0.3799426910783619
3.0,-0.24060728116421382,-0.8477588233301858,2.247132196931978,-0.9770396064889018,1.3506306880363725,-0.09711357273044319,-0.5655981290219154,-0.0507611607214594,-0.06674823223589876,-0.591393709436017,0.5918205029501195,0.38716327142804097,-0.38743589661324973
4.0,-0.24517743278467158,-0.8435547398417476,2.2476005417414004,-0.9939083576180954,1.3452704136377018,-0.09603539820101017,-0.5668373914775007,-0.04841911525258634,-0.06842800299186548,-0.5889312262081364,0.5894735271429408,0.3907807934241948,-0.3911155111797518
5.0,-0.24974758440512934,-0.8393506563533093,2.2480688865508234,-1.010777108747289,1.3399101392390311,-0.09495722367157716,-0.568049350507654,-0.04607069822612089,-0.07008386278651785,-0.5864826112287392,0.5870750336762046,0.39440269707720865,-0.3947500020248594
6.0,-0.2543177360255871,-0.835146572864871,2.2485372313602463,-1.0276458598764826,1.3345498648403606,-0.09387904914214415,-0.5692337741097071,-0.04371623347801174,-0.07171594673902512,-0.5840482435490806,0.5846253783266363,0.39802868878910497,-0.39833902535967636
7.0,-0.2588878876460448,-0.8309424893764328,2.249005576169669,-1.0445146110056762,1.32918959044169,-0.09280087461271114,-0.5703904369008193,-0.04135604783652821,-0.07332439324288813,-0.5816284984358577,0.5821249220692984,0.4016584730770109,-0.4018822413574734
8.0,-0.2634580392665026,-0.8267384058879944,2.2494739209790917,-1.0613833621348698,1.3238293160430192,-0.09172270008327812,-0.5715191201806104,-0.03899047100637527,-0.07490934390211823,-0.5792237473190155,0.5795740310263465,0.40529175260627615,-0.4053793141872458
9.0,-0.26802819088696034,-0.8225343223995562,2.2499422657885146,-1.0782521132640634,1.3184690416443485,-0.09064452555384511,-0.5726196119910721,-0.036619835451930746,-0.07647094346685115,-0.576834357740139,0.5769730764151533,0.4089282282238544,-0.40882991204687374
10.0,-0.27364652991322647,-0.8160883869119232,2.25542520252741,-1.1123558488342564,1.3116077660971868,-0.08549441900262897,-0.5720626042744832,-0.03424934448403687,-0.07903128195920005,-0.5718431483397047,0.5729084131902366,0.4150767473627658,-0.41531031481474917
11.0,-0.2764556994263595,-0.8128654191681067,2.258166670896858,-1.1294077166193528,1.308177128323606,-0.0829193657270209,-0.57176003131127,-0.033072355847383446,-0.0802646503592166,-0.5693605425542067,0.5708201815683684,0.41813813880494666,-0.41851330895608263
12.0,-0.27926486893949254,-0.8096424514242903,2.260908139266306,-1.1464595844044494,1.3047464905500252,-0.08034431245141282,-0.5714413805690698,-0.031901050609938406,-0.08146692220966856,-0.5668869472123153,0.5686949510433088,0.4211908471617872,-0.42169125199046553
13.0,-0.2820740384526256,-0.8064194836804738,2.2636496076357537,-1.163511452189546,1.3013158527764443,-0.07776925917580475,-0.5711066314112522,-0.03073556291239437,-0.0826381786876995,-0.5644226182053675,0.5665329258879145,0.42423479446441026,-0.4248439608948399
14.0,-0.28488320796575867,-0.8031965159366573,2.2663910760052017,-1.1805633199746424,1.2978852150028635,-0.07519420590019668,-0.5707557657327823,-0.029576026868261242,-0.08377850347454548,-0.561967809408308,0.5643343131037576,0.42726990297288625,-0.427971254006713
15.0,-0.2876923774788917,-0.7999735481928408,2.2691325443746497,-1.1976151877597387,1.2944545772292826,-0.07261915262458861,-0.5703887679723489,-0.02842257653111251,-0.08488798273115847,-0.5595227726556418,0.5620993223977421,0.43029609517935463,-0.43107295103397736
16.0,-0.29050154699202474,-0.7967505804490244,2.2718740127440973,-1.2146670555448353,1.2910239394557017,-0.07004409934898054,-0.5700056251238279,-0.02727534586171968,-0.08596670507358374,-0.5570877577176302,0.5598281661584854,0.43331329381113964,-0.4341488730646567
17.0,-0.29331071650515783,-0.7935276127052079,2.2746154811135453,-1.231718923329932,1.287593301682121,-0.06746904607337247,-0.5696063267470792,-0.026134468695084644,-0.08701476154809785,-0.5546630122767241,0.5575210594324623,0.4363214218338549,-0.4371988425765772
18.0,-0.29611988601829087,-0.7903046449613914,2.2773569494829933,-1.2487707911150283,1.2841626639085402,-0.0648939927977644,-0.5691908649780822,-0.02500007870737773,-0.08803224560611009,-0.5522487819042441,0.5551782198999163,0.43932040245450615,-0.440222683446968
19.0,-0.2989290555314239,-0.787081677217575,2.2800984178524413,-1.2658226589001247,1.2807320261349593,-0.06231893952215632,-0.5687592345383956,-0.02387230938279468,-0.0890192530788341,-0.549845310037305,0.5527998678505412,0.4423101591245819,-0.44322022096198516
20.0,-0.30173822504455694,-0.7838587094737586,2.282839886221889,-1.2828745266852213,1.2773013883613784,-0.05974388624654825,-0.5683114327439497,-0.022751293980339947,-0.08997588215173885,-0.5474528379559885,0.5503862261589346,0.44529061554313903,-0.44619128182616086
21.0,-0.30454739455769003,-0.7806357417299421,2.285581354591337,-1.2999263944703179,1.2738707505877975,-0.05716883297094017,-0.5678474595131667,-0.021637165500548373,-0.09090223333877831,-0.5450716047607675,0.5479375202598263,0.4482616956598779,-0.4491356941717782
22.0,-0.30735656407082307,-0.7774127739861256,2.288322822960785,-1.3169782622554143,1.2704401128142169,-0.0545937796953321,-0.5673673173744065,-0.020530056652153218,-0.09179840945641163,-0.5427018473501817,0.5454539781230834,0.4512233236782129,-0.45205328756816915
23.0,-0.3101657335839561,-0.7741898062423092,2.2910642913302324,-1.3340301300405106,1.267009475040636,-0.05201872641972403,-0.5668710114727369,-0.019430099818712535,-0.09266451559741516,-0.5403438003987674,0.5429358302284959,0.4541754240583318,-0.4549438930309378
24.0,-0.31297490309708914,-0.7709668384984927,2.2938057596996804,-1.3510819978256072,1.263578837267055,-0.049443673144115956,-0.5663585495760299,-0.018337427025202725,-0.09350065910449565,-0.5379976963352461,0.5403833095403461,0.4571179215202485,-0.4578073430311041
25.0,-0.31578407261022223,-0.7677438707546762,2.2965472280691284,-1.3681338656107038,1.2601481994934742,-0.046868619868507884,-0.5658299420803798,-0.017252169904589783,-0.0943069495437072,-0.5356637653209689,0.5377966514817607,0.46005074104684623,-0.46064347150417245
26.0,-0.31859324212335527,-0.7645209030108597,2.299288696438576,-1.3851857333958002,1.2567175617198934,-0.04429356659289981,-0.5652852020148451,-0.01617445966438817,-0.09508349867768086,-0.5333422352286247,0.5351760939088533,0.46297380788691256,-0.4634521138591219
27.0,-0.3214024116364883,-0.7612979352670433,2.302030164808024,-1.4022376011808966,1.2532869239463125,-0.04171851331729174,-0.5647243450455117,-0.01510442705321739,-0.09583042043866888,-0.531033331621208,0.5325218770846576,0.46588704755816585,-0.46623310698731824
28.0,-0.32421158114962134,-0.7580749675232268,2.304771633177472,-1.4192894689659932,1.2498562861727318,-0.03914346004168366,-0.5641473894788805,-0.014042202327366058,-0.09654783090141522,-0.5287372777312548,0.5298342436528505,0.46879038585027205,-0.4689862892713463
29.0,-0.32702075066275443,-0.7548519997794103,2.3075131015469195,-1.4363413367510898,1.246425648399151,-0.0365684067660756,-0.5635543562645752,-0.01298791521737364,-0.09723584825585156,-0.5264542944403415,0.5271134386112766,0.4716837488278528,-0.4717115005937646
30.0,-0.32982992017588747,-0.7516290320355938,2.3102545699163675,-1.4533932045361861,1.24299501062557,-0.033993353490467525,-0.5629452689973723,-0.011941694894640297,-0.09789459277962977,-0.5241846002588565,0.5243597092852688,0.47456706283348354,-0.4744085823457789
31.0,-0.3305485898902903,-0.7557656439559445,2.3031031880910584,-1.4191091350422567,1.245168369955661,-0.04125620168862437,-0.5647025904854527,-0.01073636559749685,-0.09762555348566802,-0.5287928635240995,0.530053565473115,0.4693060118538421,-0.46815936651215523
32.0,-0.3309079247474917,-0.7578339499161199,2.2995274971784037,-1.401967100295292,1.2462550496207065,-0.0448876257877028,-0.5655635937529686,-0.010138581077438976,-0.09744254977373398,-0.5310927522926231,0.5328615183367231,0.4666385587096846,-0.46502424266211856
33.0,-0.3312672596046931,-0.7599022558762951,2.295951806265749,-1.3848250655483274,1.247341729285752,-0.048519049886781226,-0.5664129319373012,-0.009544031888989883,-0.09722708020366982,-0.5333896200609409,0.535643350358955,0.4639465233869801,-0.46188238531536696
34.0,-0.3316265944618945,-0.7619705618364705,2.292376115353094,-1.3676830308013628,1.2484284089507975,-0.05215047398585965,-0.5672506865457547,-0.008952703769578118,-0.09697904066694296,-0.5356833219680722,0.5383989601816878,0.4612299350700469,-0.4587340027028828
35.0,-0.33198592931909593,-0.7640388677966458,2.28880042444044,-1.3505409960543981,1.249515088615843,-0.055781898084938074,-0.5680769403273686,-0.008364581903957547,-0.09669832967617613,-0.5379737127291881,0.5411282477802705,0.4584888245382434,-0.4555793033492272
36.0,-0.33234526417629734,-0.7661071737568211,2.285224733527785,-1.3333989613074333,1.2506017682808885,-0.0594133221840165,-0.5688917772532132,-0.007779650928446719,-0.09638484838072638,-0.5402606466443723,0.5438311144694988,0.4557232241676737,-0.4524184960592214
37.0,-0.33270459903349875,-0.7681754797169964,2.2816490426151304,-1.3162569265604687,1.251688447945934,-0.06304474628309492,-0.569695282496513,-0.007197894935272246,-0.09603850058198361,-0.5425439776074269,0.5465074629095189,0.4529331679327843,-0.44925178990459774
38.0,-0.33306393389070016,-0.7702437856771718,2.278073351702476,-1.299114891813504,1.2527751276109795,-0.06667617038217336,-0.5704875424126085,-0.006619297477015746,-0.09565919274838619,-0.5448235591147171,0.5491571971116572,0.4501186914078573,-0.44607939421062576
39.0,-0.33342326874790157,-0.772312091637347,2.2744976607898213,-1.2819728570665392,1.253861807276025,-0.07030759448125178,-0.5712686445187537,-0.006043841571161748,-0.09524683403015213,-0.5470992442740602,0.5517802224441763,0.4472798317683974,-0.4429015185427133
40.0,-0.333782603605103,-0.7743803975975224,2.2709219698771665,-1.2648308223195746,1.2549484869410705,-0.0739390185803302,-0.572038677473754,-0.005471509704749859,-0.0948013362737222,-0.549370885813656,0.5543764456379592,0.4444166277924112,-0.43971837269298086
41.0,-0.3341419384623044,-0.7764487035576977,2.2673462789645122,-1.24768878757261,1.256035166606116,-0.07757044267940863,-0.5727977310574488,-0.004902283839127067,-0.09432261403591412,-0.5516383360910565,0.5569457747921184,0.4415291198615803,-0.4365301666668132
42.0,-0.3345012733195058,-0.7785170095178731,2.2637705880518575,-1.2305467528256453,1.2571218462711617,-0.08120186677848704,-0.5735458961500413,-0.0043361454148005876,-0.09381058459778471,-0.5539014471021771,0.5594881193795304,0.43861734996232904,-0.4333371106693887
43.0,-0.3348606081767072,-0.7805853154780483,2.2601948971392027,-1.2134047180786804,1.2582085259362072,-0.08483329087756547,-0.5742832647112739,-0.003773075356392753,-0.09326516797819798,-0.5561600704903478,0.5620033902522968,0.43568136168678223,-0.4301394150921849
44.0,-0.3352199430339086,-0.7826536214382237,2.256619206226548,-1.1962626833317158,1.2592952056012527,-0.0884647149766439,-0.5750099297594622,-0.00321305407769405,-0.09268628694709816,-0.5584140575554022,0.5644914996471287,0.4327212002336191,-0.426937290499464
45.0,-0.33557927789111003,-0.784721927398399,2.2530435153138937,-1.1791206485847512,1.2603818852662982,-0.09209613907572232,-0.5757259853503796,-0.002656061486816185,-0.09207386703848475,-0.5606632592628065,0.5669523611906567,0.42973691240881656,-0.42373094761473745
46.0,-0.33593861274831144,-0.7867902333585743,2.249467824401239,-1.1619786138377866,1.2614685649313437,-0.09572756317480074,-0.5764315265560057,-0.0021020769914427626,-0.09142783656308637,-0.5629075262528257,0.5693858899046639,0.42672854662628823,-0.4205205973072117
47.0,-0.33629794760551285,-0.7888585393187497,2.245892133488584,-1.1448365790908217,1.2625552445963892,-0.09935898727387918,-0.57712664944313,-0.0015510795041794485,-0.09074812662073423,-0.5651467088497288,0.5717920022112446,0.4236961529084112,-0.4173064505782147
48.0,-0.33665728246271426,-0.790926845278925,2.24231644257593,-1.127694544343857,1.2636419242614347,-0.10299041137295759,-0.5778114510518276,-0.0010030474479996113,-0.09003467111243091,-0.5673806570710297,0.5741706159378844,0.4206397828864498,-0.41408871854760493
49.0,-0.33701661731991567,-0.7929951512391004,2.238740751663275,-1.1105525095968924,1.2647286039264802,-0.10662183547203602,-0.5784860293738001,-0.0004579587617867095,-0.08928740675211341,-0.569609220636764,0.5765216503224635,0.41755948980086754,-0.41086761244016384
50.0,-0.3373759521771171,-0.7950634571992756,2.2351650607506204,-1.0934104748499278,1.2658152835915257,-0.11025325957111445,-0.5791504833305857,8.420909402612545e-05,-0.08850627307810933,-0.5718322489788044,0.5788450260181852,0.4144553285015318,-0.4076433435719718
51.0,-0.3377352870343185,-0.797131763159451,2.2315893698379656,-1.076268440102963,1.2669019632565712,-0.11388468367019289,-0.5798049127516492,0.0006234791317231232,-0.08769121246428233,-0.5740495912502084,0.5811406650984229,0.4113273554478107,-0.4044161233367703
52.0,-0.3380946218915199,-0.7992000691196263,2.2280136789253113,-1.0591264053559983,1.2679886429216167,-0.1175161077692713,-0.5804494183523448,0.0011598748304775088,-0.08684217013086767,-0.5762610963346029,0.5834084910614923,0.40817562870856067,-0.40118616319230843
53.0,-0.3384539567487213,-0.8012683750798016,2.2244379880126566,-1.0419843706090337,1.2690753225866622,-0.12114753186834973,-0.5810841017117637,0.0016934201304305398,-0.08595909415499331,-0.5784666128556019,0.5856484288353426,0.405000207962006,-0.39795367464667747
54.0,-0.33881329160592266,-0.8033366810399769,2.220862297100002,-1.024842335862069,1.2701620022517077,-0.12477895596742813,-0.5817090652504643,0.0022241394266763366,-0.08504193548088868,-0.5806659891862588,0.5878604047821722,0.40180115449550763,-0.39471886924463256
55.0,-0.33917262646312407,-0.8054049870001523,2.2172866061873475,-1.0077003011151042,1.2712486819167532,-0.12841038006650657,-0.5823244122080887,0.0027520575631558904,-0.08409064792977355,-0.5828590734585505,0.5900443467029624,0.3985785312052253,-0.3914819585539026
56.0,-0.3395319613203255,-0.8074732929603275,2.2137109152746928,-0.9905582663681396,1.2723353615817987,-0.132041804165585,-0.5829302466208752,0.00327719982645989,-0.0831051882094323,-0.5850457135728955,0.5922001838419318,0.39533240259566993,-0.3882431541514913
57.0,-0.3398912961775269,-0.8095415989205029,2.210135224362038,-0.973416231621175,1.2734220412468442,-0.13567322826466344,-0.5835266732990576,0.0037995919395396286,-0.08208551592346705,-0.5872257572077029,0.594327846890915,0.3920628347791448,-0.38500266760996615
58.0,-0.3402506310347283,-0.8116099048806782,2.2065595334493837,-0.9562741968742103,1.2745087209118897,-0.13930465236374184,-0.5841137978041693,0.004319260055330209,-0.08103159358022934,-0.5893990518289531,0.5964272679936555,0.38876989547507995,-0.38176071048374105
59.0,-0.3406099658919297,-0.8136782108408536,2.202983842536729,-0.9391321621272456,1.2755954005769352,-0.14293607646282028,-0.5846917264262435,0.004836230750284152,-0.07994338660142977,-0.5915654446998097,0.5984983807500225,0.38545365400925635,-0.3785174942953498
60.0,-0.3409693007491311,-0.8157465168010288,2.199408151624074,-0.921990127380281,1.2766820802419807,-0.14656750056189868,-0.5852605661609196,0.005350531017816863,-0.07882086333042382,-0.5937247828902601,0.6005411202201456,0.38211418131291974,-0.37527323052171324
61.0,-0.34132863560633253,-0.8178148227612042,2.1958324607114195,-0.9048480926333162,1.2777687599070262,-0.15019892466097712,-0.5858204246864571,0.005862188261665691,-0.07766399504017077,-0.5958769132867889,0.6025554229284691,0.37875154992178606,-0.3720281305804003
62.0,-0.34168797046353394,-0.8198831287213795,2.192256769798765,-0.8877060578863515,1.2788554395720717,-0.15383034876005555,-0.5863714103406598,0.006371230289162661,-0.07647275594086728,-0.5980216826020758,0.6045412268677235,0.37536583397493545,-0.36878240581588395
63.0,-0.34204730532073535,-0.8219514346815548,2.1886810788861104,-0.8705640231393869,1.2799421192371172,-0.15746177285913396,-0.5869136320977163,0.006877685304422284,-0.0752471231872514,-0.6001589373847259,0.6064984715028173,0.37195710921359953,-0.3655362674857935
64.0,-0.34240664017793676,-0.8240197406417302,2.1851053879734557,-0.8534219883924221,1.2810287989021627,-0.1610931969582124,-0.5874471995449552,0.007381581901444298,-0.07398707688557801,-0.6022885240290263,0.6084270977746471,0.36852545297983513,-0.3622899267471626
65.0,-0.34276597503513817,-0.8260880466019055,2.1815296970608014,-0.8362799536454575,1.2821154785672082,-0.16472462105729083,-0.5879722228595243,0.007882949057134355,-0.07269260010026236,-0.6044102887847295,0.6103270481038234,0.36507094421509145,-0.3590435946426768
66.0,-0.3431253098923396,-0.8281563525620809,2.1779540061481466,-0.8191379188984927,1.2832021582322537,-0.16835604515636926,-0.5884888127849941,0.008381816124241567,-0.07136367886019235,-0.6065240777668638,0.6121982663943164,0.3615936634586654,-0.35579748208691786
67.0,-0.343484644749541,-0.8302246585222561,2.174378315235492,-0.801995884151528,1.2842888378972992,-0.17198746925544767,-0.5889970806078881,0.008878212824214608,-0.07000030216470754,-0.6086297369655704,0.6140406980370171,0.3580936928460474,-0.35255179985260837
68.0,-0.3438439796067424,-0.8322929644824315,2.170802624322837,-0.7848538494045635,1.285375517562345,-0.1756188933545261,-0.5894971381341456,0.009372169239977971,-0.06860246198924194,-0.6107271122559655,0.6158542899132187,0.3545711161071584,-0.3493067585568575
69.0,-0.3442033144639438,-0.8343612704426068,2.167226933410183,-0.7677118146575987,1.2864621972273904,-0.17925031745360454,-0.589989097665519,0.009863715808628326,-0.06717015329063497,-0.6128160494080264,0.6176389903980094,0.35102601856447385,-0.3460625686474064
70.0,-0.3445626493211452,-0.8364295764027821,2.163651242497528,-0.750569779910634,1.287548876892436,-0.18288174155268297,-0.5904730719759125,0.010352883314053065,-0.06570337401210138,-0.614896394096503,0.6193947493635874,0.3474584871310426,-0.34281944038887846
71.0,-0.34492198417834663,-0.8384978823629574,2.1600755515848733,-0.7334277451636694,1.2886355565574814,-0.18651316565176138,-0.5909491742876577,0.010839702879471015,-0.0642021250878678,-0.6169679919108529,0.6211215181824894,0.3438686103083913,-0.33957758384903014
72.0,-0.34528131903554804,-0.8405661883231328,2.156499860672219,-0.7162857104167046,1.289722236222527,-0.1901445897508398,-0.591417518247739,0.01132420595989701,-0.06266641044746732,-0.6190306883651987,0.6228192497307343,0.34025647818432003,-0.3363372088850074
73.0,-0.34564065389274945,-0.842634494283308,2.1529241697595642,-0.6991436756697399,1.2908089158875724,-0.19377601384991824,-0.5918782179039676,0.011806424334531702,-0.061096237019696596,-0.6210843289083078,0.6244878983908841,0.33662218243059056,-0.3330985251296075
74.0,-0.34599998874995086,-0.8447028002434834,2.1493484788469095,-0.6820016409227753,1.291895595552618,-0.19740743794899665,-0.5923313876811049,0.012286390099076413,-0.05949161473623183,-0.6231287589335953,0.6261274200550218,0.33296581630050054,-0.32986174197754586
75.0,-0.34635932360715227,-0.8467711062036587,2.1457727879342547,-0.6648596061758105,1.2929822752176634,-0.20103886204807508,-0.5927771423569471,0.012764135657975358,-0.05785255653490484,-0.625163823789146,0.6277377721276397,0.32928747462635044,-0.3266270685717297
76.0,-0.3467186584643537,-0.8488394121638341,2.1421970970216004,-0.6477175714288459,1.294068954882709,-0.2046702861471535,-0.5932155970383642,0.013239693716586513,-0.05617907836263383,-0.627189368787759,0.6293189135284489,0.3255872538168007,-0.32339471378954115
77.0,-0.3470779933215551,-0.8509077181240093,2.1386214061089457,-0.6305755366818813,1.2951556345477544,-0.20830171024623192,-0.5936468671373072,0.013713097273280562,-0.05447119917801601,-0.6292052392170099,0.6308708046950985,0.32186525185411713,-0.3201648862291271
78.0,-0.3474373281787565,-0.8529760240841847,2.135045715196291,-0.6134335019349165,1.2962423142128,-0.21193313434531036,-0.5940710683467778,0.01418437961147069,-0.05272894095357299,-0.631211280349335,0.6323934075858125,0.3181215682913087,-0.31693779419569973
79.0,-0.3477966630359579,-0.85504433004436,2.1314700242836366,-0.5962914671879519,1.2973289938778454,-0.21556455844438877,-0.5944883166167708,0.014653574291573993,-0.050952328677653765,-0.6332073374521322,0.6338866856819401,0.31435630424915323,-0.31371364568784793
80.0,-0.3481559978931593,-0.8571126360045354,2.127894333370982,-0.5791494324409872,1.298415673542891,-0.2191959825434672,-0.5948987281301912,0.015120715142905389,-0.04914139035599269,-0.6351932557978804,0.6353506039904194,0.3105695624131166,-0.31049264838385937
81.0,-0.34405560478122293,-0.8554299646214322,2.116803009589302,-0.5446970880577099,1.3072183940131574,-0.22158504653437577,-0.5969778228201604,0.014237168811640083,-0.048160961987991364,-0.6385479782246812,0.6398081222485846,0.30221876096529837,-0.30259852400583825
82.0,-0.3420054082252547,-0.8545886289298806,2.111257347698462,-0.5274709158660713,1.3116197542482906,-0.22277957852983005,-0.598009874906803,0.013786800639461127,-0.04762019309302777,-0.6402258306837713,0.6419660557832131,0.2980323336940463,-0.298608769161758
83.0,-0.33995521166928655,-0.8537472932383291,2.105711685807622,-0.5102447436744326,1.3160211144834237,-0.22397411052528435,-0.5990371967622594,0.013330836901530585,-0.04704565913365343,-0.6419037175368654,0.6440764950657741,0.2938387940149916,-0.29459098602631295
84.0,-0.33790501511331833,-0.8529059575467774,2.100166023916782,-0.49301857148279404,1.3204224747185571,-0.22516864252073862,-0.6000599912115739,0.012869376927483085,-0.04643731899264153,-0.6435814172359546,0.6461392369520833,0.2896383209154356,-0.2905455023173248
85.0,-0.33585481855735017,-0.8520646218552259,2.094620362025942,-0.47579239929115547,1.3248238349536903,-0.2263631745161929,-0.6010784633076406,0.012402518801910754,-0.04579513585347228,-0.6452587068881027,0.6481540821219388,0.28543109338369455,-0.28647264781048337
86.0,-0.33380462200138195,-0.8512232861636744,2.0890747001351024,-0.45856622709951683,1.3292251951888236,-0.2275577065116472,-0.602092820273771,0.011930359326885817,-0.04511907723286529,-0.6469353622819949,0.6501208351002822,0.2812172903969864,-0.2823727543148465
87.0,-0.3317544254454138,-0.8503819504721227,2.0835290382442624,-0.4413400549078782,1.3336265554239568,-0.22875223850710147,-0.6031032714453131,0.011452993984934693,-0.044409115012444086,-0.6486111579146677,0.6520393042780139,0.27699709090934466,-0.2782461556481917
88.0,-0.32970422888944556,-0.8495406147805712,2.0779833763534223,-0.4241138827162396,1.33802791565909,-0.22994677050255577,-0.6041100282103277,0.01097051690247899,-0.043665225469526406,-0.6502858670184142,0.6539093019324613,0.2727706738395574,-0.27409318761221346
89.0,-0.32765403233347734,-0.8486992790890197,2.0724377144625823,-0.40688771052460093,1.3424292758942233,-0.23114130249801004,-0.6051133039493459,0.010483020813760681,-0.042887389307023724,-0.6519592615878613,0.655730644247498,0.2685382180591361,-0.2699141879675748
90.0,-0.3256038357775092,-0.847857943397468,2.0668920525717427,-0.38966153833296235,1.3468306361293565,-0.23233583449346432,-0.6061133139742134,0.009990597025262806,-0.04207559168244053,-0.6536311124072189,0.6575031513333113,0.26429990238031187,-0.2657094964088108
91.0,-0.32355363922154096,-0.8470166077059165,2.0613463906809026,-0.3724353661413238,1.3512319963644897,-0.23353036648891862,-0.607110275466044,0.009493335380644171,-0.04122982223596053,-0.6553011890776937,0.6592266472458159,0.2600559055440632,-0.26147945453908694
92.0,-0.3215034426655728,-0.8461752720143649,2.0558007287900626,-0.3552091939496851,1.355633356599623,-0.2347248984843729,-0.6081044074122928,0.008991324226199417,-0.04035007511761121,-0.6569692600450693,0.6609009600057152,0.25580640620817213,-0.25722440584481426
93.0,-0.31945324610960457,-0.8453339363228134,2.0502550668992225,-0.3379830217580465,1.3600347168347562,-0.2359194304798272,-0.6090959305429673,0.008484650376861472,-0.039436349013491356,-0.6586350926274457,0.662525921617201,0.25155158293531465,-0.2529446956701248
94.0,-0.3174030495536364,-0.8444926006312617,2.044709405008383,-0.3207568495664079,1.3644360770698893,-0.23711396247528146,-0.6100850672659933,0.007973399082759455,-0.038488647171054574,-0.6602984530431375,0.6641013680862978,0.24729161418118165,-0.24864067119120437
95.0,-0.3153528529976682,-0.8436512649397102,2.039163743117543,-0.30353067737476924,1.3688374373050227,-0.23830849447073574,-0.61107204160175,0.007457653996346791,-0.03750697742343487,-0.661959106438727,0.6656271394388441,0.24302667828263558,-0.24431268139049173
96.0,-0.31330265644169997,-0.8428099292481587,2.033618081226703,-0.2863045051831306,1.3732387975401559,-0.23950302646619004,-0.6120570791167914,0.0069374971401117425,-0.03649135221280782,-0.663616816917269,0.667103079738111,0.23875695344589862,-0.2399610770307388
97.0,-0.3112524598857318,-0.841968593556607,2.028072419335863,-0.26907833299149203,1.377640157775289,-0.2406975584616443,-0.6130404068567742,0.006413008874887676,-0.035441788612772626,-0.665271347566644,0.6685290371020574,0.23448261773477924,-0.23558621062893892
98.0,-0.3092022633297636,-0.8411272578650555,2.022526757445023,-0.2518521607998534,1.3820415180104224,-0.2418920904570986,-0.6140222532786036,0.0058842678687727815,-0.03435830834974932,-0.6669224604880575,0.669904863720217,0.23020384905893346,-0.2311884364301225
99.0,-0.3071520667737954,-0.840285922173504,2.016981095554183,-0.23462598860821476,1.3864428782455556,-0.2430866224525529,-0.6150028481818245,0.005351351066676018,-0.0332409378233767,-0.6685699168246813,0.6712304158702181,0.22592082516216336,-0.22676811038102349
100.0,-0.3051018702178272,-0.8394445864819523,2.011435433663343,-0.21739981641657619,1.390844238480689,-0.24428115444800716,-0.6159824226392643,0.004814333660499328,-0.03208970812590768,-0.6702134767904353,0.6725055539339335,0.2216337236107544,-0.22232559010361674
101.0,-0.30305167366185903,-0.8386032507904008,2.005889771772503,-0.20017364422493755,1.395245598715822,-0.24547568644346146,-0.6169612089269545,0.004273289059972112,-0.030904655060587496,-0.6718528996989043,0.6737301424132589,0.21734272178185085,-0.21786123486853054
102.0,-0.3010014771058908,-0.8377619150988492,2.000344109881663,-0.18294747203329892,1.3996469589509553,-0.24667021843891573,-0.6179394404533483,0.003728288864148883,-0.029685819159006588,-0.6734879439923871,0.674904049945517,0.21304799685187195,-0.2133754055683338
103.0,-0.29895128054992265,-0.8369205794072976,1.9947984479908234,-0.16572129984166034,1.4040483191860886,-0.24786475043437,-0.6189173516878501,0.0031794028335832224,-0.028433245697424364,-0.6751183672710788,0.6760271493184888,0.2087497257849682,-0.20886846469070214
104.0,-0.29690108399395443,-0.836079243715746,1.9892527860999833,-0.1484951276500217,1.4084496794212218,-0.2490592824298243,-0.6198951780886804,0.0026266988631909187,-0.02714698471204699,-0.6767439263223752,0.6770993174850659,0.20444808532152015,-0.2043407762914637
105.0,-0.29317476394867825,-0.8309999273583669,1.9776661050391668,-0.11512335152448355,1.416987899682802,-0.2491597134761132,-0.6216404938917054,0.0016540229756986397,-0.026459321759183342,-0.679212194033947,0.6801852216802818,0.1948127555943865,-0.19510727803200884
106.0,-0.29131160392604016,-0.8284602691796774,1.9718727645087584,-0.09843746346171445,1.4212570098135922,-0.24920992899925765,-0.6225163585188155,0.0011640324741079722,-0.02607342299961858,-0.6804314877683213,0.6816470532617452,0.18999616622290164,-0.19045141651762001
107.0,-0.2894484439034021,-0.8259206110009879,1.9660794239783501,-0.08175157539894536,1.4255261199443823,-0.2492601445224021,-0.6233948024422306,0.0006717130083260399,-0.025659568328410487,-0.6816406720617039,0.6830546279495401,0.18518062230481586,-0.1857700367410878
108.0,-0.287585283880764,-0.8233809528222983,1.9602860834479419,-0.06506568733617625,1.4297952300751722,-0.24931036004554655,-0.6242761572775156,0.00017714092058910161,-0.025217831657080796,-0.6828395844698839,0.6844078188608601,0.18036636882811913,-0.18106355889265843
109.0,-0.2857221238581259,-0.8208412946436088,1.9544927429175336,-0.04837979927340717,1.4340643402059623,-0.24936057556869098,-0.6251607549260265,-0.0003196100492047131,-0.024748292668369663,-0.6840280622335281,0.685706503551909,0.17555364967334688,-0.17633240527489089
110.0,-0.2838589638354878,-0.8183016364649193,1.9486994023871254,-0.03169391121063807,1.4383334503367524,-0.24941079109183545,-0.6260489274749936,-0.0008184687886544647,-0.024251036821395705,-0.6852059422984443,0.6869505640303847,0.17074270759489946,-0.17157700026635225
111.0,-0.2819958038128497,-0.8157619782862296,1.942906061856717,-0.015008023147868976,1.4426025604675425,-0.24946100661497989,-0.6269410070970817,-0.0013193668370619393,-0.023726155355331437,-0.6863730613359148,0.6881398867675843,0.1659337842025225,-0.16679777028513204
112.0,-0.28013264379021163,-0.8132223201075401,1.9371127213263086,0.001677864914900129,1.4468716705983327,-0.24951122213812435,-0.6278373259494507,-0.0018222384086730838,-0.02317374529157932,-0.6875292557630917,0.6892743627101265,0.1611271199429502,-0.16199514375217713
113.0,-0.2782694837675736,-0.8106826619288505,1.9313193807959004,0.018363752977669234,1.4511407807291228,-0.2495614376612688,-0.6287382160723519,-0.002327020414943712,-0.02259390943444907,-0.6886743617634616,0.6903538872912921,0.15632295408171148,-0.15716955105445166
114.0,-0.2764063237449355,-0.808143003750161,1.9255260402654921,0.03504964104043831,1.455409890859913,-0.24961165318441325,-0.6296440092872873,-0.002833652485817053,-0.021986756370324996,-0.6898082153073685,0.6913783604419805,0.1515215246851037,-0.15232142450792516
115.0,-0.2745431637222974,-0.8056033455714715,1.9197326997350839,0.05173552910320739,1.459679000990703,-0.2496618687075577,-0.630555037094762,-0.003342076990003917,-0.021352400465320442,-0.6909306521725963,0.692347686601282,0.14672306860233247,-0.14745119832039108
116.0,-0.27268000369965933,-0.8030636873927819,1.9139393592046756,0.0684214171659765,1.463948111121493,-0.24971208423070212,-0.6314716305716612,-0.003852239054253593,-0.02069096186141288,-0.692041507965009,0.6932617747266637,0.1419278214478208,-0.14255930855411958
117.0,-0.27081684367702125,-0.8005240292140924,1.9081460186742674,0.0851073052287456,1.468217221252283,-0.2497622997538466,-0.6323941202682829,-0.004364086581606098,-0.02000256647105729,-0.6931406181392465,0.6941205383037694,0.1371360175836898,-0.13764619308834833
118.0,-0.26895368365438316,-0.7979843710354029,1.9023526781438589,0.10179319329151468,1.4724863313830732,-0.24981251527699103,-0.6333228361050545,-0.0048775702686159285,-0.01928734597026993,-0.6942278180194704,0.6949238953558313,0.13234789010240935,-0.13271229158161357
119.0,-0.26709052363174507,-0.7954447128567133,1.8965593376134506,0.11847908135428378,1.4767554415138633,-0.2498627308001355,-0.6342581072689681,-0.005392643621537179,-0.01854543779018128,-0.6953029428201628,0.6956717684526936,0.12756367080962444,-0.12775804543392563
120.0,-0.265227363609107,-0.7929050546780237,1.8907659970830424,0.1351649694170529,1.4810245516446534,-0.24991294632327993,-0.6352002621097655,-0.0059092629714619154,-0.017776985107054638,0.6963658276669696,-0.6963640847194461,-0.12278359020715582,0.12278389774879124
121.0,-0.24540095020076716,-0.7918888942027138,1.8791017950664672,0.14419243832501571,1.4876106331846009,-0.23114105343685765,-0.6407023630124685,-0.01643876774231614,-0.015585923439044441,0.6963654972621496,-0.6963645204822108,-0.12278335898806766,0.12278353143653706
122.0,-0.21174765142480703,-0.7932141523885513,1.8886132929532464,0.1335425935622001,1.4988547707037818,-0.19932568191587433,-0.6352687549984602,-0.03790111276671059,-0.017446563674526808,0.6963655369927743,-0.6963647180377399,-0.12278270001903811,0.1227828446364513
123.0,-0.22453056842926017,-0.7958060958706663,1.9139974996995672,0.11164475834955834,1.4945742258595454,-0.211405841573705,-0.6231948635555394,-0.03303761048862152,-0.022075123129287583,0.696366247135107,-0.6963640472846673,-0.12278246657637461,0.12278285467322513
124.0,-0.21232436334454063,-0.804609157749568,1.8927147148650674,0.14090746721592895,1.4986660359169177,-0.19988028609920844,-0.6340209665215306,-0.037826173855051264,-0.010651765065164909,0.696370255637351,-0.6963639615718618,-0.12277128010712389,0.1227717918268327
125.0,-0.20622126080218084,-0.8090106886890189,1.8820733224478172,0.15553882164911426,1.5007119409456038,-0.19411750836196015,-0.6393250211860368,-0.040342364790781945,-0.004779794939756929,0.6963707074087705,-0.6963632452227833,-0.12277197766851283,0.12277259492722586
126.0,-0.20011815825982107,-0.8134122196284698,1.8714319300305673,0.17017017608229956,1.50275784597429,-0.18835473062471186,-0.6445530475071742,-0.04293866907673095,0.0011977733355453268,0.6963701241200848,-0.6963620804834242,-0.12277680073530281,0.1227776864865042
127.0,-0.1940150557174613,-0.8178137505679206,1.8607905376133174,0.18480153051548487,1.5048037510029761,-0.18259195288746358,-0.6497025479289292,-0.04561415318403451,0.007279960793527843,0.6963685057182212,-0.6963604678077584,-0.12278569749437199,0.12278711499645309
128.0,-0.18236128038189953,-0.8135252903017809,1.8337581893776278,0.20683948138108746,1.5087327228334784,-0.17157968207115384,-0.6620197994366748,-0.05043718103647906,0.01208727662034706,-0.6963624553388962,0.6963663537592641,0.1227872161471176,-0.12278652897305992
129.0,-0.18802403168867465,-0.8095034095379815,1.8098041704257601,0.2271103195424702,1.5068189246034245,-0.17694057980882696,-0.6735272263780289,-0.04472958828125975,0.016494060838766214,0.6963693081096062,-0.6963596353927892,-0.12278563847214816,0.1227873442320377
130.0,-0.24127522139148566,-0.8101476337215011,1.8150080020966202,0.22621451662040548,1.4889832355755424,-0.22723557480109718,-0.672447135188961,-0.011122672883947346,0.0157611487406039,-0.6963644635592701,0.6963644637208637,0.12278653735464187,-0.12278653754797839
131.0,-0.25645112552520155,-0.8129439021544376,1.8328706502922476,0.21235803340552617,1.4839348227768987,-0.24159822964676123,-0.6642228354982164,-0.0035768541732482317,0.01250276392878534,-0.6963644635592087,0.6963644637203545,0.12278653735570187,-0.12278653755015413
132.0,-0.2677781208799728,-0.8082832635316195,1.8074852861279018,0.23403353677470595,1.480178358188735,-0.2523264122393371,-0.6758642955624417,0.006783744869673529,0.016953683752181647,-0.6963644635591638,0.6963644637199723,0.12278653735651505,-0.12278653755176316
133.0,-0.27253284955048296,-0.8031706845479278,1.780796808868725,0.2560206898673214,1.478604576106099,-0.256831940963704,-0.687914864379849,0.013226299237531552,0.021622943523748675,-0.696364463559145,0.6963644637198115,0.12278653735686196,-0.12278653755243472
134.0,-0.29160611556591587,-0.8032691525651027,1.7843945466409634,0.2542432571924902,1.472310495684211,-0.27491894572512693,-0.6858464263689511,0.0252331474294524,0.02073629827381382,-0.6963644635590718,0.6963644637191627,0.12278653735828547,-0.122786537555105
135.0,-0.30385295994436423,-0.8069571558062012,1.8064588778409234,0.23703330232621966,1.468285863963447,-0.28654426844661385,-0.6755022940974669,0.030113064064025353,0.01666035189120113,-0.6963644635590261,0.6963644637187438,0.12278653735922641,-0.12278653755679965
136.0,-0.2912560520752086,-0.8138045292408688,1.843547399181749,0.20559314016303487,1.4724257325439296,-0.2745867855838762,-0.6588868458728712,0.016919483466751463,0.010280849493983835,-0.6963644635590731,0.6963644637191748,0.12278653735825888,-0.12278653755505643
137.0,-0.319749316964519,-0.8154371963344288,1.8604574784839383,0.19309947064905164,1.4630825238563252,-0.3016482826262876,-0.6502129356870415,0.03215742105742581,0.0068250106833028235,-0.6963644635589684,0.6963644637181972,0.12278653736047859,-0.12278653755897535
138.0,-0.3176859702582515,-0.7991117937932385,1.8782862862850012,0.15873837643415628,1.4637569884360202,-0.2996887876555242,-0.6409250981051147,0.02780540357163187,-0.009625685294746292,0.6963652546394358,-0.6963640758522499,-0.12278529293127904,0.12278549520678743
139.0,-0.31665429690511776,-0.7909490925226433,1.8872006901855325,0.14155782932670857,1.4640942207258678,-0.2987090401701425,-0.636121579532104,0.02559338953453314,-0.017674961645621295,0.6963655998317886,-0.696363867989985,-0.12278485184517154,0.12278515743484371
140.0,-0.3249314682758193,-0.7928110051681164,1.9070425822642718,0.12445410463097083,1.4613985656299389,-0.30658710224777463,-0.6263731635187183,0.027391746611649007,-0.021398802098413133,0.6963693645227444,-0.6963635552466307,-0.12277470326610329,0.1227757277167679
141.0,-0.31113025122802457,-0.7916176200242715,1.8916413527686506,0.137280888480849,1.465916080201537,-0.2934702727990773,-0.634160613372005,0.02158157412468839,-0.018426980243347546,0.6963706818718086,-0.6963651017653999,-0.12276724161073344,0.1227669453067416
142.0,-0.298656222328562,-0.7921837097493674,1.892239509375283,0.13598418904407453,1.4699925935552975,-0.281613436723107,-0.6341818644845105,0.01399960145004528,-0.0183285694130641,0.6963658284603987,-0.6963637875496708,-0.12278440437769726,0.12278476446104221
143.0,-0.2835420543047388,-0.8045281595513818,1.8756158753100296,0.16357794683736493,1.4749778876518582,-0.2672777414998371,-0.643255877703203,0.00749324293648862,-0.005475427076041553,0.696368632923356,-0.6963652271702694,-0.12277265228886386,0.12277244527381957
144.0,-0.2759849702928272,-0.8107003844523889,1.867304058277403,0.17737482573401014,1.4774705347001384,-0.26010989388820216,-0.6476672056279931,0.0041082373021309425,0.0010853865022229653,0.6963674199616544,-0.6963651203717443,-0.12277643997204553,0.1227761431768634
145.0,-0.26842788628091563,-0.8168726093533961,1.8589922412447764,0.19117170463065536,1.4799631817484187,-0.2529420462765672,-0.6519913025002393,0.0006369999981196918,0.007734443577511879,-0.696364463559161,0.6963644637199504,0.12278653735656231,-0.12278653755185517
146.0,-0.22453707244415172,-0.8162813557507377,1.8509294903883016,0.19517778805946828,1.494569500234576,-0.2114118703463839,-0.6554004735091996,-0.025678669202780113,0.009279095010342436,0.696365831564704,-0.6963631154094245,-0.12278624202448118,0.12278672117124202
147.0,-0.23115130687444782,-0.8096495202670386,1.8471463066295801,0.20989713938346247,1.4597108388944795,-0.27597180580474184,-0.655568814933324,-0.02462729474374138,0.007338337963431238,0.718422232416749,-0.6745570811226959,-0.11076109240361078,0.1287409052559537
148.0,-0.23445842408959586,-0.806333602525189,1.8452547147502194,0.21725681504545957,1.4422815082244311,-0.3082517735339208,-0.6556499737249238,-0.024098658133088438,0.006417482992755907,0.7290148516002339,-0.6633804903636268,-0.10494946081123847,0.13209572978197875
149.0,-0.23776554130474392,-0.8030176847833396,1.8433631228708587,0.22461649070745665,1.4248521775543828,-0.3405317412630998,-0.6557299800529134,-0.023567212240768808,0.005529775551969207,0.7393127939690066,-0.6520320554515304,-0.09928319222550794,0.13569686466129655
150.0,-0.24107265851989196,-0.79970176704149,1.841471530991498,0.23197616636945376,1.4074228468843346,-0.3728117089922788,-0.6558094696323234,-0.0230323142544324,0.00467528731032027,0.7493131112524909,-0.6405197540255378,-0.09377068955725075,0.13953982868032613
151.0,-0.24437977573504,-0.7963858492996405,1.8395799391121372,0.23933584203145084,1.3899935162142862,-0.40509167672145774,-0.6558890727669863,-0.022493313272259306,0.0038540680627138224,0.7590130714831075,-0.6288516158511372,-0.08842022685955171,0.14361986645759853
152.0,-0.24768689295018806,-0.7930699315577909,1.8376883472327765,0.24669551769344794,1.372564185544238,-0.4373716444506367,-0.6559694137753413,-0.02194955060207307,0.0030661456528552067,0.7684101599158586,-0.6170357169375023,-0.08323994054898377,0.14793195212295576
153.0,-0.2509940101653361,-0.7897540138159415,1.8357967553534158,0.254055193355445,1.3551348548741897,-0.46965161217981566,-0.6560511104197774,-0.021400360071053944,0.0023115259112525682,0.77750207978739,-0.6050801736393078,-0.0782378207334487,0.15247079327461033
154.0,-0.25430112738048416,-0.7864380960740919,1.833905163474055,0.26141486901744215,1.3377055242041413,-0.5019315799089946,-0.6561347733399947,-0.020845068345892788,0.001590192608115118,0.7862867529143005,-0.5929931367474306,-0.07342170265534623,0.15723083521090558
155.0,-0.2576082445956322,-0.7831221783322424,1.8320135715946944,0.26877454467943923,1.3202761935340932,-0.5342115476381736,-0.6562210054908785,-0.020282995263217852,0.0009021074211900959,0.794762320130594,-0.5807827855729305,-0.06879925825870263,0.16220626543335154
156.0,-0.26091536181078023,-0.7798062605903928,1.8301219797153339,0.2761342203414363,1.3028468628640448,-0.5664915153673525,-0.6563104015853555,-0.019713454170113418,0.00024720991855907426,0.8029271415642821,-0.5684573220287016,-0.06437798788878148,0.16739101841723827
157.0,-0.26422247902592827,-0.7764903428485432,1.8282303878359731,0.2834938960034334,1.2854175321939965,-0.5987714830965315,-0.656403547542719,-0.019135752274541017,-0.00037458244358488935,0.8107797967532685,-0.5560249647131847,-0.06016521213259151,0.17277878064586166
158.0,-0.26752959624107636,-0.7731744251066938,1.8263387959566124,0.2908535716654305,1.2679882015239483,-0.6310514508257106,-0.6565010199428924,-0.018549191005460916,-0.0009633743081789714,0.8183190846007691,-0.5434939430005229,-0.05616806380858152,0.17836299590413643
159.0,-0.2708367134562244,-0.7698585073648442,1.8244472040772517,0.2982132473274276,1.2505588708539,-0.6633314185548894,-0.6566033854871001,-0.017953066382444267,-0.001519292389551577,0.8255440231706385,-0.5308724911415287,-0.05239348011368714,0.18413687082711136
160.0,-0.27414383067137243,-0.7665425896229947,1.822555612197891,0.3055729229894247,1.2331295401838516,-0.6956113862840685,-0.6567112004654132,-0.017346669394551907,-0.002042485430720331,0.832453849323094,-0.5181688423798196,-0.048848194935756685,0.19009338069864373
161.0,-0.27745094788652047,-0.7632266718811451,1.8206640203185303,0.31293259865142176,1.2157002095138034,-0.7278913540132474,-0.6568250102316289,-0.016729286388250462,-0.002533124145750673,0.8390480181914443,-0.5053912230874597,-0.04553873133923608,0.19622527549524418
162.0,-0.28075806510166856,-0.7599107541392957,1.8187724284391695,0.3202922743134189,1.198270878843755,-0.7601713217424263,-0.6569453486859369,-0.016100199464121973,-0.0029914011472110535,0.8453262025005553,-0.49254784692442505,-0.04247139423184469,0.20252508616985318
163.0,-0.2840651823168166,-0.7565948363974461,1.8168808365598088,0.32765194997541597,1.180841548173707,-0.7924512894716054,-0.6570727377658206,-0.015458686882117701,-0.0034175308587703207,0.8512882917278974,-0.4796469090261858,-0.03965226321981035,0.20898513117006842
164.0,-0.28737229953196464,-0.7532789186555966,1.814989244680448,0.33501162563741305,1.1634122175036585,-0.8247312572007843,-0.6572076869456419,-0.014804023475092784,-0.0038117494129936424,0.856934391108133,-0.46669658022367155,-0.03708718565906495,0.21559752318510922
165.0,-0.2906794167471127,-0.749963000913747,1.8130976528010874,0.3423713012994102,1.1459828868336102,-0.8570112249299633,-0.657350692745335,-0.014135481070353388,-0.004174314534401549,0.8622648204823277,-0.453705001299854,-0.034781769909628925,0.22235417611556696
166.0,-0.2939865339622607,-0.7466470831718974,1.8112060609217266,0.34973097696140726,1.128553556163562,-0.8892911926591422,-0.6575022382486485,-0.013452328918934879,-0.004505505407870591,0.8672801129929785,-0.4406802772871502,-0.03274137880022795,0.2292468122597709
167.0,-0.2972936511774088,-0.743331165430048,1.809314469042366,0.35709065262340434,1.1111242254935136,-0.9215711603883212,-0.6576627926313511,-0.012753834132324962,-0.004805622532458281,0.8719810136261644,-0.42763047180981056,-0.03097112330999747,0.2362669697103731
168.0,-0.30060076839255684,-0.7400152476881985,1.8074228771630052,0.3644503282854014,1.0936948948234653,-0.9538511281175002,-0.6578328106998159,-0.01203926212633092,-0.005074987560752461,0.8763684776022411,-0.41456360147541654,-0.02947585647393464,0.2434060099545411
169.0,-0.3039078856077049,-0.7366993299463489,1.8055312852836445,0.3718100039473985,1.0762655641534171,-0.9861310958466791,-0.6580127324403909,-0.011307877071788576,-0.005313943123848905,0.8804436686166139,-0.4014876303195705,-0.028260167518554563,0.2506551256709453
170.0,-0.3072150028228529,-0.7333834122044993,1.8036396934042838,0.3791696796093956,1.0588362334833687,-1.0184110635758583,-0.6582029825799526,-0.010558942351796441,-0.0055228526420718765,0.8842079569322314,-0.3884104643078135,-0.027328376233997073,0.25800534871651615
171.0,-0.31052212003800095,-0.7300674944626498,1.801748101524923,0.38652935527139276,1.0414069028133204,-1.0506910313050373,-0.6584039701580298,-0.009791721025153993,-0.005702100121567563,0.8876629173255524,-0.375339945898758,-0.02668452758861686,0.2654475582957572
172.0,-0.31382923725314904,-0.7267515767208003,1.7998565096455623,0.3938890309333898,1.0239775721432722,-1.0829709990342162,-0.6586160881108799,-0.009005476295673658,-0.0058520899369008395,0.8908103268878454,-0.36228384867237096,-0.026332386591866475,0.27297248930520673
173.0,-0.3171363544682971,-0.7234356589789508,1.7979649177662016,0.4012487065953869,1.0065482414732239,-1.115250966763395,-0.658839712867888,-0.008199471987029167,-0.005973246599805027,0.8936521626837893,-0.3492498720272856,-0.02627543341105506,0.2805707408454634
174.0,-0.3204434716834451,-0.7201197412371012,1.7960733258868409,0.40860838225738394,0.9891189108031756,-1.147530934492574,-0.6590752039606447,-0.007372973022794833,-0.006066014514234663,0.896190599269444,-0.3362456359509671,-0.026516858747332412,0.28823278489300713
175.0,-0.32375058889859315,-0.7168038234952516,1.7941817340074802,0.4159680579193811,0.9716895801331272,-1.179810902221753,-0.6593229036450616,-0.006525245911325306,-0.006130857717889349,0.8984280060717676,-0.32327867586649156,-0.027059559476009014,0.29594897512388874
176.0,-0.3270577061137412,-0.7134879057534022,1.7922901421281194,0.4233277335813782,0.954260249463079,-1.212090869950932,-0.6595831365368574,-0.005655559235115647,-0.006168259610379381,0.9003669446319532,-0.3103564375596366,-0.027906134556078308,0.30370955588119186
177.0,-0.3303648233288893,-0.7101719880115527,1.7903985502487587,0.4306874092433753,0.9368309187930307,-1.244370837680111,-0.6598562092607467,-0.004763184144278267,-0.006178722668216771,0.9020101657149617,-0.2974862721899165,-0.029058881213560754,0.3115046712780248
178.0,-0.3336719405440373,-0.7068560702697031,1.788506958369398,0.43804708490537236,0.9194015881229824,-1.27665080540929,-0.6601424101136537,-0.003847394853764473,-0.006162768146820957,0.9033606062877231,-0.284675431389125,-0.030519791403032796,0.31932437442764733
179.0,-0.33697905775918535,-0.7035401525278535,1.7866153664900375,0.44540676056736944,0.9019722574529342,-1.3089307731384687,-0.6604420087422521,-0.0029074691439547676,-0.006120935769743527,0.9044213863685722,-0.27193106245087634,-0.0322905485514469,0.3271586367922055
180.0,-0.3402861749743334,-0.700224234786004,1.7847237746106768,0.4527664362293666,0.8845429267828858,-1.341210740867648,-0.6607552558351334,-0.0019426888642344112,-0.006053783405316329,0.9051958057505824,-0.2592602036145634,-0.034372524588088114,0.33499735764141503
181.0,-0.3435932921894814,-0.6969083170441545,1.782832182731316,0.46012611189136365,0.8671135961128376,-1.3734907085968269,-0.6610823828298834,-0.0009523404391685586,-0.005961886730945318,0.9056873406015499,-0.24666977944707488,-0.036766777264241234,0.34283037361241114
182.0,-0.3469004094046295,-0.693592399302305,1.7809405908519553,0.46748578755336073,0.8496842654427893,-1.4057706763260058,-0.6614236016353416,6.428462311797861e-05,-0.005845838885272153,0.905899639943467,-0.2341665963255298,-0.03947404776587877,0.3506474683618723
183.0,-0.35020752661977755,-0.6902764815604554,1.7790489989725946,0.4748454632153578,0.832254934772741,-1.4380506440551848,-0.6617791043693063,0.0011078892207508212,-0.005706250108441231,0.9058365220144201,-0.22175733802421538,-0.04249475862240034,0.358438382301417
184.0,-0.3535146438349256,-0.6869605638186059,1.7771574070932339,0.48220513887735494,0.8148256041026927,-1.4703306117843638,-0.662149063111926,0.0021791701465096597,-0.005543747370713614,0.9055019705159185,-0.20944856140882043,-0.04582901191418124,0.36619282240717677
185.0,-0.3568217610500737,-0.6836446460767563,1.7752658152138732,0.489564814539352,0.7973962734326444,-1.5026105795135427,-0.6625336296750207,0.003278817575227286,-0.00535897398967751,0.904900130748755,-0.19724669224097832,-0.0494765877814039,0.37390047209436367
186.0,-0.36012887826522166,-0.6803287283349069,1.7733742233345124,0.49692449020134916,0.779966942762596,-1.5348905472427217,-0.6629329353875493,0.004407514550596514,-0.0051525892363169165,0.9040353056405719,-0.18515802109604085,-0.05343694323636679,0.38155100114756507
187.0,-0.36343599548036976,-0.6770128105930573,1.7714826314551517,0.5042841658633462,0.7625376120925478,-1.5671705149719006,-0.6633470908974357,0.005565936471793015,-0.0049252679302004485,0.9029119516683858,-0.17318869939691553,-0.05770921128117747,0.38913407569743347
188.0,-0.3667431126955178,-0.6736968928512077,1.769591039575791,0.5116438415253433,0.7451082814224995,-1.5994504827010796,-0.6637761859899481,0.006754750580331051,-0.004677700024067789,0.9015346746793984,-0.16134473556670617,-0.06229220033244955,0.39663936823437335
189.0,-0.37005022991066583,-0.6703809751093582,1.7676994476964303,0.5190035171873404,0.7276789507524513,-1.6317304504302585,-0.6642202894228143,0.007974615447568875,-0.0044105901780926784,0.8999082256134947,-0.14963199130280336,-0.06718439395433395,0.40405656764977593
190.0,-0.3743979856152725,-0.6561781572334078,1.7418207954795115,0.5355366426100343,0.7279015908181864,-1.6382367720991373,-0.6744211161140166,0.014901386068513545,-0.007617843360249746,0.8999101991329276,-0.14963875547543995,-0.0671860894105989,0.4040493852810656
191.0,-0.3642455374834709,-0.6575585634558384,1.7142049478714327,0.5531482452317251,0.7274479960841672,-1.622990747745298,-0.6882733100124679,0.013260769103982994,-0.0003142036251134392,0.899910307670809,-0.14963798886885238,-0.06718575341117128,0.4040494833231303
192.0,-0.3591243991535904,-0.6641595545842527,1.717022501216326,0.5397541310372794,0.7619073231771032,-1.5599905894914046,-0.6878983953222599,0.011872897662593876,-0.0004105211682068066,0.902796612308446,-0.17328431214763357,-0.05830491696982715,0.38927029250259604
193.0,-0.35656382998865016,-0.6674600501484598,1.7184312778887725,0.5330570739400565,0.7791369867235712,-1.528490510364458,-0.6877338426955437,0.011220381026638082,-0.0004280609126853935,0.9038631577223935,-0.18529287832552144,-0.0543053469796074,0.38177070427597215
194.0,-0.3540032608237099,-0.670760545712667,1.7198400545612191,0.5263600168428337,0.7963666502700393,-1.496990431237511,-0.6875843555759912,0.010594674743226833,-0.0004243114704418488,0.904672645670695,-0.1974171790966638,-0.05060110698559353,0.37421035467305425
195.0,-0.3514426916587697,-0.674061041276874,1.7212488312336658,0.5196629597456108,0.8135963138165073,-1.4654903521105644,-0.6874497584389231,0.009995166987354184,-0.00039863328429419476,0.9052207685774514,-0.20965114036506596,-0.047192912395963627,0.366598674982961
196.0,-0.3488821224938294,-0.6773615368410811,1.7226576079061124,0.512965902648388,0.8308259773629753,-1.4339902729836176,-0.6873298581566051,0.009421238388976079,-0.0003504015141791439,0.9055033693330463,-0.22198855428412625,-0.04408119287132888,0.35894509096571436
197.0,-0.34632155332888914,-0.6806620324052883,1.7240663845785589,0.5062688455511651,0.8480556409094433,-1.402490193856671,-0.6872244442084032,0.008872262444693323,-0.00027900641056013975,0.9055164451882592,-0.23442308311083782,-0.04126609314703763,0.35125901433957185
198.0,-0.3437609841639489,-0.6839625279694954,1.7254751612510055,0.4995717884539423,0.8652853044559113,-1.370990114729724,-0.6871332889039828,0.008347605930100296,-0.00018385367786301343,0.9052561515471841,-0.24694826317008473,-0.03874747410776246,0.34354983430869057
199.0,-0.34120041499900866,-0.6872630235337025,1.7268839379234522,0.49287473135671944,0.8825149680023794,-1.3394900356027775,-0.6870561476193688,0.007846629312499055,-6.436482769980878e-05,0.9047188056558975,-0.25955750892632473,-0.036524914112794085,0.33582690913859226
200.0,-0.3386398458340684,-0.6905635190979097,1.7282927145958988,0.4861776742594966,0.8997446315488473,-1.3079899564758306,-0.6869927590456606,0.0073686871636763004,8.002247834806853e-05,0.9039008901838841,-0.27224411715987396,-0.03459771057023209,0.3280995577868417
201.0,-0.3360792766691282,-0.6938640146621168,1.7297014912683455,0.47948061716227375,0.9169742950953154,-1.276489877348884,-0.6869428454502013,0.006913128572446109,0.0002498540966144047,0.9027990566953017,-0.28500127124491714,-0.0329648817580551,0.3203770515962903
202.0,-0.33351870750418794,-0.697164510226324,1.731110267940792,0.4727835600650509,0.9342039586417833,-1.2449897982219373,-0.6869061129499755,0.006479297556660664,0.00044565908011764965,0.9014101290072503,-0.2978220455262959,-0.031625168889827755,0.31266860605816393
203.0,-0.3309581383392477,-0.7004650057905311,1.7325190446132386,0.46608650296782805,0.9514336221882513,-1.2134897190949905,-0.6868822517970121,0.006066533474395709,0.0006679493684233206,0.8997311064322875,-0.3106994097920428,-0.030577038422589593,0.30498337265220116
204.0,-0.32839756917430746,-0.7037655013547381,1.7339278212856852,0.4593894458706052,0.9686632857347194,-1.1819896399680438,-0.686870936675558,0.005674171434019208,0.0009172194888047991,0.8977591669025146,-0.32362623383855466,-0.029818684604261052,0.2973304307709648
205.0,-0.3258370000093672,-0.7070659969189453,1.7353365979581319,0.45269238877338236,0.9858929492811874,-1.150489560841097,-0.6868718270107724,0.005301542702854954,0.0011939462688961289,0.8954916699726412,-0.33659529212522665,-0.029348032257684908,0.2897187797353589
206.0,-0.3232764308444269,-0.7103664924831524,1.7367453746305783,0.44599533167615946,1.0031226128276554,-1.1189894817141504,-0.6868845672886935,0.004947975114155255,0.0014985885610247635,0.8929261596995244,-0.34959926851529355,-0.029162739798223782,0.2821573309082938
207.0,-0.32071586167948674,-0.7136669880473596,1.738154151303025,0.43929827457893666,1.0203522763741235,-1.0874894025872037,-0.6869087873872101,0.00461279347210157,0.0018315869784046035,0.8900603673957653,-0.3626307610995592,-0.02926020248162202,0.274654899913335
208.0,-0.31815529251454644,-0.7169674836115667,1.7395629279754716,0.43260121748171376,1.0375819399205914,-1.0559893234602566,-0.6869441029177732,0.004295319954554219,0.0021933636433605352,0.8868922142550375,-0.3756822870996246,-0.02963755587864633,0.26722019896507027
209.0,-0.3155947233496062,-0.7202679791757738,1.7409717046479183,0.4259041603844909,1.0548116034670594,-1.02448924433331,-0.6869901155775671,0.003994874513276646,0.002584321947749074,0.8834198138469096,-0.38874628784716336,-0.03029167957281711,0.2598618293178122
210.0,-0.31303415418466596,-0.723568474739981,1.7423804813203647,0.41920710328726807,1.0720412670135275,-0.9929891652063633,-0.6870464135118495,0.0037107752713637643,0.003004846325731239,0.8796414744790231,-0.4018151338357314,-0.03121920107735158,0.25258827383913807
211.0,-0.3104735850197257,-0.7268689703041881,1.7437892579928114,0.4125100461900452,1.0892709305599955,-0.9614890860794166,-0.687112571686177,0.0034423389176076666,0.0034553020390421657,0.87555570142458,-0.4148811298415368,-0.03241649996724882,0.24540788971464453
212.0,-0.3079130158547855,-0.7301694658683953,1.745198034665258,0.4058129890928224,1.1065005941064634,-0.9299890069524699,-0.6871881522682042,0.0031888810975391063,0.00393603497490308,0.8711611990131904,-0.4279365201095387,-0.03387971222226377,0.2383289012901612
213.0,-0.30535244668984524,-0.7334699614326023,1.7466068113377047,0.3991159319955995,1.1237302576529316,-0.8984889278255231,-0.6872727050187566,0.002949716800887077,0.004447371456699281,0.8664568725832306,-0.4409734936011941,-0.035604734776327245,0.23135939305753814
214.0,-0.302791877524905,-0.7367704569968094,1.7480155880101513,0.3924188748983767,1.1409599211993995,-0.8669888486985765,-0.6873657676918565,0.002724160745202993,0.0049896180675515905,0.8614418302939596,-0.45398418930011514,-0.03758723026880321,0.22450730278997666
215.0,-0.3002313083599647,-0.7400709525610166,1.7494243646825978,0.3857218178011538,1.1581895847458674,-0.8354887695716297,-0.6874668664433852,0.0025115277554031944,0.0055630614868934225,0.8561153847957492,-0.4669607015718539,-0.03982263199278913,0.2177804148327286
216.0,-0.2976707391950245,-0.7433714481252237,1.7508331413550444,0.379024760703931,1.1754192482923356,-0.8039886904446829,-0.6875755162480492,0.0023111331389863883,0.00616796834015669,0.8504770547568783,-0.47989508557398397,-0.04230614903550533,0.21118635355484044
217.0,-0.2951101700300842,-0.7466719436894309,1.752241918027491,0.3723277036067081,1.1926489118388035,-0.7724886113177362,-0.6876912213243207,0.0021222930566875617,0.006804585061668006,0.8445265662454507,-0.49277936271260797,-0.045032771605652125,0.20473257696746147
218.0,-0.29254960086514403,-0.749972439253638,1.7536506946999377,0.3656306465094853,1.2098785753852714,-0.7409885321907895,-0.6878134755670098,0.0019443248883392883,0.007473137770835955,0.8382638539651002,-0.5056055261413753,-0.04799727654245078,0.19842637051407216
219.0,-0.28998903170020374,-0.7532729348178451,1.7550594713723842,0.3589335894122624,1.2271082389317396,-0.7094884530638428,-0.6879417629871223,0.0017765475937105597,0.008173832161714703,0.8316890623432518,-0.5183655462990622,-0.051194233000937214,0.19227484103783082
220.0,-0.2874284625352635,-0.7565734303820523,1.7564682480448308,0.35223653231503954,1.2443379024782075,-0.6779883739368959,-0.6880755581586564,0.0016182820681064844,0.008906853406009385,0.8248025464708172,-0.5310513764817284,-0.054618008307921025,0.18628491093105964
221.0,-0.28486789337032326,-0.7598739259462594,1.7578770247172775,0.3455394752178167,1.2615675660246755,-0.6464882948099492,-0.6882143266719791,0.001468851492511157,0.009672366069585964,0.8176048728923083,-0.5436549584454329,-0.0582627739828841,0.18046331247172154
222.0,-0.282307324205383,-0.7631744215104664,1.7592858013897241,0.33884241812059385,1.2787972295711436,-0.6149882156830024,-0.6883575255934216,0.0013275816780672772,0.010470514042538098,0.8100968202454644,-0.556168228035467,-0.06212251191795043,0.1748165823515625
223.0,-0.2797467550404428,-0.7664749170746736,1.7606945780621706,0.332145361023371,1.2960268931176115,-0.5834881365560558,-0.688504603930733,0.0011938014046894638,0.011301420482852292,0.8022793797495964,-0.5685831208380309,-0.0661910207109276,0.1693510564004068
224.0,-0.27718618587550253,-0.7697754126388807,1.7621033547346172,0.32544830392614815,1.3132565566640797,-0.5519880574291092,-0.6886550031040173,0.0010668427536157793,0.012165187773705136,0.7941537555419644,-0.580891577850263,-0.07046192214529207,0.16407286451091294
225.0,-0.2746256167105623,-0.7730759082030879,1.7635121314070639,0.3187512468289253,1.3304862202105476,-0.5204879783021623,-0.6888081574217861,0.0009460414337083296,0.013061897494421854,0.7857213648616141,-0.5930855511645088,-0.07492866781087149,0.1589879257679063
226.0,-0.272065047545622,-0.776376403767295,1.7649209080795105,0.3120541897317024,1.3477158837570156,-0.48898789917521546,-0.6889634945617477,0.0008307371013198898,0.013991610405102689,0.776983838080209,-0.6051570096626989,-0.07958454585885434,0.15410194378620823
227.0,-0.2695044783806818,-0.7796768993315021,1.7663296847519572,0.3053571326344796,1.3649455473034835,-0.4574878200482688,-0.6891204360559525,0.0007202736735505907,0.014954366444935543,0.7679430185795105,-0.6170979447166975,-0.08442268788465544,0.14942040226069275
228.0,-0.2669439092157415,-0.7829773948957093,1.7677384614244036,0.2986600755372567,1.3821752108499517,-0.4259877409213222,-0.6892783977799136,0.000613999634726102,0.015950184744181528,0.7586009624752686,-0.6289003758904629,-0.08943607593205587,0.1449485607320959
229.0,-0.26438334005080133,-0.7862778904599164,1.7691472380968503,0.2919630184400339,1.3994048743964196,-0.39448766179437533,-0.6894367904453144,0.0005112683359351795,0.01697906364982822,0.7489599381873965,-0.6405563566398642,-0.09461754961193895,0.14069145057190333
230.0,-0.26182277088586103,-0.7895783860241234,1.770556014769297,0.285265961342811,1.4166345379428877,-0.3629875826674285,-0.6895950200959197,0.000411438287470485,0.018040980764889247,0.7390224258564226,-0.6520579800059874,-0.09995981332885712,0.1366538711894387
231.0,-0.2592622017209208,-0.7928788815883306,1.7719647914417436,0.27856890424558817,1.4338642014893557,-0.33148750354048184,-0.6897524886062947,0.00031387344402661246,0.01913589300131721,0.7287911166063167,-0.663397384297765,-0.10545544360856779,0.13284038646406404
232.0,-0.25670163255598055,-0.7961793771525377,1.77337356811419,0.2718718471483653,1.4510938650358236,-0.2999874244135352,-0.6899085941829434,0.00021794348251289591,0.020263736646495237,0.7182689116539095,-0.6745667587597678,-0.1110968965196102,0.1292553214051962
233.0,-0.2541410633910403,-0.7994798727167449,1.7747823447866367,0.2651747900511425,1.4683235285822915,-0.26848734528658835,-0.6900627318674738,0.00012302407234877997,0.02142442744325647,0.7074589212652341,-0.6855583492209953,-0.11687651518191275,0.12590275904263207
234.0,-0.25158049422610007,-0.802780368280952,1.7761911214590833,0.2584777329539196,1.4855531921287597,-0.23698726615964172,-0.6902142940413917,2.84971381156485e-05,0.022617860683375818,-0.6963644635592283,0.6963644637205183,0.12278653735535794,-0.12278653754945829
235.0,-0.2054964292210635,-0.8038156481903739,1.778763098096133,0.25356537313701644,1.5009499525983447,-0.19341994586259934,-0.6884854382024423,-0.03053032917967478,0.022195540740003974,-0.6963644635594204,0.6963644637220501,0.12278653735227862,-0.12278653754276027
236.0,-0.15914626015516942,-0.8241179757223166,1.8132604998779749,0.23667717194919927,1.5165679249232566,-0.14970738834571365,-0.6708778870693036,-0.06342229645768373,0.025921404713612567,0.6963693960656482,-0.6963617207178531,-0.12277981427882642,0.1227808427552616
237.0,-0.15115825679826833,-0.8332686691159552,1.8249750234238307,0.23369310183859904,1.5192709224172445,-0.14216843937918625,-0.6650754682152853,-0.06933085020869002,0.02885662711778919,-0.6963642001608149,0.6963642003249645,0.12278803116467917,-0.12278803135022283
238.0,-0.15558487308588512,-0.8381564038072465,1.8531145336425692,0.21066083553495127,1.517772883187606,-0.14633965043480957,-0.6520899186172578,-0.0686096961201243,0.023734298022913783,0.6963643259734438,-0.6963642688970616,-0.12278748438494802,0.12278747571893568
239.0,-0.15779818122969352,-0.8406002711528923,1.8671842887519385,0.1991447023831274,1.5170238635727868,-0.1484252559626212,-0.6455351991109509,-0.0683029853048587,0.02126745752009257,-0.6963642001607845,0.6963642003247519,0.12278803116504627,-0.12278803135123245
240.0,-0.16112278660261756,-0.8282153042921769,1.8849661896807484,0.16915984659890337,1.5159002999199627,-0.15156221393666547,-0.6365838422579196,-0.0677524661258059,0.0074818814525791505,0.6963660195255158,-0.6963638306403863,-0.12278373943952695,0.12278410139461295
241.0,-0.16278508928907956,-0.8220228208618192,1.8938571401451532,0.15416741870679138,1.5153385180935506,-0.15313069292368758,-0.6319904354535,-0.06751935488485752,0.0007327254568771091,0.6963668200040293,-0.6963635900868552,-0.12278204774711542,0.12278261745803946
242.0,-0.17240578295688136,-0.8148232519161793,1.8885959489327142,0.16988110443839632,1.4811254832169352,-0.21833078504992365,-0.6331122679687411,-0.06454213635512471,-0.00119923324130837,0.7178272746794881,-0.6755026936721137,-0.11056947417177036,0.12725763611396876
243.0,-0.17721612979078225,-0.8112234674433593,1.8859653533264948,0.1777379473041988,1.4640189657786273,-0.2509308311130417,-0.6336641937748494,-0.06304592936298975,-0.0021193506809261686,0.728147477792467,-0.6648146249237127,-0.10463578330243162,0.129900415413879
244.0,-0.18202647662468316,-0.8076236829705393,1.8833347577202753,0.1855947901700013,1.4469124483403195,-0.2835308771761597,-0.6342109613076461,-0.06154394177721694,-0.003008736376644852,0.7381904002212544,-0.6539644746734398,-0.09882973973730225,0.13280843884984642
245.0,-0.18683682345858404,-0.8040238984977194,1.8807041621140559,0.19345163303580376,1.429805930902012,-0.3161309232392777,-0.6347531885815347,-0.06003562144711146,-0.003867298352906043,0.7479533336302202,-0.6429595584226602,-0.09316064597486867,0.13597761207611905
246.0,-0.19164717029248496,-0.8004241140248994,1.8780735665078363,0.20130847590160625,1.412699413463704,-0.3487309693023958,-0.635291486032109,-0.058520404088049274,-0.004694965459309794,0.7574337629113802,-0.6318072386395491,-0.08763768418766558,0.13940353049617468
247.0,-0.19645751712638584,-0.7968243295520794,1.875442970901617,0.20916531876740874,1.3955928960253963,-0.38133101536551384,-0.6358264558760934,-0.05699771356785459,-0.005491687457064021,0.7666293670056161,-0.620514919638775,-0.0822699060694654,0.14308148274872687
248.0,-0.20126786396028673,-0.7932245450792594,1.8728123752953973,0.2170221616332112,1.3784863785870884,-0.41393106142863184,-0.6363586914760033,-0.055466962208954876,-0.006257435091565483,0.7755380195877554,-0.6090900424471942,-0.07706622278477968,0.1470064545224613
249.0,-0.20607821079418764,-0.7896247606064395,1.870181779689178,0.22487900449901368,1.3613798611487808,-0.44653110749174985,-0.636888776710125,-0.05392755110616453,-0.006992200151059891,0.7841577896152925,-0.5975400796591817,-0.07203539503123751,0.15117313269642518
250.0,-0.21088855762808853,-0.7860249761336195,1.8675511840829584,0.23273584736481617,1.344273343710473,-0.4791311535548679,-0.637417285348413,-0.05237887045992887,-0.007695995511336803,0.7924869417406295,-0.5858725302852363,-0.06718602322531772,0.15557590980266248
251.0,-0.21569890446198942,-0.7824251916607995,1.864920588476739,0.24059269023061863,1.3271668262721652,-0.5117311996179859,-0.6379447804348964,-0.050820299924844756,-0.008368855166426464,0.8005239365868076,-0.5740949145974872,-0.06252653782179933,0.16020888880734452
252.0,-0.22050925129589033,-0.7788254071879795,1.8622899928705197,0.24844953309642115,1.3100603088338576,-0.544331245681104,-0.6384718136771839,-0.04925120897325774,-0.00901083424527227,0.8082674308868072,-0.5622147689757337,-0.058065189777185194,0.16506588820632281
253.0,-0.22531959812979122,-0.7752256227151596,1.8596593972643,0.2563063759622236,1.2929537913955498,-0.576931291744222,-0.6389989248436531,-0.04767095727372024,-0.00962200901436673,0.8157162774865785,-0.5502396407576466,-0.05381004116722149,0.17014044743069526
254.0,-0.23012994496369213,-0.7716258382423397,1.8570288016580807,0.26416321882802607,1.275847273957242,-0.60953133780734,-0.6395266411688982,-0.046078895084075686,-0.01020247686634232,0.8228695252120733,-0.5381770830967404,-0.04976895596850271,0.1754258325576552
255.0,-0.23494029179759301,-0.7680260537695196,1.8543982060518611,0.2720200616938286,1.2587407565189341,-0.6421313838704581,-0.6400554767680164,-0.04447436365892257,-0.010752356294523216,0.8297264186006342,-0.5260346498317316,-0.04594959101400341,0.18091504232157735
256.0,-0.23975063863149393,-0.7644262692966997,1.8517676104456418,0.27987690455963105,1.2416342390806265,-0.674731429933576,-0.6405859320602925,-0.04285669567119263,-0.011271786853448443,0.8362863974972032,-0.5138198903708732,-0.04235938713221837,0.1866008144199716
257.0,-0.24456098546539481,-0.7608264848238797,1.8491370148394222,0.28773374742543356,1.2245277216423187,-0.707331475996694,-0.6411184932028435,-0.04122521564756321,-0.011760929105392434,0.8425490965158977,-0.5015403445948415,-0.03900556047942751,0.19247563210863278
258.0,-0.2493713322992957,-0.7572267003510598,1.8465064192332028,0.295590590291236,1.2074212042040111,-0.7399315220598122,-0.6416536315347787,-0.03957924041740841,-0.01221996455291291,0.8485143443676079,-0.48920353778174325,-0.03589509407442383,0.19853173108000485
259.0,-0.2541816791331966,-0.7536269158782398,1.8438758236269832,0.3034474331570385,1.1903146867657033,-0.7725315681229301,-0.6421918030324136,-0.03791807957497916,-0.012649095557466308,0.8541821630543497,-0.4768169755577764,-0.03303472954485498,0.20476110661848287
260.0,-0.2589920259670975,-0.7500271314054198,1.8412452280207638,0.31130427602284094,1.1732081693273955,-0.8051316141860483,-0.642733447776076,-0.03624103595448551,-0.013048545244145074,0.8595527669312182,-0.46438813887706504,-0.03043095909413184,0.2111555210260771
261.0,-0.2638023728009984,-0.7464273469325998,1.8386146324145443,0.3191611188886434,1.1561016518890876,-0.8377316602491662,-0.6432789894290316,-0.034547406117741826,-0.013418557392593192,0.8646265616368645,-0.4519244790341611,-0.028090017697654256,0.21770651131158453
262.0,-0.2686127196348993,-0.7428275624597799,1.835984036808325,0.3270179617544459,1.1389951344507798,-0.8703317063122842,-0.6438288347290431,-0.03283648085402018,-0.013759396314172154,0.869404142893521,-0.4394334127126746,-0.026017875536882888,0.22440539713612412
263.0,-0.2734230664688002,-0.7392277779869598,1.8333534412021053,0.33487480462024843,1.1218886170124722,-0.9029317523754024,-0.6443833729930714,-0.031107545691742726,-0.014071346715453417,0.8738862951776885,-0.4269223170734677,-0.024220230679570142,0.2312432890076243
264.0,-0.2782334133027011,-0.7356279935141399,1.830722845595886,0.3427316474860509,1.1047820995741644,-0.9355317984385203,-0.644942975635615,-0.029359881421631817,-0.01435471354812727,0.8780739902626878,-0.41439852488581325,-0.02270250201422194,0.23821109671658294
265.0,-0.283043760136602,-0.7320282090413199,1.8280922499896666,0.35058849035185335,1.0876755821358568,-0.9681318445016383,-0.6455079957011713,-0.027592764630920162,-0.014609821845423823,0.8819683856343731,-0.4018693197048812,-0.021469822446627766,0.24529953800515805
266.0,-0.28785410697050284,-0.7284284245685,1.825461654383447,0.3584453332176558,1.070569064697549,-1.0007318905647564,-0.6460787674112954,-0.025805468248213552,-0.014837016545152237,0.8855708227813855,-0.38934193109888476,-0.020527032366040684,0.25249914746140195
267.0,-0.29266445380440376,-0.72482864009568,1.8228310587772276,0.3663021760834583,1.0534625472592412,-1.0333319366278744,-0.6466556057267144,-0.023997262098583536,-0.015036662299473091,0.8888828253614235,-0.37682352992916973,-0.019878673388336304,0.2598002856301994
268.0,-0.29747480063830467,-0.72122885562286,1.820200463171008,0.37415901894926085,1.0363560298209333,-1.0659319826909925,-0.6472388059249526,-0.022167413468455202,-0.015209143271528322,0.8919060972450821,-0.3643212236864959,-0.019528982383211876,0.26719314833224417
269.0,-0.3022851474722056,-0.71762907115004,1.8175698675647887,0.3820158618150633,1.0192495123826255,-1.0985320287541105,-0.6478286431938952,-0.020315187679845033,-0.0153548629190602,0.8946425204389066,-0.351842051886711,-0.01948188579221281,0.2746677761821523
270.0,-0.3070954943061065,-0.7140292866772201,1.814939271958569,0.38987270468086577,1.002142994944318,-1.1311320748172284,-0.6484253722417236,-0.018439848673488586,-0.015474243765161794,0.8970941528893868,-0.339392981528969,-0.019740994244095936,0.2822140642965993
271.0,-0.3119058411400074,-0.7104295022044002,1.8123086763523497,0.3977295475466682,0.9850364775060101,-1.1637321208803464,-0.6490292269236205,-0.01654065960039098,-0.0155677271563089,0.8992632261697026,-0.32698090261960167,-0.020309597473750735,0.28982177218315236
272.0,-0.31671618797390827,-0.7068297177315801,1.8096780807461301,0.4055863904124707,0.9679299600677024,-1.1963321669434646,-0.649640419885651,-0.014616883421317652,-0.015635773007831,0.9011521430511106,-0.31461262376469484,-0.021190659550605232,0.29748053380027367
273.0,-0.32152653480780913,-0.7032299332587602,1.8070474851399108,0.41344323327827315,0.9508234426293947,-1.2289322130065825,-0.6502591422261909,-0.012667783513735993,-0.015678859536989748,0.9027634749609436,-0.30229486783437043,-0.022386814422143398,0.3051798677787755
274.0,-0.32633688164171004,-0.6996301487859402,1.8044168895336914,0.4213000761440757,0.9337169251910868,-1.2615322590697005,-0.6508855631752745,-0.010692624285706422,-0.01569748298383876,0.9040999593292749,-0.29003426770171875,-0.023900361777855848,0.31290918779482796
275.0,-0.33114722847561096,-0.6960303643131203,1.8017862939274718,0.4291569190098782,0.9166104077527791,-1.2941323051328186,-0.651519829792209,-0.008690671796212454,-0.015692157320050755,0.9051644968263702,-0.2778373620592704,-0.02573326323863144,0.3206578130844485
276.0,-0.33595757530951187,-0.6924305798403003,1.7991556983212524,0.43701376187568064,0.8995038903144714,-1.3267323511959366,-0.6521620666817896,-0.006661194381410489,-0.015663413945899082,0.9059601484931337,-0.26571059131583424,-0.02788713887627954,0.32841497908923734
277.0,-0.3407679221434128,-0.6888307953674803,1.7965251027150329,0.4448706047414831,0.8823973728761636,-1.3593323972590547,-0.65281237572944,-0.004603463286269899,-0.015611801375599685,0.9064901327668202,-0.253660293576466,-0.03036326406755451,0.3361698482229741
278.0,-0.3455782689773137,-0.6852310108946603,1.7938945071088135,0.45272744760728556,0.8652908554378558,-1.3919324433221727,-0.6534708358555715,-0.00251675330106875,-0.015537884911214037,0.9067578224043671,-0.24169270070827595,-0.03316256668671803,0.3439115207485482
279.0,-0.35038861581121455,-0.6816312264218404,1.791263911502594,0.46058429047308813,0.8481843379995481,-1.4245324893852906,-0.6541375027894578,-0.00040034340219866765,-0.015442246305334327,0.9067667413057563,-0.22981393449470486,-0.0362856246403514,0.35162904575456033
280.0,-0.3551989626451154,-0.6780314419490203,1.7886333158963745,0.4684411333388906,0.8310778205612404,-1.4571325354484088,-0.6548124088628824,0.0017464826032703301,-0.015325483412769056,0.9065205612399022,-0.21803000288084756,-0.039732663747786265,0.3593114322208181
281.0,-0.3600093094790163,-0.6744316574762004,1.786002720290155,0.47629797620469305,0.8139713031229325,-1.4897325815115268,-0.6554955628238234,0.003924435429826331,-0.01518820983146036,0.9060230984756121,-0.20634679631231762,-0.043503555970188366,0.36694766016183106
282.0,-0.36481965631291724,-0.6708318730033804,1.7833721246839356,0.4841548190704955,0.7968647856846248,-1.5223326275746447,-0.656186949670399,0.006134219663113859,-0.015031054532872817,0.905278310320241,-0.1947700841700881,-0.047597817990977606,0.374526691837316
283.0,-0.36963000314681815,-0.6672320885305605,1.780741529077716,0.492011661936298,0.7797582682463171,-1.5549326736377627,-0.6568865305053001,0.008376533107469053,-0.01485466148209362,0.9042902915687202,-0.18330551130366493,-0.05201461014992948,0.3820374830186323
284.0,-0.37444034998071907,-0.6636323040577405,1.7781109334714966,0.49986850480210043,0.7626517508080093,-1.5875327197008808,-0.6575942424108996,0.010652066131962665,-0.014659689247899219,0.9030632708657029,-0.17195859466487715,-0.05675273573294364,0.3894689942999897
285.0,-0.37925069681462,-0.6600325195849205,1.775480337865277,0.507725347667903,0.7455452333697015,-1.620132765763999,-0.6583099983452292,0.012961501015534824,-0.014446810603043807,0.9016016069836259,-0.16073472004449207,-0.06181064061912213,0.39681020244320336
286.0,-0.38406104364852084,-0.6564327351121005,1.7728497422590577,0.5155821905337055,0.7284387159313938,-1.652732811827117,-0.6590336870589776,0.015305511291803145,-0.014216712115035224,0.8999097850195463,-0.14963913891378697,-0.06718641328643689,0.40405011174471733
287.0,-0.3944895117502819,-0.6550086922273594,1.7983297624877812,0.4700677995887569,0.7234768468149764,-1.634863446120071,-0.6475543103203298,0.01715065328099652,-0.023346184617548886,0.8975343702179738,-0.15852180218549264,-0.07450732440974288,0.40466226796995786
288.0,-0.3951003435668208,-0.6565101561252711,1.8026959030686378,0.4527611757571299,0.7206809320140807,-1.6190422742548896,-0.6464778068080852,0.016917079173639063,-0.02480309329874883,0.8962585154645084,-0.16290540563224154,-0.07814767156688791,0.405062271387776
289.0,-0.39571117538335965,-0.6580116200231829,1.8070620436494944,0.43545455192550286,0.7178850172131851,-1.603221102389708,-0.6454162677360493,0.016688814505975882,-0.026243926358154375,0.8949260085130469,-0.1672516265936612,-0.08177371496127339,0.4055211366009334
290.0,-0.39632200719989846,-0.6595130839210946,1.811428184230351,0.41814792809387585,0.7150891024122894,-1.5873999305245265,-0.6443695107694688,0.01646581600357863,-0.027668450054093137,0.8935376585115128,-0.17155964571804255,-0.08538450637517728,0.40603845489550644
291.0,-0.39693283901643733,-0.6610145478190064,1.8157943248112076,0.40084130426224884,0.7122931876113938,-1.571578758659345,-0.6433373512870424,0.016248038938060094,-0.02907643387727767,0.8920942868062695,-0.1758286597455062,-0.08897910669800296,0.40661380255832175
292.0,-0.39754367083297615,-0.6625160117169182,1.8201604653920642,0.38353468043062183,0.7094972728104981,-1.5557575867941635,-0.6423196024329052,0.016035437140127173,-0.030467650578410475,0.8905967266367202,-0.18005788169086404,-0.09255658616357634,0.4072467410584183
293.0,-0.398154502649515,-0.6640174756148299,1.8245266059729208,0.3662280565989948,0.7067013580096025,-1.539936414928982,-0.6413160751687551,0.015827963012904595,-0.031841876194920224,0.889045822827159,-0.18424654102085578,-0.09611602458404109,0.40793681723226444
294.0,-0.3987653344660539,-0.6655189395127418,1.8288927465537774,0.34892143276736787,0.7039054432087068,-1.5241152430638005,-0.6403265783261128,0.015625567545522495,-0.03319889007682878,0.8874424314759723,-0.1883938838257192,-0.09965651158029407,0.40868356347267304
295.0,-0.3993761662825927,-0.6670204034106535,1.833258887134634,0.3316148089357408,0.7011095284078112,-1.508294071198619,-0.6393509186586953,0.015428200326963876,-0.034538474911749564,0.8857874196422943,-0.1924991729850541,-0.10317714680890089,0.4094864979213484
296.0,-0.3999869980991316,-0.6685218673085652,1.8376250277154906,0.3143081851041138,0.6983136136069156,-1.4924728993334375,-0.638388900894892,0.015235809560167013,-0.03586041674901612,0.8840816650302196,-0.19656168832794285,-0.10667704018543525,0.4103451246650049
297.0,-0.40059782991567044,-0.6700233312064771,1.8419911682963472,0.2970015612724868,0.6955176988060199,-1.476651727468256,-0.6374403277903293,0.015048342076376536,-0.03716450502294188,0.8823260556706723,-0.2005807267872903,-0.11015531210418547,0.4112589339349915
298.0,-0.40120866173220926,-0.6715247951043888,1.8463573088772038,0.2796949374408598,0.6927217840051243,-1.4608305556030745,-0.6365050001805103,0.014865743349740501,-0.03845053257521405,0.8805214896010429,-0.20455560254835037,-0.11361109365417241,0.4122274023103568
299.0,-0.40181949354874813,-0.6730262590023006,1.8507234494580604,0.26238831360923276,0.6899258692042286,-1.4450093837378928,-0.6355827170335115,0.014687957512145675,-0.03971829567641782,0.8786688745426887,-0.20848564719140603,-0.11704352683142666,0.413249992924291
300.0,-0.402430325365287,-0.6745277229002123,1.855089590038917,0.2450816897776058,0.687129954403333,-1.4291882118727115,-0.6346732755027328,0.01451492736828746,-0.04096759404669628,0.876769127576409,-0.21237020982857147,-0.12045176474746946,0.414326155673874
301.0,-0.4030411571818258,-0.6760291867981241,1.8594557306197737,0.2277750659459788,0.6843340396024373,-1.4133670400075298,-0.6337764709796728,0.01434659441096938,-0.04219823087554578,0.8748231748159971,-0.21620865723469065,-0.12383497183394815,0.41545532743306657
302.0,-0.4036519889983647,-0.6775306506960359,1.8638218712006303,0.21046844211435173,0.6815381248015417,-1.3975458681423483,-0.6328920971467306,0.014182898836625109,-0.043410012840747615,0.8728319510799751,-0.22000037397230068,-0.12719232404337455,0.4166369322688724
303.0,-0.4042628208149035,-0.6790321145939476,1.8681880117814869,0.19316181828272477,0.678742210000646,-1.3817246962771668,-0.6320199460300098,0.014023779561060122,-0.04460275012643993,0.870796399561618,-0.22374476251064096,-0.13052300904591566,0.41787038166060486
304.0,-0.40487365263144237,-0.6805335784918595,1.8725541523623435,0.17585519445109776,0.6759462951997505,-1.3659035244119853,-0.6311598080521177,0.013869174235406435,-0.045776256440329705,0.868717471497374,-0.22744124333867943,-0.13382622642219233,0.4191550747221855
305.0,-0.40548448444798124,-0.6820350423897712,1.8769202929432,0.15854857061947075,0.6731503803988548,-1.3500823525468038,-0.6303114720849432,0.01371901926228454,-0.04693034903004875,0.8665961258337853,-0.23108925507213884,-0.13710118785203412,0.4204903984274068
306.0,-0.40609531626452006,-0.683536506287683,1.8812864335240567,0.1412419467878437,0.6703544655979591,-1.3342611806816222,-0.6294747255024017,0.013573249812168266,-0.04806484869865402,0.8644333288930196,-0.23468825455450104,-0.14034711729914903,0.42187572783808447
307.0,-0.4067061480810589,-0.6850379701855948,1.8856525741049133,0.12393532295621668,0.6675585507970635,-1.3184400088164407,-0.6286493542331342,0.01343179983994696,-0.049179579819279624,0.8622300540371153,-0.23823771695197415,-0.14356325119166022,0.42331042633502963
308.0,-0.4073169798975978,-0.6865394340835065,1.8900187146857699,0.10662869912458972,0.6647626359961678,-1.3026188369512592,-0.6278351428131469,0.013294602101678862,-0.05027437034893706,0.8599872813310527,-0.24173713584240494,-0.14674883859847,0.42479384585176816
309.0,-0.4079278117141366,-0.6880408979814183,1.8943848552666265,0.08932207529296271,0.6619667211952722,-1.2867976650860777,-0.6270318744383786,0.01316158817153116,-0.05134905184147227,0.8577059972047536,-0.24518602329812383,-0.149903141401405,0.4263253271109299
310.0,-0.4085386435306755,-0.68954236187933,1.898750995847483,0.0720154514613357,0.6591708063943765,-1.2709764932208962,-0.6262393310171845,0.013032688458900057,-0.052403459459680696,0.8553871941141208,-0.2485839099627115,-0.15302543446310646,0.42790419986323985
311.0,-0.40914947534721435,-0.6910438257772419,1.9031171364283397,0.05470882762970869,0.656374891593481,-1.2551553213557147,-0.6254572932227227,0.012907832225707495,-0.05343743198658273,0.853031870201223,-0.251930345121675,-0.15611500579062193,0.42952978312903006
312.0,-0.40976030716375317,-0.6925452896751536,1.9074832770091963,0.03740220379808168,0.6535789767925853,-1.2393341494905332,-0.6246855405452306,0.012786947603866228,-0.05445081183586685,0.8506410289537345,-0.25522489676702764,-0.1591711566946639,0.43120138544220205
313.0,-0.41037113898029204,-0.6940467535730653,1.911849417590053,0.02009557996645467,0.6507830619916897,-1.2235129776253517,-0.6239238513441804,0.012669961612910112,-0.05544344506150036,0.8482156788637361,-0.2584671516557653,-0.16219320194449605,0.43291830509656104
314.0,-0.41098197079683085,-0.6955482174709772,1.9162155581709093,0.002788956134827658,0.647987147190794,-1.2076918057601702,-0.6231720029003017,0.012556800177782691,-0.056415181366515355,0.8457568330859848,-0.26165671536223506,-0.16518046991841326,0.4346798303944459
315.0,-0.4115928026133697,-0.6970496813688889,1.920581698751766,-0.014517667696799297,0.6451912323898983,-1.1918706338949887,-0.6224297714674555,0.012447388146779266,-0.05736587411097294,0.8432655090957636,-0.2647932123243953,-0.16813230274977933,0.4364852398975787
316.0,-0.4122036344299086,-0.6985511452668007,1.9249478393326225,-0.03182429152842636,0.6423953175890027,-1.1760494620298072,-0.6216969323243554,0.012341649309636958,-0.05829538031910862,0.8407427283464147,-0.2678762858839625,-0.17104805646859378,0.43833380268005473
317.0,-0.4128144662464474,-0.7000526091647125,1.9293139799134793,-0.04913091536005332,0.639599402788107,-1.1602282901646257,-0.6209732598261136,0.01223950641576569,-0.05920356068566835,0.838189515926665,-0.2709055983204534,-0.17392710113854828,0.44022477858339765
318.0,-0.4134252980629863,-0.7015540730626242,1.9336801204943357,-0.06643753919168038,0.6368034879872114,-1.1444071182994442,-0.6202585274556112,0.01214088119261758,-0.06009027958143422,0.8356069002178547,-0.27388083087911747,-0.1767688209895534,0.44215741847359724
319.0,-0.41403612987952515,-0.703055536960536,1.9380462610751925,-0.08374416302330745,0.6340075731863157,-1.1285859464342627,-0.6195525078746744,0.0120456943641859,-0.06095540505795107,0.8329959125511714,-0.2768016837927721,-0.17957261454569606,0.444130964500056
320.0,-0.41464696169606396,-0.7045570008584477,1.942412401656049,-0.1010507868549344,0.6312116583854201,-1.1127647745690812,-0.6188549729750462,0.011953865669630019,-0.06179880885145441,0.8303575868650018,-0.27966787629754297,-0.18233789474860815,0.4461446503563598
321.0,-0.41525779351260284,-0.7060584647563596,1.9467785422369057,-0.11835741068656136,0.6284157435845245,-1.0969436027038997,-0.6181656939291441,0.011865313882020542,-0.06262036638600806,0.8276929593625025,-0.2824791466425207,-0.18506408907621566,0.4481977015427974
322.0,-0.4158686253291417,-0.7075599286542713,1.951144682817762,-0.13566403451818843,0.6256198287836288,-1.0811224308387182,-0.6174844412405947,0.011779956827198589,-0.06341995677585668,0.8250030681695032,-0.2852352520933431,-0.18775063965684657,0.45028933563054546
323.0,-0.4164794571456805,-0.709061392552183,1.955510823398619,-0.15297065834981538,0.6228239139827332,-1.0653012589735367,-0.6168109847945268,0.011697711402743671,-0.06419746282699866,0.822288952992843,-0.2879359689297177,-0.19039700337867038,0.4524187625274412
324.0,-0.4170902889622194,-0.7105628564500949,1.9598769639794753,-0.17027728218144234,0.6200279991818376,-1.0494800871083552,-0.6161450939076235,0.011618493597045629,-0.06495277103798691,0.8195516547792496,-0.29058109243689684,-0.19300265199445293,0.4545851847452594
325.0,-0.4177011207787582,-0.7120643203480066,1.9642431045603321,-0.1875839060130694,0.6172320843809419,-1.0336589152431737,-0.6154865373779108,0.011542218508472958,-0.06568577159996017,0.8167922153748646,-0.2931704368911231,-0.19556707222159853,0.45678779766841526
326.0,-0.4183119525952971,-0.7135657842459184,1.9686092451411885,-0.20489052984469636,0.6144361695800462,-1.0178377433779922,-0.6148350835342848,0.011468800364635295,-0.06639635839591743,0.8140116771855236,-0.29570383553906276,-0.19808976583746812,0.4590257898240087
327.0,-0.41892278441183595,-0.7150672481438302,1.9729753857220453,-0.22219715367632353,0.6116402547791506,-1.0020165715128106,-0.6141905002857543,0.011398152541730704,-0.0670844289992363,0.8112110828378923,-0.29818114057124706,-0.2005702497699486,0.461298343153132
328.0,-0.41953361622837476,-0.7165687120417419,1.9773415263029017,-0.23950377750795038,0.6088443399782549,-0.9861953996476291,-0.6135525551704015,0.011330187583975936,-0.06774988467144433,0.8083914748415661,-0.3006022230895445,-0.20300805618326193,0.4636046332833557
329.0,-0.42014444804491363,-0.7180701759396537,1.9817076668837585,-0.25681040133957755,0.6060484251773594,-0.9703742277824475,-0.61292101540404,0.011264817223110894,-0.06839263035925217,0.8055538952522359,-0.3029669730686844,-0.20540273255899538,0.4659438298023126
330.0,-0.4207552798614525,-0.7195716398375654,1.986073807464615,-0.2741170251712045,0.6032525103764637,-0.954553055917266,-0.6122956479285698,0.011201952397975015,-0.06901257469085169,0.802699385336024,-0.3052752993118618,-0.20775384177234277,0.4683150965322969
331.0,-0.4213661116779913,-0.7210731037354773,1.9904399480454715,-0.29142364900283146,0.6004565955755681,-0.9387318840520846,-0.6116762194600105,0.011141503274146605,-0.06960962997148983,0.7998289852350938,-0.30752712940044735,-0.21006096216353995,0.47071759180579664
332.0,-0.4219769434945302,-0.722574567633389,1.9948060886263281,-0.30873027283445853,0.5976606807746724,-0.922910712186903,-0.6110624965362136,0.011083379263643965,-0.07018371217832417,0.7969437336346336,-0.30972240963783215,-0.2123236876044886,0.4731504687418757
333.0,-0.42258777531106906,-0.7240760315313008,1.9991722292071847,-0.3260368966660855,0.5948647659737767,-0.9070895403217215,-0.6104542455642362,0.011027489044678637,-0.07073474095456722,0.7940446674313207,-0.31186110498743935,-0.21454162756055503,0.47561287552332376
334.0,-0.4231986071276079,-0.7255774954292126,2.0035383697880413,-0.34334352049771255,0.5920688511728811,-0.89126836845654,-0.6098512328673705,0.010973740581457933,-0.0712626396029285,0.7911328214033619,-0.3139431990049338,-0.2167144071475373,0.47810395567449177
335.0,-0.42380943894414674,-0.7270789593271243,2.007904510368898,-0.3606501443293395,0.5892729363719855,-0.8754471965913585,-0.609253224731822,0.010922041144031669,-0.07176733507836132,0.7882092278822138,-0.3159686937646646,-0.21884166718379472,0.480622848339728
336.0,-0.4244202707606856,-0.7285804232250361,2.0122706509497545,-0.37795676816096657,0.5864770215710898,-0.8596260247261769,-0.608659987453025,0.010872297328176163,-0.07224875798012187,0.7852749164260843,-0.31793760978037555,-0.2209230642375343,0.48316868856233486
337.0,-0.42503110257722443,-0.7300818871229479,2.0166367915306114,-0.3952633919925935,0.5836811067701941,-0.8438048528609955,-0.6080712873815877,0.010824415075310234,-0.07270684254315071,0.7823309134953101,-0.3198499859202242,-0.22295827066924662,0.4857406075639599
338.0,-0.4256419343937633,-0.7315833510208596,2.0210029321114678,-0.4125700158242205,0.5808851919692986,-0.827983680995814,-0.6074868909688612,0.010778299692441158,-0.07314152662878251,0.7793782421297141,-0.3217058793161442,-0.22494697466929672,0.48833773302434247
339.0,-0.42625276621030217,-0.7330848149187714,2.0253690726923246,-0.42987663965584755,0.5780892771684029,-0.8121625091306325,-0.6069065648121186,0.01073385587212989,-0.07355275171479328,0.7764179216280344,-0.32350536526759693,-0.2268888802906592,0.4909591893613288
340.0,-0.426863598026841,-0.7345862788166831,2.029735213273181,-0.4471832634874745,0.5752933623675073,-0.796341337265451,-0.6063300756993447,0.010690987712476188,-0.07394046288479461,0.7734509672295272,-0.3252485371397514,-0.22878370747680637,0.4936040980110758
341.0,-0.42747442984337986,-0.736087742714595,2.034101353854038,-0.46448988731910157,0.5724974475666116,-0.7805201654002694,-0.6057571906536201,0.010649598737113672,-0.07430460881698257,0.7704783897978373,-0.3269355062561394,-0.2306311920847451,0.4962715777083585
342.0,-0.42808526165991867,-0.7375892066125067,2.038467494434894,-0.4817965111507285,0.569701532765716,-0.764698993535088,-0.6051876769770981,0.010609591915213122,-0.07464514177224832,0.7675011955072293,-0.3285664017858303,-0.2324310859032096,0.49896074476690144
343.0,-0.42869609347645754,-0.7390906705104185,2.042833635015751,-0.4991031349823556,0.5669056179648203,-0.7488778216699065,-0.6046213022945642,0.010570869681486891,-0.07496201758166487,0.7645203855312785,-0.3301413706251759,-0.23418315666601114,0.5016707133596477
344.0,-0.4293069252929964,-0.7405921344083303,2.0471997755966074,-0.5164097588139827,0.5641097031639246,-0.7330566498047248,-0.6040578345965735,0.010533333956190251,-0.07525519563335077,0.7615369557341111,-0.33166057727416903,-0.23588718806055511,0.5044005957988867
345.0,-0.4299177571095352,-0.742093598306242,2.0515659161774638,-0.5337163826456095,0.561313788363029,-0.7172354779395435,-0.6034970422821555,0.010496886165114717,-0.07552463885872686,0.7585518963642862,-0.33312420370747514,-0.23754297973152724,0.5071495028161548
346.0,-0.4305285889260741,-0.7435950622041538,2.0559320567583206,-0.5510230064772366,0.5585178735621333,-0.7014143060743618,-0.6029386942010835,0.010461427259568251,-0.07577031371817179,0.7555661917514147,-0.3345324492401816,-0.23915034727976253,0.5099165438418317
347.0,-0.4311394207426129,-0.7450965261020656,2.0602981973391774,-0.5683296303088636,0.5557219587612378,-0.6855931342091803,-0.6023825596957002,0.01042685773633751,-0.07599219018608633,0.7525808200056009,-0.33588553038832286,-0.24070912225630456,0.5127008272843453
348.0,-0.4317502525591518,-0.7465979899999774,2.064664337920034,-0.5856362541404907,0.5529260439603421,-0.6697719623439988,-0.6018284086422929,0.010393077657627078,-0.07619024173537503,0.7495967527197984,-0.33718368072423716,-0.24221915215166645,0.515501460808907
349.0,-0.43236108437569065,-0.7480994538978891,2.06903047850089,-0.6029428779721175,0.5501301291594465,-0.6539507904788173,-0.6012760114920119,0.010359986670970996,-0.07636444532135672,0.7466149546751706,-0.3384271507268108,-0.24368030038030733,0.5183175516156951
350.0,-0.43297191619222947,-0.7496009177958008,2.073396619081747,-0.6202495018037446,0.5473342143585508,-0.6381296186136358,-0.600725139311328,0.010327484029112176,-0.07651478136511075,0.7436363835495384,-0.33961620762666767,-0.24509244626033774,0.5211482067174052
351.0,-0.43358274800876834,-0.7511023816937127,2.077762759662604,-0.6375561256353717,0.5445382995576551,-0.6223084467484543,-0.6001755638220226,0.010295468609845496,-0.07664123373626995,0.7406619896290063,-0.34075113524636674,-0.24645548498847147,0.5239925332160863
352.0,-0.4341935798253072,-0.7526038455916244,2.08212890024346,-0.6548627494669985,0.5417423847567595,-0.6064872748832728,-0.5996270574407045,0.010263838935817275,-0.07674378973527109,0.7376927155228477,-0.3418322338356682,-0.2477693276102363,0.5268496385791828
353.0,-0.434804411641846,-0.7541053094895362,2.0864950408243166,-0.6721693732986258,0.5389464699558639,-0.5906661030180913,-0.5990793933178451,0.010232493194280282,-0.07682244007506914,0.7347294958817365,-0.3428598199019286,-0.2490339009854668,0.5297186309147028
354.0,-0.4354152434583849,-0.755606773387448,2.0908611814051734,-0.6894759971302526,0.5361505551549682,-0.5748449311529098,-0.598532345376334,0.010201329256797169,-0.07687717886232974,0.7317732571194069,-0.3438342260356951,-0.25024914774909535,0.5325986192454317
355.0,-0.430825438368617,-0.7572790675966602,2.0795283113989798,-0.6549697306000957,0.56998269543988,-0.5645457978815646,-0.6033582162197171,0.011456812062016881,-0.07527518661130733,0.7320888219932712,-0.3619633272744881,-0.24479285783452323,0.5225944538302076
356.0,-0.428530535823733,-0.7581152147012662,2.073861876395883,-0.6377165973350171,0.5868987655823359,-0.5593962312458919,-0.605723951053397,0.012079073740618888,-0.07443880038414856,0.7321923318403065,-0.37091355180395696,-0.24204756214972212,0.5174268102251796
357.0,-0.42623563327884906,-0.7589513618058723,2.068195441392786,-0.6204634640699386,0.6038148357247918,-0.5542466646102192,-0.608057928735633,0.01269749926725773,-0.07357775801743852,0.7322599667370123,-0.37978539982799653,-0.23929302328478871,0.512149626768412
358.0,-0.4239407307339651,-0.7597875089104784,2.0625290063896893,-0.6032103308048601,0.6207309058672477,-0.5490970979745465,-0.6103599605353495,0.01331195956453976,-0.07269125494249387,0.7322919691694224,-0.3885772715112212,-0.2365308822477961,0.5067635717945241
359.0,-0.42164582818908114,-0.7606236560150845,2.0568625713865925,-0.5859571975397815,0.6376469760097035,-0.5439475313388739,-0.6126298810657582,0.013922331945965732,-0.07177848142159036,0.7322885914371234,-0.39728758300841505,-0.23376277779475368,0.5012693477124308
360.0,-0.4193509256441972,-0.7614598031196905,2.0511961363834956,-0.568704064274703,0.6545630461521594,-0.5387979647032012,-0.6148675484905589,0.014528499981353804,-0.07083862325682705,0.732250095558778,-0.4059147667866898,-0.2309903458680793,0.49566769087203266
361.0,-0.41705602309931317,-0.7622959502242966,2.045529701380399,-0.5514509310096245,0.6714791162946153,-0.5336483980675284,-0.6170728447112442,0.015130353353417378,-0.06987086250393282,0.7321767531749157,-0.41445727194428,-0.2282152190365314,0.4899593714205821
362.0,-0.4147611205544292,-0.7631320973289027,2.039863266377302,-0.534197797744546,0.6883951864370712,-0.5284988314318557,-0.6192456755352811,0.015727787705724847,-0.06887437819046319,0.7320688454480272,-0.42291356452590406,-0.22543902593678014,0.4841451931487722
363.0,-0.41246621800954525,-0.7639682444335089,2.034196831374205,-0.5169446644794675,0.7053112565795271,-0.523349264796183,-0.621385970824946,0.016320704482273768,-0.06784834703782677,0.731926662959987,-0.4312821278346277,-0.22266339071679211,0.4782259933265806
364.0,-0.4101713154646613,-0.764804391538115,2.0285303963711088,-0.4996915312143889,0.722227326721983,-0.5181996981605104,-0.6234936846266111,0.016909010758923405,-0.06679194418658392,0.7317505056068327,-0.43956146274015745,-0.21988993248120534,0.47220264252891336
365.0,-0.40787641291977733,-0.765640538642721,2.022863961368012,-0.4824383979493104,0.7391433968644389,-0.5130501315248377,-0.6255687952802984,0.01749261906693792,-0.06570434392445001,0.7315406824909362,-0.44775008798350596,-0.21712026473887033,0.4660760444510971
366.0,-0.4055815103748934,-0.7664766857473271,2.017197526364915,-0.46518526468423194,0.7560594670068947,-0.507900564889165,-0.6276113055093241,0.018071447208896446,-0.06458472041643878,0.7312975118105913,-0.4558465404779574,-0.21435599485272827,0.4598471357142646
367.0,-0.4032866078300094,-0.7673128328519332,2.0115310913618183,-0.44793213141915345,0.7729755371493506,-0.5027509982534923,-0.6296212424898892,0.018645418067241112,-0.06343224843657967,0.7310213207470551,-0.4638493756062745,-0.21159872349220377,0.453516885660689
368.0,-0.40099170528512545,-0.7681489799565393,2.0058646563587215,-0.4306789981540749,0.7898916072918065,-0.49760143161781967,-0.631598657900471,0.019214459405734727,-0.062246104100637245,0.7307124453490712,-0.4717571675140775,-0.2088500440882827,0.4470862961391208
369.0,-0.3986968027402415,-0.7689851270611454,2.0001982213556246,-0.41342586488899635,0.8068076774342624,-0.492451864982147,-0.6335436279509024,0.01977850366411115,-0.06102546559926519,0.7303712304149098,-0.4795685093993387,-0.20611154229144793,0.44055640128018536
370.0,-0.39640190019535754,-0.7698212741657514,1.9945317863525278,-0.3961727316239178,0.8237237475767183,-0.4873022983464743,-0.6354562533910278,0.02033748774620671,-0.05976951393102327,0.7299980293719572,-0.4872820137979272,-0.20338479543264146,0.4339282672619038
371.0,-0.3941069976504736,-0.7706574212703575,1.988865351349431,-0.3789195983588393,0.8406398177191742,-0.48215273171080164,-0.6373366594988589,0.020891352801868393,-0.058477433634686875,0.7295932041538902,-0.4948963128651436,-0.20067137198742643,0.4272029920653996
372.0,-0.3918120951055896,-0.7714935683749636,1.9831989163463342,-0.36166646509376077,0.8575558878616301,-0.47700316507512897,-0.6391849960481548,0.02144004400293876,-0.05714841352028035,0.7291571250754673,-0.5024100586531851,-0.19797283104351437,0.4203817052208604
373.0,-0.3895171925607056,-0.7723297154795697,1.9775324813432373,-0.3444133318286823,0.874471958004086,-0.4718535984394563,-0.641001437255378,0.021983510313627712,-0.05578164739826401,0.7286901707049772,-0.5098219233844824,-0.19529072177182769,0.4134655675438245
