Sungjin-Park-dev/vision_inspection_sogang/data/glass/trajectory/675/gtsp.csv
time,ur20-shoulder_pan_joint,ur20-shoulder_lift_joint,ur20-elbow_joint,ur20-wrist_1_joint,ur20-wrist_2_joint,ur20-wrist_3_joint,target-POS_X,target-POS_Y,target-POS_Z,target-ROT_X,target-ROT_Y,target-ROT_Z,target-ROT_W
0.0,-0.35142257809638977,-0.755716860294342,2.3030481338500977,-1.088178277015686,1.23589289188385,-0.16108852624893188,0.7480719089508057,-0.006173944566398859,-0.10841647535562515,0.5898670383798541,0.6011156472044432,0.38484275456127537,0.3776412450734861
1.0,-0.32670941948890686,-0.7685866355895996,2.304633855819702,-1.0921558141708374,1.2813644409179688,-0.13489939272403717,0.7512168288230896,0.004172437358647585,-0.10013753175735474,0.5964791658362733,0.5916161591873711,0.38196502486047823,0.38510471912842253
2.0,-0.31088849902153015,-0.7977699041366577,2.3007125854492188,-1.0724754333496094,1.3067307472229004,-0.11928211897611618,0.7595136165618896,0.00938456691801548,-0.08062698692083359,0.598598058889511,0.5857436759218222,0.38216752806613735,0.3905543374527018
3.0,-0.32152754068374634,-0.8153150081634521,2.2991747856140137,-1.0621471405029297,1.2819074392318726,-0.12711939215660095,0.7643410563468933,0.003598393639549613,-0.06804734468460083,0.5919429887125667,0.5880343295546,0.3884625755935717,0.39104469404725944
4.0,-0.2984371483325958,-0.8363342881202698,2.28851318359375,-1.016481637954712,1.3372411727905273,-0.10732823610305786,0.7699992656707764,0.010787243023514748,-0.055281270295381546,0.6061239097960043,0.5812966932871656,0.37575892213877216,0.3918075966340118
5.0,-0.2743699252605438,-0.7932316064834595,2.301886796951294,-1.0916175842285156,1.3980638980865479,-0.07599799335002899,0.7589844465255737,0.022730890661478043,-0.08392808586359024,0.6162244014820368,0.5654913858423849,0.3706302964953028,0.40388137228147614
6.0,-0.2553045451641083,-0.823050320148468,2.2906975746154785,-1.0458040237426758,1.4435505867004395,-0.056890588253736496,0.7674543857574463,0.0276647936552763,-0.06448961794376373,0.6262695957105741,0.5575416407063157,0.362333856373133,0.4069986350011479
7.0,-0.2114088386297226,-0.7986550331115723,2.2901968955993652,-1.0809447765350342,1.5453983545303345,-0.011055166833102703,0.7635210752487183,0.045720990747213364,-0.08018941432237625,0.6431562252208304,0.5346626152875325,0.3504238703210831,0.42153181242082005
8.0,-0.19497054815292358,-0.834068238735199,2.2736141681671143,-1.0183937549591064,1.5871599912643433,0.007329742889851332,0.774431049823761,0.04937422648072243,-0.056125640869140625,0.6531504898656256,0.527041884269402,0.34143644152273933,0.42313407593142455
9.0,-0.13339239358901978,-0.8054426312446594,2.2591099739074707,-1.0343135595321655,1.7299758195877075,0.07054530084133148,0.7733880877494812,0.0743442177772522,-0.0733158215880394,0.6756896114005123,0.494423778958722,0.3228971420089074,0.4412778167187662
10.0,-0.13018850982189178,-0.7674669623374939,2.269512891769409,-1.0935540199279785,1.7286522388458252,0.06793807446956635,0.7636054158210754,0.0782742127776146,-0.09890222549438477,0.6719940267916032,0.4945375767944377,0.3267264491504719,0.4439667110496189
11.0,-0.14173780381679535,-0.7505348920822144,2.279707193374634,-1.1277614831924438,1.6981106996536255,0.05384150892496109,0.7575802206993103,0.07514338195323944,-0.11029601842164993,0.6653751926374011,0.501052262039713,0.3328828734169771,0.4420537029742939
12.0,-0.16529323160648346,-0.7853883504867554,2.2793877124786377,-1.0851727724075317,1.6491519212722778,0.03389883041381836,0.7642163038253784,0.06404972076416016,-0.08805501461029053,0.6600474834456799,0.5123416166223058,0.33687907092580777,0.4339998606520881
13.0,-0.18445833027362823,-0.7702918648719788,2.290252685546875,-1.1166608333587646,1.602387547492981,0.013476544991135597,0.758526623249054,0.05798551067709923,-0.09825465828180313,0.6508582102999472,0.5220282419286397,0.34489973156637577,0.43001660419044924
14.0,-0.23511996865272522,-0.7451402544975281,2.310030698776245,-1.1679714918136597,1.4938139915466309,-0.0322253480553627,0.747998058795929,0.03970571979880333,-0.11427458375692368,0.6314205408109688,0.5422406911789537,0.36114663872178576,0.4205427907023379
15.0,-0.2891891598701477,-0.7601509690284729,2.302217960357666,-1.0930906534194946,1.3566598892211914,-0.10202733427286148,0.7494320273399353,0.020939432084560394,-0.10711003094911575,0.612089593302513,0.5808712212895242,0.36937476627375304,0.3892264586183613
16.0,-0.3357349932193756,-0.7788079977035522,2.1819112300872803,-0.5895432829856873,1.309718132019043,-0.2665860056877136,0.760831356048584,-0.010419405996799469,-0.09444331377744675,0.6407399342267892,0.6637071331072554,0.2776584826882906,0.2680502660711866
17.0,-0.38639605045318604,-0.7617748379707336,2.293689727783203,-1.052403211593628,1.1662126779556274,-0.20189817249774933,0.7511338591575623,-0.023026395589113235,-0.10366376489400864,0.5775081614355355,0.6152514104492233,0.391251432595539,0.36724969966975785
18.0,-0.3691789209842682,-0.7849217653274536,2.295213222503662,-1.0513962507247925,1.1944396495819092,-0.1796317994594574,0.756995439529419,-0.016567304730415344,-0.08821490406990051,0.5803088072084999,0.6076342237345935,0.39213618232159764,0.3745017395646503
19.0,-0.4315640926361084,-0.7812096476554871,2.2791748046875,-1.0147643089294434,1.0234285593032837,-0.26656943559646606,0.7605323195457458,-0.04053723067045212,-0.08577872067689896,0.5382141342403024,0.6392907873667042,0.42014174858387937,0.35371421513547047
20.0,-0.4382576644420624,-0.7647858262062073,2.2825539112091064,-1.0368077754974365,1.0138217210769653,-0.2691572904586792,0.7564764618873596,-0.04246755689382553,-0.09636440873146057,0.53653082949258,0.6391311632711584,0.42204500676054263,0.35429371629786705
21.0,-0.4651605188846588,-0.7463623881340027,2.2746355533599854,-1.032118558883667,0.9566331505775452,-0.3023828864097595,0.7546797394752502,-0.05438288301229477,-0.10658922046422958,0.5240603077723768,0.647986942782894,0.42974301799258663,0.34755525357419603
22.0,-0.4750354290008545,-0.7672728896141052,2.257793426513672,-0.9707950949668884,0.9201955795288086,-0.3336066007614136,0.7628233432769775,-0.0612165592610836,-0.0909174233675003,0.5140319046537859,0.65830475090492,0.43343191132958464,0.338441773685217
23.0,-0.48555901646614075,-0.7801429033279419,2.241182565689087,-0.9164389967918396,0.8804847002029419,-0.36811530590057373,0.7691642045974731,-0.06752078235149384,-0.0795925185084343,0.502396178212786,0.6688265173209331,0.43813036144648765,0.3291062992777685
24.0,-0.49271225929260254,-0.7976186871528625,2.2206673622131348,-0.8501042723655701,0.8455400466918945,-0.4043518900871277,0.7778264284133911,-0.07329177111387253,-0.06398874521255493,0.49100053978020886,0.6795265784372868,0.4418507240101208,0.3192648380648734
25.0,-0.4880565106868744,-0.8125130534172058,2.214583158493042,-0.8228914141654968,0.8468413352966309,-0.4087750315666199,0.7822638154029846,-0.07201892882585526,-0.05281732603907585,0.4899370399845691,0.6819031046232913,0.4410701187438559,0.3169021980162908
26.0,-0.5261280536651611,-0.7710527777671814,2.192894220352173,-0.7988329529762268,0.760248064994812,-0.4800255596637726,0.779504656791687,-0.09094186127185822,-0.07502349466085434,0.4671272380143366,0.6948603566744077,0.4537680856984083,0.3050504099800785
27.0,-0.5462918877601624,-0.7487518787384033,2.1766180992126465,-0.7735536694526672,0.7119817137718201,-0.5261042714118958,0.7788553237915039,-0.10160500556230545,-0.08593779057264328,0.45346359505491873,0.7022715208946646,0.4610426588042906,0.29769975757940065
28.0,-0.5538424253463745,-0.7307247519493103,2.1804568767547607,-0.7995857000350952,0.7055225372314453,-0.5247593522071838,0.7740358710289001,-0.10422785580158234,-0.09912379086017609,0.4536633122687643,0.7003130684713902,0.46256098853318395,0.29964735459657116
29.0,-0.5608171224594116,-0.7121033668518066,2.1855621337890625,-0.8304163813591003,0.7018362879753113,-0.5197246670722961,0.7687429189682007,-0.10633334517478943,-0.11291506141424179,0.4548822041071468,0.6976030545755968,0.46369356643824305,0.30235812388160443
30.0,-0.5754007697105408,-0.7174215912818909,2.1350202560424805,-0.6895215511322021,0.6340193152427673,-0.6228416562080383,0.7835579514503479,-0.12047721445560455,-0.09688357263803482,0.4283218333485192,0.7166856276102377,0.4724251027011327,0.28234135473165706
31.0,-0.5700113773345947,-0.731550931930542,2.129119396209717,-0.6610037684440613,0.6353964805603027,-0.6304692625999451,0.7882803678512573,-0.11902038007974625,-0.0851793959736824,0.42635503366334737,0.7194172813847799,0.4717095556207344,0.27955367221867755
32.0,-0.5823155045509338,-0.7229688167572021,2.0767018795013428,-0.5177656412124634,0.5745636820793152,-0.7485707402229309,0.8009289503097534,-0.13165166974067688,-0.07401115447282791,0.3985776213569594,0.7367142566053213,0.48044229367077873,0.2599291948209324
33.0,-0.5957330465316772,-0.6958840489387512,2.066793441772461,-0.5128956437110901,0.5526288747787476,-0.7776858806610107,0.7979367971420288,-0.1394195854663849,-0.09074369817972183,0.3930125482286277,0.73763574842028,0.48454600082371474,0.2581662500658028
34.0,-0.6116146445274353,-0.6629647612571716,2.016641616821289,-0.3922291696071625,0.5027877688407898,-0.8981775045394897,0.805697500705719,-0.15441060066223145,-0.09691164642572403,0.36949389077402073,0.7490301090710524,0.49319188424228144,0.24328979777876314
35.0,-0.6187183260917664,-0.6480676531791687,2.0226826667785645,-0.42473217844963074,0.4998263120651245,-0.8869816660881042,0.8001678586006165,-0.15671893954277039,-0.1109042689204216,0.372442296583195,0.7457844807948525,0.49415744686803686,0.24678059410385375
36.0,-0.6277464628219604,-0.6167284250259399,1.956528663635254,-0.24154362082481384,0.45555469393730164,-1.053320288658142,0.81380295753479,-0.17100152373313904,-0.10744234919548035,0.3428691065423477,0.760469950908884,0.5027403720195265,0.22666792425299132
37.0,-0.622992992401123,-0.6237869262695312,1.947195053100586,-0.2036091834306717,0.45537543296813965,-1.0762547254562378,0.818852424621582,-0.17016658186912537,-0.0972183421254158,0.3380831465882733,0.763945286818264,0.5026064138813442,0.22242791521404748
38.0,-0.6326375603675842,-0.5825777649879456,1.89279305934906,-0.05772477388381958,0.4270903170108795,-1.2234450578689575,0.8279149532318115,-0.18362048268318176,-0.10410404950380325,0.3150664389246748,0.7729433356212176,0.5099792053332479,0.2078772452909137
39.0,-0.6220828294754028,-0.6037039756774902,1.8922526836395264,-0.03256314620375633,0.4352024793624878,-1.2260243892669678,0.8335633873939514,-0.1782093197107315,-0.08539318293333054,0.31239692921635387,0.7764312910336305,0.507764311379305,0.20429883261913823
40.0,-0.61236572265625,-0.6317633390426636,1.910004734992981,-0.06872913986444473,0.449287474155426,-1.1735914945602417,0.8340626955032349,-0.17039987444877625,-0.07136598974466324,0.3192597362630919,0.7753811868720802,0.5038106284994951,0.20744176642375847
41.0,-0.6073713898658752,-0.6351882219314575,1.8951587677001953,-0.01215206179767847,0.44816794991493225,-1.2152087688446045,0.8402427434921265,-0.16985183954238892,-0.05999601632356644,0.31107486671021833,0.780184340752771,0.5041249736941096,0.20100455876247542
42.0,-0.5972542762756348,-0.6507076621055603,1.888908863067627,0.030066678300499916,0.471285343170166,-1.2338576316833496,0.8457228541374207,-0.16584412753582,-0.04464632645249367,0.30926396627477365,0.7880749239425539,0.4954677280956249,0.19443622047523337
43.0,-0.6040500402450562,-0.5963197350502014,1.817256212234497,0.24361859261989594,0.4382896423339844,-1.4535614252090454,0.8614525198936462,-0.18051667511463165,-0.04616246744990349,0.2707254678420939,0.7985655954608654,0.5091262263478841,0.17260126434263545
44.0,-0.6176404356956482,-0.5566454529762268,1.79815673828125,0.2769521474838257,0.4212437868118286,-1.5134607553482056,0.8597009778022766,-0.1914178729057312,-0.06915878504514694,0.26439535728285174,0.7964063687406331,0.5162013640205719,0.17137135892538452
45.0,-0.6267350912094116,-0.5167703032493591,1.7672139406204224,0.3593006730079651,0.4141700863838196,-1.6133372783660889,0.8627116084098816,-0.20214827358722687,-0.08527958393096924,0.25128201296746516,0.7986988852884902,0.5215486763213584,0.16408661988529252
46.0,-0.6385486721992493,-0.49399352073669434,1.766236662864685,0.3320935368537903,0.4047355055809021,-1.6072821617126465,0.8563723564147949,-0.20871558785438538,-0.10683433711528778,0.2563046473353825,0.7944085931492425,0.5240563818685816,0.1690793408661689
47.0,-0.6288589239120483,-0.6027977466583252,2.2086048126220703,-3.006614923477173,-0.4180452227592468,1.3851399421691895,0.8731876611709595,-0.21221259236335754,-0.09193108975887299,0.22875178251310943,0.8048194138637031,0.5268006245521171,0.14973120929405487
48.0,-0.6354427337646484,-0.5888413786888123,2.200437307357788,-2.986344575881958,-0.41469812393188477,1.3571178913116455,0.8721108436584473,-0.21794749796390533,-0.10504996031522751,0.22676136489335835,0.8038513744171928,0.5292559323497088,0.1492997297784951
49.0,-0.6206939816474915,-0.6436659693717957,2.1823039054870605,-2.825660228729248,-0.43499863147735596,1.2596473693847656,0.8878417611122131,-0.21566548943519592,-0.081733338534832,0.20380271825906296,0.8128604115412933,0.5292578683373635,0.13269706922960348
50.0,-0.6071862578392029,-0.6738763451576233,2.2001900672912598,-2.86787486076355,-0.44068780541419983,1.3183164596557617,0.8892185688018799,-0.20309561491012573,-0.054069072008132935,0.208302151106918,0.8150531998843743,0.5238104831989995,0.1338696115378837
51.0,-0.6019411683082581,-0.7041927576065063,2.1508724689483643,-2.6257882118225098,-0.4663205146789551,1.1376781463623047,0.9072334170341492,-0.21218369901180267,-0.05365176126360893,0.172126055112079,0.8234979556505965,0.5291420502808827,0.11060031109985881
52.0,-0.5949249863624573,-0.7168720960617065,2.0865581035614014,-2.393714666366577,-0.5069316625595093,0.962608277797699,0.9274286031723022,-0.2220253348350525,-0.058168988674879074,0.1314334692889826,0.8307125608248764,0.5343174404156822,0.0845384960007697
53.0,-0.6080777645111084,-0.6824447512626648,2.0795018672943115,-2.406994342803955,-0.49765458703041077,0.9501694440841675,0.9232648611068726,-0.2325545847415924,-0.08488002419471741,0.13629689393825697,0.8267644841833895,0.5385184609137795,0.08877787816123738
54.0,-0.6188382506370544,-0.6557603478431702,2.0820322036743164,-2.4443554878234863,-0.4848112463951111,0.9619618058204651,0.9174724221229553,-0.2390231192111969,-0.10402324050664902,0.14510093293337573,0.822964417541428,0.5409065240498585,0.09536990596022328
55.0,-0.604004979133606,-0.6776611804962158,2.0330302715301514,-2.278585910797119,-0.5273842215538025,0.851781964302063,0.936822772026062,-0.24023248255252838,-0.09313837438821793,0.11105875064986094,0.8296736751835576,0.5422535753393259,0.07258516820410753
56.0,-0.6021936535835266,-0.6634334325790405,1.9915837049484253,-2.186119318008423,-0.5521182417869568,0.7777979969978333,0.9479475021362305,-0.24826385080814362,-0.10561392456293106,0.0914179555983528,0.8306840684968377,0.5458915582777842,0.060076137865306446
57.0,-0.592931866645813,-0.6759625673294067,1.9740979671478271,-2.1307859420776367,-0.5723913908004761,0.7459471225738525,0.9562861919403076,-0.24558117985725403,-0.09518928080797195,0.07680138987153762,0.8333266219093011,0.5451095030523226,0.0502386048082816
58.0,-0.5805448293685913,-0.7037062644958496,1.9728851318359375,-2.1008412837982178,-0.5872253179550171,0.7401182055473328,0.9615435600280762,-0.23671814799308777,-0.07224316149950027,0.0666981218087943,0.8368324309394797,0.5416631814032848,0.04317222471882059
59.0,-0.5698423385620117,-0.7149370908737183,1.951172947883606,-2.0401270389556885,-0.6122182607650757,0.7040397524833679,0.9708706140518188,-0.23338720202445984,-0.061286233365535736,0.048914440202220966,0.8393517873265817,0.5404663982878924,0.031496459691363825
60.0,-0.5641072988510132,-0.7311403155326843,1.9563913345336914,-2.0379257202148438,-0.6151936054229736,0.7116913795471191,0.9716936945915222,-0.227812260389328,-0.04794272780418396,0.04706937512771458,0.8410201898138698,0.5381101338658817,0.03011640883923174
61.0,-0.5505977272987366,-0.7170206308364868,1.8942489624023438,-1.9190778732299805,-0.6712907552719116,0.6224585175514221,0.991672158241272,-0.23118630051612854,-0.05251653492450714,0.00877297903194894,0.8426446691343773,0.5383693707211433,0.005605094793218267
62.0,-0.5560038685798645,-0.701316237449646,1.8883687257766724,-1.9196357727050781,-0.6689163446426392,0.6145517230033875,0.9911337494850159,-0.23672720789909363,-0.0656445100903511,0.010380298547999923,0.8409895671586344,0.5409105494776232,0.0066764358907212985
63.0,-0.5550458431243896,-0.6839843988418579,1.8619422912597656,-1.8814448118209839,-0.6874248385429382,0.580309271812439,0.9977725148200989,-0.24186183512210846,-0.0770236924290657,-0.00182391334408319,0.8397829611158714,0.5429179138233846,-0.0011791561543173258
64.0,-0.5668166875839233,-0.6754075884819031,1.8836917877197266,-1.9312114715576172,-0.6589088439941406,0.6090922951698303,0.9881239533424377,-0.24605253338813782,-0.08806019276380539,0.017068967283127342,0.8379958751826573,0.5452964307341926,0.011107032064851583
65.0,-0.5663135647773743,-0.6469495296478271,1.842503309249878,-1.87417733669281,-0.6862747073173523,0.557758092880249,0.997850239276886,-0.25477778911590576,-0.10750099271535873,-0.0005450067483225458,0.8359908954514863,0.5487429249757265,-0.00035774145749951675
66.0,-0.5721485018730164,-0.6921989917755127,1.9245352745056152,-2.001922845840454,-0.6266584992408752,0.6653875708580017,0.9763947129249573,-0.241069957613945,-0.07827704399824142,0.03885305302187572,0.8381674648476825,0.5434437820308177,0.025191207071708053
67.0,-0.4994451701641083,-0.7080276012420654,2.0462424755096436,-2.7195160388946533,-1.0832972526550293,1.182165265083313,0.9679490327835083,-0.21679285168647766,-0.076080322265625,0.0762980846545955,0.9633403002349425,0.2564013997499202,0.020307398345736367
68.0,-0.48563405871391296,-0.7085515260696411,2.012615442276001,-2.658820152282715,-1.1195884943008423,1.1045125722885132,0.9852171540260315,-0.21663342416286469,-0.07547598332166672,0.033490336420953795,0.9686997160267333,0.24581910382537564,0.008498572269906959
69.0,-0.41613349318504333,-0.7149945497512817,2.0400936603546143,-2.8546741008758545,-1.4516639709472656,1.1515313386917114,0.985931932926178,-0.19592179358005524,-0.06501796096563339,-0.00033574087008234976,0.9980151402688643,0.06274671528230263,0.005340111746862648
70.0,-0.40384212136268616,-0.7090021967887878,1.998966097831726,-2.803255558013916,-1.4565680027008057,1.1641623973846436,1.0113911628723145,-0.19448842108249664,-0.06482155621051788,0.00024799324691101833,0.9979581007525876,0.06375341709730081,-0.0038819389556185354
71.0,-0.39406609535217285,-0.7034796476364136,1.9725019931793213,-2.7790303230285645,-1.4724185466766357,1.1747785806655884,1.028152585029602,-0.19342486560344696,-0.06481210887432098,0.0005200169435949676,0.9983301462196472,0.057042249952243766,-0.009101123657092784
72.0,-0.37621814012527466,-0.6946802735328674,1.9340015649795532,-2.7456445693969727,-1.490785002708435,1.1934945583343506,1.0534971952438354,-0.18679244816303253,-0.0646817684173584,0.0007480139366888962,0.9986812932062876,0.04901909950172652,-0.015239519644902366
73.0,-0.36837175488471985,-0.694525957107544,1.9115643501281738,-2.6868977546691895,-1.4583467245101929,0.8365561962127686,1.0654548406600952,-0.1772429198026657,-0.0641758143901825,-0.1786092728331623,0.9810259867760067,0.07419089627354625,-0.013507473423960192
74.0,-0.37220507860183716,-0.6982485055923462,1.9070764780044556,-2.6412925720214844,-1.4467438459396362,0.7265724539756775,1.0627793073654175,-0.17864114046096802,-0.06463903188705444,-0.2286516920254779,0.9690905485172986,0.09016292231578767,-0.021273456414149548
75.0,-0.3939826190471649,-0.7060580253601074,1.9346303939819336,-2.6477646827697754,-1.406053066253662,0.820811927318573,1.0425244569778442,-0.18831497430801392,-0.06536684185266495,-0.16982287475417496,0.9791491902886781,0.10983692764412087,-0.019050031311101445
76.0,-0.366392582654953,-0.7016292810440063,1.9769008159637451,-2.8189520835876465,-1.5319901704788208,1.2041395902633667,1.0317516326904297,-0.17420102655887604,-0.06286752223968506,0.00013100905522778832,0.9997199037959108,0.022969173402535945,-0.005702092960192503
77.0,-0.355661541223526,-0.6969439387321472,1.957375168800354,-2.803847312927246,-1.5367718935012817,1.2149550914764404,1.045377492904663,-0.16829505562782288,-0.06280005723237991,0.0001430765516940815,0.9997616179609847,0.02071209288167159,-0.006906228319091853
78.0,-0.3421141505241394,-0.6908639073371887,1.9338948726654053,-2.7868881225585938,-1.5436118841171265,1.228597640991211,1.0617718696594238,-0.16029833257198334,-0.06281568855047226,0.0001408024162004356,0.9998169301905149,0.017321472882001244,-0.008127290833549164
79.0,-0.3312690258026123,-0.6839096546173096,1.909216046333313,-2.770655632019043,-1.552321195602417,1.2395247220993042,1.0783584117889404,-0.15532319247722626,-0.06298189610242844,0.00011621085438372418,0.9998763944906596,0.012872443469889106,-0.009026762127753718
80.0,-0.31836849451065063,-0.678996741771698,1.891533613204956,-2.7584855556488037,-1.5576246976852417,1.2524617910385132,1.0909357070922852,-0.1457752138376236,-0.06298371404409409,9.877856860970956e-05,0.9999011393762909,0.010142860134457988,-0.009737766945396084
81.0,-0.29503074288368225,-0.6714369654655457,1.8665611743927002,-2.744318723678589,-1.5638788938522339,1.2758111953735352,1.109479308128357,-0.1259782463312149,-0.06302233785390854,6.016672978183409e-05,0.9999356886452733,0.00644937638288833,-0.009328477782567823
82.0,-0.2849099040031433,-0.6665126085281372,1.8526419401168823,-2.740349769592285,-1.567859172821045,1.2859184741973877,1.119651198387146,-0.1180054247379303,-0.06313727051019669,2.8194423034686045e-05,0.9999645767435724,0.003738684516265075,-0.007541001340040281
83.0,-0.2669515609741211,-0.6587166786193848,1.8308944702148438,-2.7346551418304443,-1.572051763534546,1.3038541078567505,1.135715126991272,-0.10241405665874481,-0.06325585395097733,2.0543216137881835e-06,0.9999911524820443,0.000491731061315956,-0.004177697209739233
84.0,-0.2544763684272766,-0.6579992175102234,1.828710675239563,-2.7335710525512695,-1.573035717010498,1.3163281679153442,1.138242483139038,-0.0887431800365448,-0.06326896697282791,-3.490650109287957e-07,0.9999914990740162,-8.467340929677577e-05,-0.004122451939551944
85.0,-0.23993919789791107,-0.6512100100517273,1.8105313777923584,-2.7302489280700684,-1.5739390850067139,1.3308559656143188,1.1514618396759033,-0.07527897506952286,-0.06335445493459702,-4.775464726044408e-07,0.9999987632590721,-0.0015419346608999834,-0.00030970566620405147
86.0,-0.23260599374771118,-0.6500701308250427,1.7833768129348755,-2.6575093269348145,-1.5636818408966064,1.338410496711731,1.1625546216964722,-0.0677110031247139,-0.06359919160604477,0.00019292775990881458,0.9997223006618327,0.008827829975146787,-0.02184842685920064
87.0,-0.2451229691505432,-0.6480728983879089,1.7770453691482544,-2.6506869792938232,-1.560975193977356,1.3259172439575195,1.1651091575622559,-0.08270033448934555,-0.06400042772293091,0.00024237727161613388,0.9996868122987835,0.010714370224172013,-0.022614615624736562
88.0,-0.2540106773376465,-0.6558812856674194,1.7958390712738037,-2.651653289794922,-1.5554341077804565,1.3171244859695435,1.1519910097122192,-0.08896587789058685,-0.0635325238108635,0.0003962710203794884,0.9995338798768706,0.01485117609054679,-0.026670367757039376
89.0,-0.2634994387626648,-0.653414785861969,1.7917183637619019,-2.655066728591919,-1.5545917749404907,1.3075716495513916,1.1542335748672485,-0.10060475766658783,-0.06395097076892853,0.00035618397325852985,0.9996022231800823,0.014852061344737898,-0.02397258476315056
90.0,-0.3132595419883728,-0.5687819123268127,1.4132652282714844,-1.3903013467788696,-1.321413278579712,0.1487937569618225,1.182096004486084,-0.13159823417663574,-0.057994160801172256,-0.40336711409410897,0.767348816651059,0.44122237490300065,-0.2319344319771549
91.0,-0.3251096308231354,-0.5424073934555054,1.3865035772323608,-1.341657280921936,-1.2963718175888062,0.1461377888917923,1.184319257736206,-0.1429612636566162,-0.07421928644180298,-0.3852108541795507,0.7624465953740909,0.4640308258463059,-0.23444227368184573
92.0,-0.34045878052711487,-0.5339665412902832,1.3892130851745605,-1.344913125038147,-1.2662110328674316,0.1584928035736084,1.1807754039764404,-0.155961811542511,-0.08476973325014114,-0.3656349629673761,0.7685392397530035,0.4741110411121856,-0.22555981803335579
93.0,-0.34155920147895813,-0.5084312558174133,1.3627057075500488,-1.3271149396896362,-1.2721449136734009,0.14939121901988983,1.1875933408737183,-0.16067388653755188,-0.10256216675043106,-0.36706340648117086,0.7634744555161385,0.478910978970753,-0.2302509188212924
94.0,-0.3609524965286255,-0.5150813460350037,1.3872268199920654,-1.3486132621765137,-1.2302950620651245,0.170689195394516,1.17693030834198,-0.1743566244840622,-0.10531018674373627,-0.34137801596541467,0.7743492229307373,0.48749847533638346,-0.21491758352164206
95.0,-0.38259226083755493,-0.5183728933334351,1.4107880592346191,-1.3693817853927612,-1.1834264993667603,0.19278453290462494,1.1657413244247437,-0.18962453305721283,-0.1110745295882225,-0.31219665310638883,0.7842631450754096,0.49813922008751427,-0.19829746966665757
96.0,-0.3808116912841797,-0.5544935464859009,1.4475715160369873,-1.3933738470077515,-1.1732761859893799,0.2085629105567932,1.1564804315567017,-0.18214771151542664,-0.0855274572968483,-0.30853536639726603,0.7911678470094929,0.49198431869885023,-0.19186139709409142
97.0,-0.36303338408470154,-0.5745078921318054,1.4512078762054443,-1.390844702720642,-1.2031000852584839,0.2003086358308792,1.159324049949646,-0.16604584455490112,-0.0648883804678917,-0.3291455790269797,0.7881130623239776,0.47995952680567167,-0.2004490993489177
98.0,-0.3522118926048279,-0.5535067319869995,1.420162558555603,-1.3685956001281738,-1.2350399494171143,0.17889520525932312,1.1700046062469482,-0.16170981526374817,-0.0757044181227684,-0.3476048998476838,0.778653704740013,0.4769967135196295,-0.2129398435897022
99.0,-0.33984604477882385,-0.562175452709198,1.418255090713501,-1.364450454711914,-1.25819993019104,0.16971412301063538,1.17290461063385,-0.15117254853248596,-0.06522277742624283,-0.3629960976227838,0.7744783593320993,0.46911855234236116,-0.21987470951680066
100.0,-0.3213635981082916,-0.6036756038665771,1.561318278312683,-1.8729759454727173,-1.3641712665557861,0.26075831055641174,1.1771504878997803,-0.14666825532913208,-0.0871439278125763,-0.4175780972738184,0.8447365807222701,0.30007513637249744,-0.1483359511307103
101.0,-0.30354994535446167,-0.59992915391922,1.5469963550567627,-1.8631552457809448,-1.3947352170944214,0.22432443499565125,1.1855640411376953,-0.13240385055541992,-0.08602365106344223,-0.44535598809786087,0.8319493312333995,0.29176140518751725,-0.15618462334264124
102.0,-0.3059259057044983,-0.5270311832427979,1.3566405773162842,-1.3197481632232666,-1.3423635959625244,0.12024391442537308,1.1957128047943115,-0.13022539019584656,-0.07897338271141052,-0.41211363275989843,0.7479452470250647,0.4557273645842884,-0.2511032264131903
103.0,-0.29588133096694946,-0.5054950714111328,1.3269062042236328,-1.2983818054199219,-1.3692069053649902,0.1031036227941513,1.2053381204605103,-0.12499257177114487,-0.0906951054930687,-0.4262980665400186,0.7369983645535212,0.4540215160742628,-0.2626172729492582
104.0,-0.30099552869796753,-0.48879286646842957,1.3115445375442505,-1.287412166595459,-1.36251962184906,0.1032801941037178,1.2085607051849365,-0.1313011795282364,-0.10315131396055222,-0.4205247606894342,0.7364620568718939,0.4601562640956468,-0.26275231121467046
105.0,-0.31933242082595825,-0.4894784986972809,1.3254892826080322,-1.299516201019287,-1.3246756792068481,0.12118165194988251,1.2015935182571411,-0.1460067629814148,-0.10849297046661377,-0.39758273140359707,0.7474855604120142,0.4698327410486729,-0.24990098860125246
106.0,-0.3183514475822449,-0.506196141242981,1.3431591987609863,-1.3118667602539062,-1.3224009275436401,0.12573647499084473,1.197161078453064,-0.14296190440654755,-0.09695778042078018,-0.39777013011759366,0.750591999822637,0.46620840274156317,-0.2470633493694434
107.0,-0.2766987085342407,-0.5960055589675903,1.5294160842895508,-1.8499401807785034,-1.4370672702789307,0.17212332785129547,1.1959948539733887,-0.10930842906236649,-0.08373607695102692,-0.48450304853456544,0.8114565302634142,0.28058558936945427,-0.1675315567043094
108.0,-0.27220645546913147,-0.5148186683654785,1.3238941431045532,-1.2968436479568481,-1.4181462526321411,0.08049619942903519,1.209547996520996,-0.10458405315876007,-0.07878958433866501,-0.45657440276195693,0.7232860546974255,0.4380879329399929,-0.2765430542160832
109.0,-0.27332478761672974,-0.4983530044555664,1.3065615892410278,-1.28434419631958,-1.4193938970565796,0.07762531191110611,1.2140520811080933,-0.10742998868227005,-0.09006436169147491,-0.4554651002399427,0.7204886861855825,0.4420086338023843,-0.27942076369901686
110.0,-0.2703714072704315,-0.46377554535865784,1.2663443088531494,-1.2551243305206299,-1.4329348802566528,0.0667184442281723,1.2249081134796143,-0.10891181975603104,-0.11223659664392471,-0.459416782978763,0.710981380207496,0.4471614308011642,-0.28894350887248554
111.0,-0.26196596026420593,-0.4773823320865631,1.2770962715148926,-1.2625707387924194,-1.4474568367004395,0.06131497398018837,1.2233530282974243,-0.10026146471500397,-0.10115236788988113,-0.46947384077003307,0.707920451601249,0.4397615333928681,-0.2916380304165946
112.0,-0.2457314431667328,-0.46038275957107544,1.2513699531555176,-1.2451813220977783,-1.4861271381378174,0.041265927255153656,1.23189377784729,-0.08828084170818329,-0.10946577787399292,-0.48939396413848935,0.6921537593582974,0.43315064761367345,-0.30626334704441294
113.0,-0.23926541209220886,-0.4814207851886749,1.2725766897201538,-1.2612133026123047,-1.4961063861846924,0.03789190202951431,1.2271449565887451,-0.08060210943222046,-0.09450344741344452,-0.4977179482394432,0.6914580216669008,0.4249622046366452,-0.30589176664823275
114.0,-0.22758303582668304,-0.4915411174297333,1.2793009281158447,-1.2665263414382935,-1.5187726020812988,0.02698390930891037,1.2265608310699463,-0.06950969994068146,-0.08570940047502518,-0.5118342438000664,0.6841465244603763,0.41604058182832754,-0.3112546774176232
115.0,-0.21934020519256592,-0.47238588333129883,1.255332112312317,-1.2494088411331177,-1.5400633811950684,0.015471069142222404,1.2336046695709229,-0.06421180069446564,-0.09712491184473038,-0.5209706784245729,0.6733113687545896,0.41493119245016125,-0.3210505543672969
116.0,-0.192501038312912,-0.47924572229385376,1.2569193840026855,-1.2534762620925903,-1.5949431657791138,-0.012440684251487255,1.2351768016815186,-0.039767056703567505,-0.08975902944803238,-0.5518073297848521,0.6515120324553619,0.3972721318606488,-0.3364752525944371
117.0,-0.19244758784770966,-0.4473426342010498,1.2204099893569946,-1.225696086883545,-1.5962843894958496,-0.012392902746796608,1.2447017431259155,-0.04176744073629379,-0.11041653156280518,-0.5482685237826421,0.6465262058026033,0.4045856434203101,-0.3430975782162646
118.0,-0.17190146446228027,-0.4746737480163574,1.2496007680892944,-1.2519004344940186,-1.6419026851654053,-0.03669815883040428,1.2382069826126099,-0.022090904414653778,-0.09174872189760208,-0.5753564289396037,0.6308178356192512,0.3846467257778734,-0.35082863949636656
119.0,-0.1575612872838974,-0.47942882776260376,1.2584843635559082,-1.2782100439071655,-1.682357907295227,-0.060623474419116974,1.2386360168457031,-0.010664964094758034,-0.09133842587471008,-0.5980136020339348,0.6166308053954602,0.3675461000477731,-0.3564492193278267
120.0,-0.14646576344966888,-0.4660135805606842,1.2494604587554932,-1.300759196281433,-1.6959012746810913,-0.07088006287813187,1.245407223701477,-1.1538926628418267e-05,-0.10480900853872299,-0.6096216791548706,0.6113115535508327,0.35732655600090085,-0.35633877865901503
121.0,-0.1339758038520813,-0.47701576352119446,1.2590010166168213,-1.2923915386199951,-1.715827226638794,-0.08074140548706055,1.2402719259262085,0.013148153200745583,-0.09502262622117996,0.6186037170362977,-0.5991918597929906,-0.35360007209012134,0.3650555374796476
122.0,-0.14091798663139343,-0.4798813462257385,1.2546908855438232,-1.25925874710083,-1.7076364755630493,-0.0716686025261879,1.2373924255371094,0.006218724884092808,-0.08767964690923691,0.6084863047877122,-0.6003566512261987,-0.36448188957119837,0.36941746086083804
123.0,-0.14503981173038483,-0.486514687538147,1.2532508373260498,-1.2205073833465576,-1.7043620347976685,-0.06485734134912491,1.2324354648590088,0.0023505715653300285,-0.07645250111818314,0.5998473537153796,-0.5978378592331016,-0.37538258003220965,0.37664434804812935
124.0,-0.15305587649345398,-0.5238909721374512,1.3088324069976807,-1.3200032711029053,-1.6853067874908447,-0.0676230862736702,1.225049376487732,-0.003440387547016144,-0.0627124086022377,-0.6074966312392132,0.6198590712419396,0.3547479691886024,-0.3476729112091562
125.0,-0.13464125990867615,-0.6189752221107483,1.4772447347640991,-1.6654785871505737,-1.7198798656463623,-0.15392927825450897,1.2011693716049194,0.0169965960085392,-0.03536571189761162,0.6800818830594777,-0.6282215200596402,-0.2564381141703612,0.27760736241854056
126.0,-0.12264334410429001,-0.6661343574523926,1.5736929178237915,-1.8693658113479614,-1.722714900970459,-0.21368131041526794,1.1827179193496704,0.03320934996008873,-0.021472716704010963,0.7178831072447335,-0.6245268291000625,-0.2018840400997069,0.23206231581169745
127.0,-0.11024396121501923,-0.6855815052986145,1.6132769584655762,-1.9365026950836182,-1.7416335344314575,-0.26368507742881775,1.1701910495758057,0.04630361497402191,-0.01463647186756134,0.7421848369907519,-0.6050627598840352,-0.18210757237566297,0.22337760950007476
128.0,-0.13931292295455933,-0.6882896423339844,1.6158032417297363,-1.943089485168457,-1.6920206546783447,-0.1925320029258728,1.1715818643569946,0.01984408125281334,-0.013329632580280304,0.7080270817096093,-0.6484378492893338,-0.18889988887511316,0.2062591553307821
129.0,-0.16466309130191803,-0.6676256656646729,1.5724925994873047,-1.8596255779266357,-1.6504217386245728,-0.11188618838787079,1.183384656906128,-0.005325650330632925,-0.02060505375266075,-0.6640488404230511,0.6825198232154076,0.2188177098214927,-0.2128958391309862
130.0,-0.1878873109817505,-0.663057267665863,1.5638333559036255,-1.8401448726654053,-1.6110963821411133,-0.055036693811416626,1.1852552890777588,-0.027079695835709572,-0.02275753952562809,-0.6306406963434726,0.7110256351937843,0.23268539940073668,-0.20637917317020002
131.0,-0.209231436252594,-0.6821447610855103,1.600525140762329,-1.8924977779388428,-1.5752360820770264,-0.006535906344652176,1.1729601621627808,-0.04428425431251526,-0.016430290415883064,-0.604526267185431,0.7403695422049761,0.22768264046876557,-0.18590736533879895
132.0,-0.2251647412776947,-0.6880640983581543,1.6122792959213257,-1.9019606113433838,-1.548710584640503,0.032754648476839066,1.1673591136932373,-0.05768116936087608,-0.014855721034109592,-0.5810727621279977,0.759521594852988,0.23220932142082376,-0.1776519718725162
133.0,-0.24457910656929016,-0.6721419095993042,1.5828615427017212,-1.8356651067733765,-1.5136462450027466,0.07564237713813782,1.1722332239151,-0.07631154358386993,-0.021497290581464767,-0.5474973287113682,0.7738790332992639,0.259901353177231,-0.18387279159885844
134.0,-0.2627333104610443,-0.6841232180595398,1.607405424118042,-1.8626092672348022,-1.4828816652297974,0.11947924643754959,1.161843180656433,-0.09030633419752121,-0.018225815147161484,-0.520424778189803,0.7944683496654779,0.26183791827706304,-0.1715196670304619
135.0,-0.29622697830200195,-0.7273641228675842,1.6993833780288696,-2.0040640830993652,-1.4411996603012085,0.21292941272258759,1.1288326978683472,-0.1135254055261612,-0.0055422293953597546,-0.4720987399452539,0.8382712663688245,0.23770331689221474,-0.1338700745534641
136.0,-0.2942100465297699,-0.7559025287628174,1.7607088088989258,-2.119877338409424,-1.4657530784606934,0.21074414253234863,1.1095020771026611,-0.10925384610891342,0.004621143452823162,-0.48402220557299297,0.8439305775883105,0.20064997321236042,-0.1150794202870148
137.0,-0.27517154812812805,-0.7501447200775146,1.749167561531067,-2.1244146823883057,-1.4933366775512695,0.16069349646568298,1.118812918663025,-0.09461437910795212,0.0037104410585016012,-0.5166180183144659,0.8264206400730202,0.1898626657562807,-0.11868831857454591
138.0,-0.2566491365432739,-0.7346943616867065,1.7152299880981445,-2.0812973976135254,-1.5157005786895752,0.10797765851020813,1.1340358257293701,-0.08102144300937653,-0.0007576174684800208,-0.5461022253693996,0.8042836952579135,0.19384605547525702,-0.13161992161351807
139.0,-0.23373852670192719,-0.7346941232681274,1.725012183189392,-2.1458754539489746,-1.5743266344070435,-0.008007262833416462,1.1386855840682983,-0.06505143642425537,-0.0006384068401530385,-0.6098740894915239,0.7652194151998833,0.1612029014626832,-0.12847749269053146
140.0,-0.2132432609796524,-0.7259518504142761,1.7077388763427734,-2.1331839561462402,-1.5912164449691772,-0.04576510190963745,1.1483839750289917,-0.04623120278120041,-0.003138022730126977,-0.6329357605062151,0.7456299125135127,0.15887342931728887,-0.13486137361926478
141.0,-0.18895992636680603,-0.7347846031188965,1.7315866947174072,-2.1924455165863037,-1.6133956909179688,-0.1077229306101799,1.1434547901153564,-0.020723596215248108,0.0004823379567824304,-0.668689442892106,0.7194846573424277,0.1374201049953908,-0.12771832897650287
142.0,-0.17751143872737885,-0.7167219519615173,1.6894333362579346,-2.1182379722595215,-1.6275925636291504,-0.12468581646680832,1.1577775478363037,-0.012394852936267853,-0.005698001943528652,-0.6767628458924609,0.7047846364565282,0.1534704439132086,-0.14736854983156805
143.0,-0.14900390803813934,-0.7267841696739197,1.7141212224960327,-2.1663742065429688,-1.6495330333709717,-0.18814481794834137,1.1496070623397827,0.018404636532068253,-0.0020635740365833044,0.711786507952486,-0.6738305816616802,-0.136308807200996,0.1439868861866569
144.0,-0.12974117696285248,-0.7235358357429504,1.706913948059082,-2.1506876945495605,-1.6710069179534912,-0.23018860816955566,1.150586724281311,0.0370144285261631,-0.0033167265355587006,0.7324900439766944,-0.6488452104549765,-0.13662908884272737,0.15424240800332464
145.0,-0.1217067763209343,-0.7494797706604004,1.7697292566299438,-2.259310722351074,-1.6603912115097046,-0.2541346251964569,1.1273014545440674,0.05070732906460762,0.005334470886737108,0.7461443234561239,-0.6435152223006829,-0.11152038803905324,0.12930587880342076
146.0,-0.13854318857192993,-0.7526078224182129,1.7817516326904297,-2.2932121753692627,-1.639984130859375,-0.2149038165807724,1.1258983612060547,0.03518291935324669,0.006277516484260559,0.7281292308711366,-0.6673460156686708,-0.10570912889078335,0.11533732523042685
147.0,-0.15538029372692108,-0.7583051919937134,1.8005337715148926,-2.335919141769409,-1.6224514245986938,-0.1795770227909088,1.1209309101104736,0.019801130518317223,0.008040178567171097,0.7110068242929528,-0.6890235507220703,-0.09771601628483323,0.10083363784284964
148.0,-0.14122368395328522,-0.7740110754966736,1.8375593423843384,-2.381068468093872,-1.6131000518798828,-0.16195927560329437,1.10256028175354,0.039678946137428284,0.012739889323711395,0.7103896295488117,-0.6920707116814442,-0.08932173641770284,0.0916860494599252
149.0,-0.1304544061422348,-0.7763597965240479,1.8421502113342285,-2.3845534324645996,-1.6110942363739014,-0.15519101917743683,1.0995173454284668,0.05219684913754463,0.01352540124207735,0.71174632509219,-0.6908167352059966,-0.08861812953024314,0.0913029802123228
150.0,-0.14286282658576965,-0.7878299951553345,1.8662223815917969,-2.4029507637023926,-1.6114189624786377,-0.1601962447166443,1.0862765312194824,0.04048490896821022,0.01682399772107601,0.709412088390002,-0.6937237122991619,-0.08699350385604976,0.08896083479179673
151.0,-0.1558060199022293,-0.8001760244369507,1.8912256956100464,-2.4195024967193604,-1.612025260925293,-0.16521543264389038,1.0718657970428467,0.028659041970968246,0.020435892045497894,0.7068202917302578,-0.6966934258376366,-0.08604231190219801,0.08729299029988584
152.0,-0.16737720370292664,-0.7977691292762756,1.8869738578796387,-2.4183571338653564,-1.6130858659744263,-0.1698833554983139,1.0748710632324219,0.015624959953129292,0.01969948038458824,0.7044735351892449,-0.6991108319946642,-0.0861590389599983,0.08681994477760087
153.0,-0.16645394265651703,-0.7840394377708435,1.860343098640442,-2.404151201248169,-1.6130214929580688,-0.1687001734972,1.0911027193069458,0.013897852040827274,0.01563124917447567,0.7043342734788262,-0.6991402208954034,-0.08661494876851801,0.08725842870008353
154.0,-0.18142388761043549,-0.7900731563568115,1.87274169921875,-2.412966728210449,-1.6141330003738403,-0.17484848201274872,1.0839663743972778,-0.001286212238483131,0.017410477623343468,-0.701368487429326,0.7023076534645386,0.08621505507140956,-0.08609976193501856
155.0,-0.18963418900966644,-0.7988522052764893,1.8893892765045166,-2.4205892086029053,-1.6153373718261719,-0.17941561341285706,1.0735546350479126,-0.00838541891425848,0.020022617653012276,-0.7001216587120642,0.7035115381689944,0.08652500714390282,-0.08610808210679838
156.0,-0.2017916440963745,-0.7925659418106079,1.876359224319458,-2.411039352416992,-1.6166380643844604,-0.1823728233575821,1.0808736085891724,-0.023175187408924103,0.018194371834397316,-0.6968277186834638,0.7065163433652746,0.0879675117305851,-0.08676118897346945
157.0,-0.20578691363334656,-0.7834698557853699,1.8584986925125122,-2.4010283946990967,-1.6169339418411255,-0.18257158994674683,1.0914876461029053,-0.029776686802506447,0.01553388126194477,-0.6954529677053429,0.7077586070566346,0.08858162599602516,-0.08704148081796394
158.0,-0.21693870425224304,-0.7786298990249634,1.8479721546173096,-2.392241954803467,-1.618437647819519,-0.18598344922065735,1.0968927145004272,-0.04346339777112007,0.01420073676854372,-0.6926562752055888,0.7102060431484356,0.09008546167281384,-0.08785937792266589
159.0,-0.22607609629631042,-0.7931329607963562,1.876255750656128,-2.4081051349639893,-1.6179386377334595,-0.18566882610321045,1.079615831375122,-0.049533307552337646,0.01850985921919346,-0.6893451424001327,0.7136065107731302,0.08974222922160147,-0.08669114560251498
160.0,-0.235714852809906,-0.785612165927887,1.8609002828598022,-2.398019313812256,-1.620576024055481,-0.1939871609210968,1.0879545211791992,-0.062484558671712875,0.01639508083462715,-0.6888926995497782,0.7138074652946613,0.09074857744772107,-0.08758108635912776
161.0,-0.24253112077713013,-0.7951282262802124,1.8793385028839111,-2.4084198474884033,-1.618727207183838,-0.18809828162193298,1.0766149759292603,-0.0669114887714386,0.019259687513113022,-0.6843266050527043,0.7183424336420074,0.09066797289516701,-0.08637455839192126
162.0,-0.25792017579078674,-0.8064833879470825,1.9023302793502808,-2.4254953861236572,-1.6257884502410889,-0.21987952291965485,1.0621178150177002,-0.08107727766036987,0.02284478396177292,-0.6906172147889473,0.712633248561886,0.08853984249202537,-0.08580449855792924
163.0,-0.24681799113750458,-0.8164673447608948,1.9219961166381836,-2.4359230995178223,-1.6287046670913696,-0.2318457067012787,1.0508321523666382,-0.06669024378061295,0.025686290115118027,-0.6989107367151546,0.7045075962308549,0.08750430123842397,-0.08680913674307494
164.0,-0.23357287049293518,-0.8210324645042419,1.9312324523925781,-2.441119432449341,-1.6261030435562134,-0.22227415442466736,1.0460479259490967,-0.051027968525886536,0.026894347742199898,-0.7001353816964143,0.7033857064787892,0.0869733943154812,-0.08657149588285244
165.0,-0.20268382132053375,-0.8215383291244507,1.932240605354309,-2.440140724182129,-1.6193361282348633,-0.19461873173713684,1.0464160442352295,-0.01748715527355671,0.02680146135389805,-0.7009958958491109,0.7025240697077592,0.0868835159460105,-0.08669452197693465
166.0,-0.1911488175392151,-0.8146320581436157,1.918928623199463,-2.4327621459960938,-1.616976022720337,-0.18462660908699036,1.054799199104309,-0.006642019841820002,0.02468647062778473,-0.7014230104224952,0.702053380645168,0.08700689648793132,-0.08692877048522907
167.0,-0.19027505815029144,-0.8249801397323608,1.9388540983200073,-2.443465232849121,-1.6166497468948364,-0.1842222511768341,1.0424827337265015,-0.0032959000673145056,0.02779448591172695,-0.7016151588714599,0.7019624269140875,0.08658041087611108,-0.08653757851468086
168.0,-0.17268915474414825,-0.8154356479644775,1.9200888872146606,-2.4321415424346924,-1.6137809753417969,-0.1714155077934265,1.0539153814315796,0.013473393395543098,0.024908490478992462,0.7031169345719565,-0.7003224302962243,-0.08693284071554319,0.08727972930326483
169.0,-0.16529805958271027,-0.8215268850326538,1.9317296743392944,-2.4383444786071777,-1.6114897727966309,-0.16289500892162323,1.0466132164001465,0.022817382588982582,0.026751359924674034,0.7026630238084395,-0.7008670576202332,-0.08663580600431371,0.08685781273506968
170.0,-0.16018547117710114,-0.8113649487495422,1.912449598312378,-2.429143190383911,-1.6116011142730713,-0.16327542066574097,1.058628797531128,0.026188163086771965,0.02372400090098381,0.7045862951076551,-0.6989248507635958,-0.08643116471840694,0.08713127737485299
171.0,-0.14277207851409912,-0.8121237754821777,1.9131895303726196,-2.4279980659484863,-1.6089684963226318,-0.15219181776046753,1.057399034500122,0.04511580243706703,0.02403251826763153,0.7066599513083588,-0.69676709562259,-0.0864111949311506,0.08763807999437011
172.0,-0.13181310892105103,-0.8185859322547913,1.9248889684677124,-2.4326601028442383,-1.6058950424194336,-0.13977110385894775,1.0493940114974976,0.05816628038883209,0.02604871615767479,0.7060173925300482,-0.6974075013884716,-0.08653377096168453,0.08760208293934213
173.0,-0.12019852548837662,-0.8198434114456177,1.9268381595611572,-2.43327260017395,-1.6033518314361572,-0.129721537232399,1.0474430322647095,0.0708908960223198,0.026541005820035934,0.7064660071148492,-0.6969761182146956,-0.0863871111953186,0.08756333963996757
174.0,-0.10821494460105896,-0.8199836015701294,1.9265097379684448,-2.4324700832366943,-1.6011872291564941,-0.12101574242115021,1.0467051267623901,0.08375313133001328,0.02672695554792881,0.7075139051653316,-0.6959070641094831,-0.08627590563657045,0.08771488030438032
175.0,-0.12112604826688766,-0.8090021014213562,1.9062718152999878,-2.423001527786255,-1.6079553365707397,-0.14746911823749542,1.060349941253662,0.06764110922813416,0.023288583382964134,0.7124494925629671,-0.6907544589432925,-0.08602850323840269,0.08873046053802622
176.0,-0.12225205451250076,-0.7950554490089417,1.8797223567962646,-2.4102783203125,-1.608707308769226,-0.15033194422721863,1.077052116394043,0.0642874538898468,0.01915990188717842,0.7130716062429852,-0.6900917295343543,-0.08602675728768568,0.0888914294456916
177.0,-0.1351587474346161,-0.8026968836784363,1.8951181173324585,-2.4192962646484375,-1.6113865375518799,-0.1616266965866089,1.068338394165039,0.051249995827674866,0.02129756286740303,0.7126570732049782,-0.6905935447696687,-0.08579793473931387,0.08853906667593814
178.0,-0.14520102739334106,-0.8231910467147827,1.9343817234039307,-2.4389562606811523,-1.6072311401367188,-0.14587880671024323,1.0442841053009033,0.04475141689181328,0.027339044958353043,0.7035748091109897,-0.6999763906593192,-0.08642495966642554,0.08686925146818655
179.0,-0.15843160450458527,-0.8307148218154907,1.9562863111495972,-2.474738121032715,-1.606816053390503,-0.15847750008106232,1.0347208976745605,0.0326041504740715,0.0297051053494215,0.7040799806883627,-0.7012312306524612,-0.07904200310614991,0.07936311294598397
180.0,-0.1771041750907898,-0.8358408808708191,1.9764574766159058,-2.5175161361694336,-1.6056727170944214,-0.17574340105056763,1.0272012948989868,0.014880308881402016,0.03146406635642052,0.7043947207076642,-0.7029652423068988,-0.0694561201526851,0.06959736288761703
181.0,-0.19245950877666473,-0.8386811017990112,1.9885847568511963,-2.544001340866089,-1.6050407886505127,-0.18944324553012848,1.0225454568862915,0.00013365141057875007,0.03251034766435623,0.7042525664534482,-0.7042403212085903,-0.06353641570436903,0.06353752046779049
182.0,-0.2146080583333969,-0.8422881960868835,2.0184473991394043,-2.623424530029297,-1.5976486206054688,1.357848882675171,1.0122699737548828,-0.019159924238920212,0.0341104194521904,-5.5149328533689386e-08,0.9980035018972223,-8.714444591593578e-07,-0.0631586114486255
183.0,-0.22990258038043976,-0.8418993949890137,2.022588014602661,-2.6396729946136475,-1.5969058275222778,1.3423550128936768,1.0111196041107178,-0.034348633140325546,0.03426385298371315,-3.864131865744468e-08,0.9983528539590877,-6.724095169746383e-07,-0.057372284173552834
184.0,-0.24587096273899078,-0.8320069313049316,1.9653315544128418,-2.502446174621582,-1.6210225820541382,-0.24079245328903198,1.0309131145477295,-0.0594603531062603,0.030596431344747543,0.7032968460146721,-0.7032937079087543,-0.07331936588825828,0.07331969304023339
185.0,-0.26418572664260864,-0.8200505971908569,1.929105520248413,-2.442392110824585,-1.63327956199646,-0.25249382853507996,1.0454782247543335,-0.08456769585609436,0.027038084343075752,-0.7003030212443638,0.7032757198993084,0.0867248192724474,-0.0863582419823765
186.0,-0.2768362760543823,-0.8302648067474365,1.9668570756912231,-2.522052049636841,-1.623107671737671,-0.27197372913360596,1.0303419828414917,-0.09218452870845795,0.030665045604109764,0.7038341261518407,-0.7038340868079639,-0.06795255916828292,0.0679525629667876
187.0,-0.2700203061103821,-0.8357651829719543,1.9948084354400635,-2.586758852005005,-1.6102430820465088,-0.2671954333782196,1.0209548473358154,-0.08033675700426102,0.03262484818696976,0.7051624126260969,-0.7051607470687509,-0.052413164546379135,0.052413288343870525
188.0,-0.2895512580871582,-0.8404414057731628,2.0539932250976562,-2.7422080039978027,-1.5833464860916138,1.281509518623352,0.9984859824180603,-0.08976298570632935,0.03488169237971306,0.0,0.9997583595478875,0.0,-0.02198232276436856
189.0,-0.2785189747810364,-0.8415555953979492,2.0747792720794678,-2.7899341583251953,-1.5748239755630493,1.2923057079315186,0.9904103875160217,-0.07479949295520782,0.03497620299458504,0.0,0.9999731712200797,0.0,-0.007325082938587781
190.0,-0.2756228744983673,-0.8496476411819458,2.1128122806549072,-2.834418773651123,-1.5670677423477173,1.2951717376708984,0.9681892395019531,-0.06434241682291031,0.034987229853868484,-1.2599699164449595e-06,0.9999982360445948,0.0017316067000280135,0.000727629265532822
191.0,-0.26199042797088623,-0.8528491258621216,2.1247193813323975,-2.843590497970581,-1.565758466720581,1.3088030815124512,0.9612456560134888,-0.04885587468743324,0.034986548125743866,-2.5413036450980624e-06,0.9999967208092623,0.0023133492941903354,0.0010985350732253276
192.0,-0.2503310739994049,-0.8570905923843384,2.1406586170196533,-2.8556904792785645,-1.5665568113327026,1.3204636573791504,0.951200544834137,-0.03507501631975174,0.034986913204193115,-2.206008063578879e-06,0.999997533449228,0.0018894187245471032,0.0011675561986539027
193.0,-0.2512751519680023,-0.8620532155036926,2.160635232925415,-2.872123956680298,-1.5654919147491455,1.3195196390151978,0.9380954504013062,-0.032447874546051025,0.03498603776097298,-4.430999761025554e-06,0.9999955405653141,0.002227600368663542,0.0019891270569860004
194.0,-0.2436947524547577,-0.8652040362358093,2.1737887859344482,-2.883126974105835,-1.565590739250183,1.327101230621338,0.9296338558197021,-0.023193275555968285,0.0349857434630394,-5.072301217775257e-06,0.999994858614845,0.002073972087638215,0.002445681485309058
195.0,-0.22414837777614594,-0.868754506111145,2.1859936714172363,-2.8894755840301514,-1.569345235824585,1.346648097038269,0.9212146401405334,-0.003630951512604952,0.03498777002096176,-4.7252620037067876e-07,0.9999994775370328,0.000547318946064206,0.0008633466333796836
196.0,-0.20554792881011963,-0.8653640151023865,2.1732451915740967,-2.8810551166534424,-1.5720882415771484,1.365248680114746,0.9298132658004761,0.01125944685190916,0.034987591207027435,9.028594022185445e-07,0.9999990848375366,-0.0008749884899447312,0.0010318519354221216
197.0,-0.21074289083480835,-0.8605180978775024,2.152724266052246,-2.863257884979248,-1.5710372924804688,1.3600534200668335,0.9434395432472229,0.0036897205282002687,0.03498799353837967,1.4408482614500897e-08,0.9999999845857183,-0.00014453758402538218,9.968675801885765e-05
198.0,-0.20416058599948883,-0.8558122515678406,2.135187864303589,-2.8505752086639404,-1.5713218450546265,1.3666356801986694,0.9551997780799866,0.0074106184765696526,0.034988049417734146,4.2978476879533054e-08,0.9999999451622442,-0.00029815594198467693,0.00014414763627644227
199.0,-0.19456084072589874,-0.8494071960449219,2.1118314266204834,-2.833522319793701,-1.5712809562683105,1.3762354850769043,0.970727801322937,0.013503673486411572,0.03498797491192818,2.6995198100372324e-08,0.9999999592643797,-0.0002669123004221948,0.00010113882649907897
200.0,-0.1951524168252945,-0.8436487317085266,2.091325283050537,-2.8184731006622314,-1.5707963705062866,1.3756438493728638,0.9843730330467224,0.010309958830475807,0.03498800843954086,0.0,1.0,0.0,0.0
201.0,-0.17973560094833374,-0.8427610993385315,2.0882456302642822,-2.8162808418273926,-1.5707963705062866,1.391060709953308,0.98614901304245,0.025111215189099312,0.03498800843954086,0.0,1.0,0.0,0.0
202.0,-0.1717522293329239,-0.8469420671463013,2.10310959815979,-2.827315330505371,-1.5713844299316406,1.3990440368652344,0.9760186076164246,0.03460802882909775,0.034987982362508774,3.929975161176372e-08,0.9999999413278623,-0.0003197461385595676,0.00012290922330157486
203.0,-0.15896156430244446,-0.8441534042358398,2.0930819511413574,-2.8197247982025146,-1.5707963705062866,1.411834716796875,0.982180118560791,0.0461091510951519,0.03498800843954086,0.0,1.0,0.0,0.0
204.0,-0.15423543751239777,-0.8492833971977234,2.1120176315307617,-2.834700584411621,-1.572842001914978,1.4165606498718262,0.9693560004234314,0.05238926038146019,0.03498770296573639,4.6321731914503724e-07,0.999999305805439,-0.0011005631740237626,0.0004208908712435896
205.0,-0.1672411561012268,-0.8514969348907471,2.1201984882354736,-2.8409650325775146,-1.573048710823059,1.4035547971725464,0.9644914865493774,0.0406680703163147,0.03498776629567146,6.605198239483657e-07,0.9999990967679959,-0.001232599104394317,0.0005358751759088793
206.0,-0.1810682862997055,-0.8519006967544556,2.121154308319092,-2.840831756591797,-1.5720279216766357,1.3897279500961304,0.9642508029937744,0.027618711814284325,0.034987933933734894,1.8506830942378028e-07,0.9999997339434533,-0.0006761655759132641,0.000273702580097539
207.0,-0.16444599628448486,-0.858407199382782,2.1477513313293457,-2.8642055988311768,-1.5751088857650757,1.4063496589660645,0.9460706114768982,0.04607894644141197,0.034986067563295364,4.064260490693571e-06,0.9999956095354927,-0.0024599096505247627,0.0016521917962658756
208.0,-0.17255839705467224,-0.8625616431236267,2.164961814880371,-2.878803014755249,-1.5751785039901733,1.398238182067871,0.9349493384361267,0.0403897650539875,0.03498520702123642,6.29738621923294e-06,0.9999936702423933,-0.002639897247392078,0.0023854513228498647
209.0,-0.1495305299758911,-0.8589272499084473,2.151879072189331,-2.870488405227661,-1.5770583152770996,1.4212653636932373,0.9428051114082336,0.06025277450680733,0.03498334437608719,1.0312696719392903e-05,0.9999894194296558,-0.0035980822255507324,0.0028661344501528336
210.0,-0.1430772989988327,-0.8513094186782837,2.120722532272339,-2.843294143676758,-1.5755208730697632,1.4277178049087524,0.9630498290061951,0.06359994411468506,0.03498680144548416,3.043597062587962e-06,0.9999960203023395,-0.002558077537541032,0.0011897939028843146
211.0,-0.13254496455192566,-0.8417158126831055,2.0825817584991455,-2.808621406555176,-1.5712018013000488,1.4382519721984863,0.9872176647186279,0.07109308242797852,0.03498747572302818,-2.4951247568902825e-11,0.9999988236718695,-1.6267194326132005e-08,-0.0015338366527055567
212.0,-0.11659538000822067,-0.8462874889373779,2.10183048248291,-2.8281407356262207,-1.5742264986038208,1.4542003870010376,0.973646879196167,0.08780116587877274,0.03498717397451401,1.2568623071432637e-06,0.9999981235869414,-0.0018082275847847971,0.000695078426158543
213.0,-0.10890678316354752,-0.8409329652786255,2.0695881843566895,-2.7805216312408447,-1.5728662014007568,1.4619091749191284,0.9916194677352905,0.093453548848629,0.0349680557847023,-9.613856996471444e-10,0.9999546724118272,-1.009686569887355e-07,-0.009521193294188523
214.0,-0.13897395133972168,-0.8412775993347168,2.027280807495117,-2.6593997478485107,-1.5843991041183472,1.4324853420257568,1.0095967054367065,0.05961953476071358,0.034456513822078705,-3.194370484464028e-08,0.9987913432364012,-6.491197454004855e-07,-0.04915132425075764
215.0,-0.1569213718175888,-0.8419339060783386,2.022005558013916,-2.6379432678222656,-1.5886253118515015,1.4148826599121094,1.0113297700881958,0.040700461715459824,0.03427000716328621,-4.7036300696602134e-08,0.9983668811717353,-8.220094871753778e-07,-0.05712766911702435
216.0,-0.12876106798648834,-0.8307501673698425,1.9566121101379395,-2.4778263568878174,-1.6007121801376343,-0.13369552791118622,1.0337146520614624,0.06418125331401825,0.029944904148578644,0.7056835831231236,-0.6999058027215979,-0.07759743673668061,0.0782380063590705
217.0,-0.1046891063451767,-0.8341395854949951,1.982795000076294,-2.5553104877471924,-1.5892826318740845,-0.11114496737718582,1.0247918367385864,0.09156032651662827,0.031838759779930115,0.7075017269811119,-0.7018807083562729,-0.05809690100828183,0.05856216909639686
218.0,-0.07622211426496506,-0.8266476988792419,1.9552935361862183,-2.498260736465454,-1.6833477020263672,-0.5033952593803406,1.0321413278579712,0.1053800955414772,0.02975570037961006,0.8384032610364996,-0.5328186816087437,-0.06158694936221514,0.09690857588644765
219.0,-0.07631465792655945,-0.8163278102874756,1.917070746421814,-2.415656805038452,-1.6557153463363647,-0.31351029872894287,1.0469510555267334,0.10840808600187302,0.0256588626652956,0.7820291156844291,-0.6086111711524829,-0.08245208624239685,0.10594601476464136
220.0,-0.08582007884979248,-0.802189290523529,1.889302134513855,-2.3997743129730225,-1.6416255235671997,-0.2618863582611084,1.065232515335083,0.09913889318704605,0.02138558216392994,0.762611260101723,-0.6329659073261714,-0.0851568847091125,0.10259888457219031
221.0,-0.08697039633989334,-0.7902995347976685,1.864549160003662,-2.3782873153686523,-1.6480741500854492,-0.2753312885761261,1.0791831016540527,0.09571092575788498,0.017718490213155746,0.7663319281032966,-0.627384364825468,-0.08760294661811642,0.10700447881211037
222.0,-0.0920148640871048,-0.7808101773262024,1.844123125076294,-2.358644962310791,-1.6477313041687012,-0.2655033767223358,1.0907182693481445,0.08929768204689026,0.014788830652832985,0.7612923783351199,-0.6325821302325033,-0.09099797382719506,0.10951315883814981
223.0,-0.10796167701482773,-0.7782453298568726,1.8422173261642456,-2.371142864227295,-1.625771403312683,-0.20083430409431458,1.0956823825836182,0.07489562779664993,0.014100330881774426,0.734912233051382,-0.6647560045871262,-0.09000887719791302,0.09950812078600887
224.0,-0.11038842797279358,-0.7987511157989502,1.88608717918396,-2.4120638370513916,-1.608923077583313,-0.15061736106872559,1.0720698833465576,0.07748619467020035,0.020377805456519127,0.7172248360236114,-0.685693013072364,-0.08579366900019178,0.08973891449160687
225.0,-0.050546228885650635,-0.7569944262504578,1.7808905839920044,-2.2126624584198,-1.806021809577942,-0.5256519317626953,1.1043585538864136,0.10938078910112381,0.0072359321638941765,0.8439360115464163,-0.48882553198590717,-0.11074622546864184,0.19119853879742593
226.0,-0.0573880709707737,-0.7387210726737976,1.7397969961166382,-2.153078556060791,-1.805423617362976,-0.48131197690963745,1.1225019693374634,0.10091151297092438,0.001234553987160325,0.8292440484265271,-0.5065854438161999,-0.12306386165098307,0.2014467230268972
227.0,-0.05923958867788315,-0.7192326188087463,1.6948655843734741,-2.072664976119995,-1.8142162561416626,-0.43943944573402405,1.1381810903549194,0.09659361839294434,-0.0051489900797605515,0.8148822517259373,-0.5174734178482456,-0.13998402160813506,0.22043740911409326
228.0,-0.08072039484977722,-0.689980685710907,1.6265276670455933,-1.9505497217178345,-1.7954020500183105,-0.34359875321388245,1.1620606184005737,0.07317209243774414,-0.013885912485420704,0.7770507704694828,-0.5567827657575941,-0.1709907547182589,0.2386361533150157
229.0,-0.051035284996032715,-0.6583804488182068,1.569750428199768,-1.8275954723358154,-1.8747937679290771,-0.3718949258327484,1.1713976860046387,0.09517960250377655,-0.026000164449214935,0.7875583151744674,-0.5081524849965875,-0.18900720689165315,0.292932121718263
230.0,-0.05985914543271065,-0.6329942941665649,1.517018437385559,-1.7244021892547607,-1.8712103366851807,-0.31909406185150146,1.1845347881317139,0.0846288800239563,-0.033346936106681824,0.7645546195980992,-0.5207912204112634,-0.213804947068403,0.31387924907969017
231.0,-0.09357243776321411,-0.6258030533790588,1.495726227760315,-1.6977583169937134,-1.7989393472671509,-0.24142561852931976,1.194556713104248,0.054726988077163696,-0.03416978940367699,0.7281318278329263,-0.573163761390791,-0.23251031213485104,0.2953748443520481
232.0,-0.0566551499068737,-0.553637683391571,1.3742499351501465,-1.425359845161438,-1.913908839225769,-0.22845050692558289,1.207590937614441,0.08084048330783844,-0.05722552537918091,0.718727570095035,-0.5011366865625165,-0.2756615313578223,0.39535227518744526
233.0,-0.0570320300757885,-0.5081059336662292,1.3086185455322266,-1.319070816040039,-1.9109017848968506,-0.18811015784740448,1.2196896076202393,0.08013422042131424,-0.07776691764593124,0.6968646094146261,-0.497994989373323,-0.30008271974261824,0.41991793009627243
234.0,-0.04992261528968811,-0.49296697974205017,1.2946268320083618,-1.309268593788147,-1.9219248294830322,-0.18903307616710663,1.22286856174469,0.08701229095458984,-0.08898597210645676,0.6985195542067499,-0.49018931148416073,-0.29946538594960714,0.4267380389835673
235.0,-0.036107346415519714,-0.5094599723815918,1.3205459117889404,-1.333581805229187,-1.9609795808792114,-0.21563518047332764,1.2145805358886719,0.09852924942970276,-0.08089152723550797,0.7141609793761622,-0.4698320273121598,-0.28517808909704545,0.43348058681696966
236.0,-0.03085194155573845,-0.4856942594051361,1.296018362045288,-1.31471586227417,-1.9642597436904907,-0.20856067538261414,1.2205966711044312,0.10424080491065979,-0.09758331626653671,0.7115833993554689,-0.4656418175355205,-0.288094419520943,0.4402594337033829
237.0,-0.028956124559044838,-0.46902599930763245,1.277429461479187,-1.2998876571655273,-1.962480902671814,-0.2015720009803772,1.2252386808395386,0.10666809976100922,-0.10879490524530411,0.7084426525254561,-0.46497958874564926,-0.29133467913615657,0.4438773421399833
238.0,-0.019567059352993965,-0.5059564709663391,1.3274428844451904,-1.3449006080627441,-1.9972724914550781,-0.2343418151140213,1.2107487916946411,0.11350391060113907,-0.08765064924955368,0.725549263758467,-0.4484559736043096,-0.2744408684803027,0.44401319271608847
239.0,-0.01734357513487339,-0.5244598984718323,1.3502620458602905,-1.3644779920578003,-2.0108025074005127,-0.2492639124393463,1.2042300701141357,0.11440928280353546,-0.07607627660036087,0.7324340668943351,-0.44227636620391386,-0.2675655979967594,0.44310337881664014
240.0,-0.0063447048887610435,-0.5431069135665894,1.3791844844818115,-1.3920636177062988,-2.0455679893493652,-0.2767612934112549,1.1947845220565796,0.12288597971200943,-0.06666510552167892,0.745344469814249,-0.42327901599701256,-0.25435276346312985,0.44788521705073736
241.0,0.0009285543346777558,-0.5237129926681519,1.3624687194824219,-1.380386233329773,-2.0543816089630127,-0.27276769280433655,1.1984692811965942,0.1303701251745224,-0.08155540376901627,0.7447549925719162,-0.4165929167084323,-0.25450756555840703,0.4549903755697471
242.0,0.0015452549559995532,-0.5040721893310547,1.339792013168335,-1.361176609992981,-2.0474703311920166,-0.2600186765193939,1.2045845985412598,0.1320646107196808,-0.09447266161441803,0.7396953066510314,-0.41916201895122146,-0.2595491936322724,0.45802649625541286
243.0,-0.005651081446558237,-0.480077862739563,1.3063868284225464,-1.3314101696014404,-2.0196571350097656,-0.2354925125837326,1.2144888639450073,0.1271820366382599,-0.10817503929138184,0.7282213553663979,-0.4332145024238612,-0.2715098156305171,0.4564003423467771
244.0,0.01577533595263958,-0.49237221479415894,1.3382090330123901,-1.3659307956695557,-2.0755584239959717,-0.2701789438724518,1.2026346921920776,0.14536991715431213,-0.10702287405729294,0.745767007010725,-0.4016519443432016,-0.25203216271789974,0.4679605494219885
245.0,0.029938017949461937,-0.5172487497329712,1.3805607557296753,-1.4080387353897095,-2.1211767196655273,-0.3068688213825226,1.1887667179107666,0.15595322847366333,-0.09565330296754837,0.7610459991340369,-0.37635076019759445,-0.2342123390410338,0.4736176440354561
246.0,0.037863221019506454,-0.5030838251113892,1.3711199760437012,-1.403218388557434,-2.133610725402832,-0.3063909113407135,1.1898168325424194,0.1638273000717163,-0.10772775858640671,0.761729661935114,-0.3680148991649345,-0.2319655426354057,0.48013013147552197
247.0,0.03559897840023041,-0.5386770963668823,1.4117270708084106,-1.4382063150405884,-2.1459145545959473,-0.3321591019630432,1.1791661977767944,0.15914005041122437,-0.08376128226518631,0.7701076406300364,-0.3628096074298413,-0.2236178499622609,0.47465615742145273
248.0,0.051793988794088364,-0.5425655245780945,1.4345495700836182,-1.4683079719543457,-2.1877987384796143,-0.35968488454818726,1.1696596145629883,0.17250870168209076,-0.08793020993471146,0.7799492706616513,-0.33750894885460553,-0.20930846307973025,0.4836908226549466
249.0,0.040630683302879333,-0.6116188168525696,1.6238830089569092,-2.0357165336608887,-2.0607824325561523,-0.6575490832328796,1.1509101390838623,0.17527838051319122,-0.08586610108613968,0.8742355874466515,-0.33530766592060696,-0.12573643524333536,0.32782808859062335
250.0,0.02231731452047825,-0.6036065220832825,1.5943185091018677,-1.9985673427581787,-2.001095771789551,-0.5840870141983032,1.1656142473220825,0.16268658638000488,-0.0875212699174881,0.8589905909583518,-0.38266649582845036,-0.1384173439903215,0.3107123372157291
251.0,0.016499897465109825,-0.5475983023643494,1.4039151668548584,-1.4227564334869385,-2.1034183502197266,-0.3123629689216614,1.1845529079437256,0.14221087098121643,-0.07114726305007935,0.7614726131762587,-0.38898268355958043,-0.2358762307642033,0.46175137794464616
252.0,0.0086171580478549,-0.5972844958305359,1.4783341884613037,-1.574836254119873,-2.0739922523498535,-0.3814365565776825,1.1732652187347412,0.13670742511749268,-0.049948349595069885,0.7872966706542882,-0.4003236787383396,-0.2125469891321604,0.41800560047555524
253.0,-0.06268689036369324,-0.43461236357688904,1.2232720851898193,0.8307077288627625,1.6164219379425049,-1.6334658861160278,1.1387858390808105,0.1228635385632515,-0.0639171227812767,-0.0005452349847890489,0.9994450016210311,-0.02123866385503522,-0.025657564405094768
254.0,-0.06989393383264542,-0.42730778455734253,1.204156517982483,0.8391850590705872,1.6084564924240112,-1.640660047531128,1.1488912105560303,0.11523661017417908,-0.06414175778627396,-0.0004107601292610165,0.9995669776430911,-0.017199343062430053,-0.023871972683321422
255.0,-0.08585856109857559,-0.42613595724105835,1.2007030248641968,0.8426571488380432,1.604733943939209,-1.6566003561019897,1.152035117149353,0.09733237326145172,-0.0636969655752182,-0.00036663250866428754,0.9995866517392986,-0.014911380186957356,-0.024577265635992857
256.0,-0.09850060939788818,-0.42385733127593994,1.1946302652359009,0.8463308215141296,1.5996668338775635,-1.6692198514938354,1.1559933423995972,0.08326750993728638,-0.06355126947164536,-0.00029566560924952927,0.9996278183022381,-0.012085336829469124,-0.024455716956852374
257.0,-0.10593535006046295,-0.41297289729118347,1.166833519935608,0.8586927652359009,1.592997431755066,-1.6766555309295654,1.1696076393127441,0.07432011514902115,-0.063992440700531,-0.00019369387687683567,0.9997204624812993,-0.008829163977343993,-0.021931831713750932
258.0,-0.12273816764354706,-0.437984436750412,1.214335322380066,0.7919124364852905,1.567009687423706,-1.6935348510742188,1.157726764678955,0.060297127813100815,-0.06340065598487854,-2.5667077923636374e-06,0.9999974056305069,0.0017240082814823272,0.0014887985469030274
259.0,-0.09133980423212051,-0.4481812119483948,1.2423921823501587,0.7826834321022034,1.570595145225525,-1.6621344089508057,1.1409730911254883,0.09736550599336624,-0.06328736245632172,1.1451021221105038e-06,0.9999953466139533,0.00037827512635164753,-0.0030271532925690353
260.0,-0.08203710615634918,-0.4548322856426239,1.2605106830596924,0.7757304906845093,1.5742387771606445,-1.6528290510177612,1.1308165788650513,0.10816772282123566,-0.06322502344846725,-6.953000512350241e-06,0.9999844404487284,-0.001280589215484327,-0.005429447795207694
261.0,-0.054832685738801956,-0.4414275586605072,1.2421396970748901,0.8241626024246216,1.6284080743789673,-1.625630497932434,1.12814199924469,0.1304834634065628,-0.06373430788516998,-0.0007794081924954066,0.9992197532877526,-0.02726699154393674,-0.028562008587901925
262.0,-0.06044294312596321,-0.4665861427783966,1.2918391227722168,0.7610635161399841,1.5821380615234375,-1.6312352418899536,1.1125364303588867,0.13228754699230194,-0.06312720477581024,-4.19926835151071e-05,0.9999538120041389,-0.00519158190997141,-0.008088236660606254
263.0,-0.05046243593096733,-0.4763747751712799,1.3177642822265625,0.7477296590805054,1.5890610218048096,-1.6212579011917114,1.09816312789917,0.1429714411497116,-0.06304720044136047,-8.321012040311746e-05,0.9999163370101188,-0.008658130036951841,-0.00960983041504197
264.0,-0.04097231850028038,-0.4857429563999176,1.3417268991470337,0.7325196862220764,1.5943282842636108,-1.611772894859314,1.0851095914840698,0.15305079519748688,-0.06300048530101776,-0.00010627631534250237,0.9998915910251818,-0.011392704879484584,-0.00932744220054266
265.0,-0.034628551453351974,-0.4960220456123352,1.3677552938461304,0.7151150703430176,1.6013860702514648,-1.6054359674453735,1.0714350938796997,0.1592814028263092,-0.06287872046232224,-0.0001283222274900154,0.9998508312431925,-0.015006701891063796,-0.008549718946018418
266.0,-0.02702557109296322,-0.5060358643531799,1.3937493562698364,0.6979771852493286,1.6069668531417847,-1.5978361368179321,1.0572315454483032,0.166912242770195,-0.06288813054561615,-0.0001418185558740342,0.9998087392977717,-0.01787591636719224,-0.00793198117313246
267.0,-0.0026194730307906866,-0.49015408754348755,1.3638802766799927,0.7321593761444092,1.6635303497314453,-1.5734254121780396,1.0642085075378418,0.183924600481987,-0.06457065790891647,-0.0008179841038101837,0.9987715000738526,-0.046297138589081556,-0.017646430253616154
268.0,0.004414302762597799,-0.5036390423774719,1.3977948427200317,0.7057055830955505,1.6768978834152222,-1.5663589239120483,1.0467456579208374,0.18928170204162598,-0.06457647681236267,-0.0007590149322158306,0.9984876994042472,-0.053084013701181494,-0.01427674767302937
269.0,0.001835841336287558,-0.5151283740997314,1.4289227724075317,0.6923286318778992,1.6893821954727173,-1.5689486265182495,1.0302388668060303,0.18463672697544098,-0.06353727728128433,-0.001040732631161142,0.9980869776024407,-0.05928130287808713,-0.017522247147330132
270.0,0.012616121210157871,-0.5222973823547363,1.4447075128555298,0.6661896109580994,1.7059053182601929,-1.5580657720565796,1.022784948348999,0.19313466548919678,-0.06452270597219467,-0.0005438231387111399,0.997679567355369,-0.0676075587704008,-0.008025156391284918
271.0,0.011659340932965279,-0.508991539478302,1.4148046970367432,0.697399914264679,1.7219287157058716,1.7829421758651733,1.0360676050186157,0.1898614466190338,-0.06438186764717102,0.9921325433745427,-0.09855928138599333,-0.007631065116452397,0.07681699860724978
272.0,0.021861737594008446,-0.5287861227989197,1.4652528762817383,0.6523638367652893,1.7536505460739136,1.6696619987487793,1.0100899934768677,0.19506973028182983,-0.06460904330015182,0.9950766705061815,-0.03750749752093999,-0.0034553813292747763,0.09167152111707468
273.0,0.02181599847972393,-0.5447420477867126,1.5017340183258057,0.6134575009346008,1.7469462156295776,1.5688170194625854,0.9936732053756714,0.19568322598934174,-0.06466640532016754,0.9960535719066214,0.011836022520209946,0.0010451630815822206,0.08795509136539585
274.0,0.016459785401821136,-0.5584592223167419,1.5329835414886475,0.5831571817398071,1.6941603422164917,-1.5542123317718506,0.9798415303230286,0.19816727936267853,-0.06509845703840256,0.00046617311820807637,0.9980767820561587,-0.06152503556079707,0.007562393952306469
275.0,0.01261889934539795,-0.5736159682273865,1.569822907447815,0.5476874113082886,1.7075629234313965,-1.5580637454986572,0.9625948667526245,0.19212450087070465,-0.06468695402145386,0.0009758074081851268,0.9975724664773079,-0.06814826171990851,0.014284129334252148
276.0,0.009987613186240196,-0.5848144292831421,1.5981134176254272,0.521274209022522,1.6962167024612427,-1.5607366561889648,0.9487636089324951,0.19118359684944153,-0.06495578587055206,0.0011708971519557917,0.9978706332555217,-0.062474472947700525,0.018702099240214574
277.0,0.0008477130904793739,-0.6050060391426086,1.6466319561004639,0.4686215817928314,1.7139384746551514,1.168954849243164,0.926935613155365,0.17977435886859894,-0.06453727930784225,0.9772752282449018,0.19726266955490626,0.01535235215118981,0.07605835090490072
278.0,-0.007862341590225697,-0.6156405210494995,1.6751567125320435,0.44522517919540405,1.6904942989349365,-1.5786985158920288,0.9128552675247192,0.17540298402309418,-0.06480065733194351,0.0019552264257514324,0.9976652419456551,-0.06003860690546591,0.032490118251437564
279.0,-0.03627496212720871,-0.6093469858169556,1.6635609865188599,0.48630377650260925,1.6236652135849,-1.6071075201034546,0.9186036586761475,0.15963615477085114,-0.06279976665973663,0.0003820514254158969,0.9995360819419421,-0.026960026220612485,0.01416445971590127
280.0,-0.04512176290154457,-0.6183621883392334,1.688368558883667,0.4658178985118866,1.6208301782608032,-1.615950584411621,0.906234622001648,0.1525612473487854,-0.06279823184013367,0.0004211664129019452,0.9995342719168053,-0.025773722635243523,0.01633331271102553
281.0,-0.06340429931879044,-0.6289211511611938,1.717424988746643,0.44230231642723083,1.6171116828918457,-1.6342253684997559,0.8925468325614929,0.13757914304733276,-0.06256908178329468,0.00045061590018652793,0.9995320368113924,-0.02437121024430292,0.018481029305962737
282.0,-0.08989157527685165,-0.6439387798309326,1.760006308555603,0.40636399388313293,1.6089164018630981,-1.66066312789917,0.8718255758285522,0.117328941822052,-0.06255696713924408,0.00047322368187012074,0.9995260302053247,-0.021146357192700565,0.02236789169345354
283.0,-0.10637170821428299,-0.6527766585350037,1.7863205671310425,0.38385942578315735,1.6015976667404175,-1.6770861148834229,0.8585742115974426,0.10568960011005402,-0.06277725845575333,0.0004520088121590364,0.999525106393487,-0.018140286177619012,0.02490556954812423
284.0,-0.12066400796175003,-0.6582134962081909,1.8026634454727173,0.3701370656490326,1.5965094566345215,-1.6913319826126099,0.8505464792251587,0.095344677567482,-0.06283429265022278,0.0004254210650894533,0.9995224537685983,-0.016138262219660256,0.026348433005534834
285.0,-0.138564333319664,-0.6617175340652466,1.8125909566879272,0.36194559931755066,1.5924686193466187,-1.7091867923736572,0.8464282751083374,0.08152782917022705,-0.06265042722225189,0.00040095576293974376,0.9995211405461338,-0.014728340676605856,0.027210380679916428
286.0,-0.1551201343536377,-0.6668378710746765,1.8289759159088135,0.3484635353088379,1.585486650466919,-1.725677490234375,0.8380753397941589,0.07009335607290268,-0.06283146142959595,0.00034045933753094405,0.99952011128113,-0.011899358535404523,0.028597840800363747
287.0,-0.17420580983161926,-0.6698703169822693,1.8382501602172852,0.3409997224807739,1.579925775527954,-1.7447041273117065,0.8338951468467712,0.05590171739459038,-0.06276735663414001,0.00028905834954789006,0.9995180889650725,-0.00981076107661307,0.029449197679690592
288.0,-0.19648346304893494,-0.6721395254135132,1.8452750444412231,0.33554571866989136,1.5714813470840454,-1.7669122219085693,0.830977201461792,0.03942818194627762,-0.06269576400518417,0.0001943520565767541,0.9995176748388064,-0.006392295167967309,0.030389446763470374
289.0,-0.2231098711490631,-0.6739324927330017,1.8515111207962036,0.3314684331417084,1.5623562335968018,-1.793477177619934,0.8281317949295044,0.019551562145352364,-0.06267433613538742,8.415995844804145e-05,0.999514519897644,-0.0027101762083433347,0.031038240539751825
290.0,-0.2386370599269867,-0.6740854382514954,1.852315068244934,0.3315470516681671,1.5578142404556274,-1.8089810609817505,0.8278788328170776,0.007523519452661276,-0.06263640522956848,2.805144752009087e-05,0.9995135737319314,-0.0008994026015779929,0.031173806532082998
291.0,-0.2566763162612915,-0.6743426322937012,1.8541754484176636,0.3311695456504822,1.5530002117156982,-1.8270041942596436,0.8266955614089966,-0.006332521792501211,-0.06271436810493469,-3.185474326939227e-05,0.999513582582274,0.0010214787958442496,0.03116975777725605
292.0,-0.27382415533065796,-0.672448456287384,1.8483635187149048,0.33709996938705444,1.5474462509155273,-1.844158411026001,0.8298989534378052,-0.020581407472491264,-0.06257820874452591,-0.00010629979897422721,0.9995146217241947,0.0034314074499424336,0.03096344785073752
293.0,-0.29534807801246643,-0.6720964908599854,1.849894404411316,0.33818212151527405,1.5415741205215454,-1.8657093048095703,0.8280324935913086,-0.037116553634405136,-0.06287261098623276,-0.00018298401254217186,0.9995177838625304,0.0060034437601717335,0.030465142743885423
294.0,-0.3205258548259735,-0.6672918796539307,1.8367443084716797,0.35220807790756226,1.5329843759536743,-1.8909906148910522,0.8341382145881653,-0.05897911638021469,-0.06286478042602539,-0.0002987172724562478,0.9995196288272805,0.010203145994195672,0.0292629145641293
295.0,-0.334286630153656,-0.6637686491012573,1.8268589973449707,0.3620623052120209,1.5288861989974976,-1.9048264026641846,0.8387183547019958,-0.07168279588222504,-0.06287366151809692,-0.00034996447893522066,0.9995201544530343,0.012306683893459517,0.02842329851710509
296.0,-0.34676438570022583,-0.6595481634140015,1.8149383068084717,0.37355127930641174,1.525394082069397,-1.9173907041549683,0.8443058133125305,-0.08393579721450806,-0.0628984272480011,-0.00039005787639627415,0.9995234622981165,0.014235732134498358,0.027386860006829203
297.0,-0.36195603013038635,-0.6499728560447693,1.7871705293655396,0.39967626333236694,1.519387125968933,-1.9327808618545532,0.8580703139305115,-0.10149351507425308,-0.06272413581609726,-0.0004501467189025995,0.9995258587156728,0.018028879142892574,0.024956254596386163
298.0,-0.372028112411499,-0.64591383934021,1.7760426998138428,0.40965181589126587,1.5176938772201538,-1.94292151927948,0.8629826903343201,-0.11218336224555969,-0.06287131458520889,-0.00046019364386667934,0.9995273134779286,0.019092904870555236,0.02409146772218598
299.0,-0.38874703645706177,-0.667203962802887,1.8308446407318115,0.32805970311164856,1.4583454132080078,-1.9593878984451294,0.8406615257263184,-0.10840966552495956,-0.06486369669437408,-0.0021442877137912955,0.9976392501168861,0.03700437184949747,0.057810078017950337
300.0,-0.39924466609954834,-0.6595054864883423,1.8086247444152832,0.34910041093826294,1.4401910305023193,-1.0616350173950195,0.8522335886955261,-0.1195925921201706,-0.06453318148851395,0.4353953462669564,0.8971440559834378,0.06710349858320583,0.03256617479159865
301.0,-0.4167262613773346,-0.64170241355896,1.7648476362228394,0.4013400375843048,1.4457887411117554,-1.9890754222869873,0.8699723482131958,-0.144243985414505,-0.0649462416768074,-0.0022208984411783922,0.9977782969593627,0.047712585240458634,0.046444019385275585
302.0,-0.41754966974258423,-0.6526109576225281,1.7905868291854858,0.3615536391735077,1.399996042251587,-1.173168659210205,0.8622002601623535,-0.13392025232315063,-0.06475531309843063,0.3919115219795073,0.9153573897068878,0.0848844301997953,0.03634338396950474
303.0,-0.47479215264320374,-0.656317412853241,1.8223756551742554,0.27001863718032837,1.1921623945236206,-1.2193478345870972,0.8572759628295898,-0.1505187600851059,-0.07099754363298416,0.3818007759796321,0.9025540468918349,0.18333010205538927,0.077552779324037
304.0,-0.5959796905517578,-0.6860417127609253,1.9638452529907227,-0.20201976597309113,0.486971378326416,-1.0224347114562988,0.827915370464325,-0.15389341115951538,-0.05449826642870903,0.3435112014795031,0.7667398519421397,0.49491939297288584,0.22173147805668986
305.0,-0.590368390083313,-0.7081851959228516,2.027055025100708,-0.3837330639362335,0.5305784940719604,-0.8631594777107239,0.8127990961074829,-0.14249122142791748,-0.06611225008964539,0.37447128491897524,0.7505787065765257,0.4871642453343427,0.24305114703054165
306.0,-0.5990438461303711,-0.68961501121521,2.020362377166748,-0.37918582558631897,0.5173155069351196,-0.8839433193206787,0.8107067942619324,-0.14773380756378174,-0.07766615599393845,0.3710523564585857,0.7507871252923469,0.48991315708056393,0.24212381085126478
307.0,-0.5459798574447632,-0.6740811467170715,1.9578816890716553,-0.05264885351061821,0.8723529577255249,-1.068343997001648,0.8130133748054504,-0.1426868587732315,-0.08904244750738144,0.4134930284280087,0.8307047694411265,0.33370862074569696,0.16610736861802253
308.0,-0.5760467648506165,-0.7381992936134338,2.0556368827819824,-0.44488146901130676,0.5662732720375061,-0.7881439924240112,0.8106053471565247,-0.1315639317035675,-0.05486508831381798,0.3893552923666607,0.7442255414326396,0.4808735641226544,0.25157785099913343
309.0,-0.5566773414611816,-0.7691492438316345,2.0997257232666016,-0.5473706722259521,0.6258015036582947,-0.6789631843566895,0.804263174533844,-0.11647351086139679,-0.048591408878564835,0.4140321023245122,0.7315844280201688,0.47137605109546465,0.26677005337329945
310.0,-0.5377461910247803,-0.7770834565162659,2.1609184741973877,-0.708577573299408,0.7085526585578918,-0.5463446378707886,0.7889159917831421,-0.10004284232854843,-0.06237052008509636,0.4480941283721572,0.7089417959040601,0.46037178059017914,0.29098282728530706
311.0,-0.4374563992023468,-0.7142764329910278,1.9545164108276367,0.02858157642185688,1.2151905298233032,-0.8409106731414795,0.8133165240287781,-0.09916843473911285,-0.07375653833150864,0.5140328106753871,0.8266070105074731,0.19455856732770122,0.12098794819506868
312.0,-0.44189202785491943,-0.7002925872802734,1.9178112745285034,0.1089182049036026,1.2315936088562012,-0.927698016166687,0.8237283229827881,-0.110545314848423,-0.0716153010725975,0.48745584138172504,0.8484630536493145,0.17874888067331932,0.10269414273925549
313.0,-0.35767728090286255,-0.6876163482666016,1.8765469789505005,0.2573477327823639,1.4545619487762451,-0.7472948431968689,0.8247304558753967,-0.07456189393997192,-0.06466042995452881,0.5518316730368228,0.8296161445455804,0.07074319507056691,0.04705589967172812
314.0,-0.33835697174072266,-0.6883990168571472,1.8822431564331055,0.2612646520137787,1.4831593036651611,-0.6455367207527161,0.8196410536766052,-0.06102466210722923,-0.06467695534229279,0.5870076676804827,0.8063335671394287,0.05856816133280261,0.042637390476188385
315.0,-0.3234310448169708,-0.6904978156089783,1.891722559928894,0.25694236159324646,1.5013830661773682,-1.892255425453186,0.8132583498954773,-0.04932674020528793,-0.06503090262413025,-0.0009692639862736377,0.9978149304705373,0.015034040396105163,0.06433041805219437
316.0,-0.3061043620109558,-0.6938943266868591,1.898504614830017,0.24505141377449036,1.509110450744629,-1.874664545059204,0.8110551834106445,-0.035548947751522064,-0.06493469327688217,-0.000751171243633223,0.9976930889893039,0.011193580236827674,0.0669525181470097
317.0,-0.2914663553237915,-0.7038796544075012,1.9122202396392822,0.20108044147491455,1.5009160041809082,-0.4051821827888489,0.8108423352241516,-0.02216222509741783,-0.06470545381307602,0.6611091515831823,0.7451401496480182,0.06564262062109262,0.05823996422980499
318.0,-0.2624668776988983,-0.6966813206672668,1.906934142112732,0.23662668466567993,1.5355356931686401,-1.8312041759490967,0.8060658574104309,-0.0028012108523398638,-0.0651349201798439,-6.423127336062009e-05,0.99792667425823,0.0009960332548175986,0.06435337284095909
319.0,-0.2399236559867859,-0.6972454190254211,1.9039005041122437,0.23318806290626526,1.5453275442123413,-1.8086307048797607,0.8088329434394836,0.013103008270263672,-0.06485214829444885,0.00020913023505315063,0.9977765931891661,-0.0031343691657776257,0.06657328351748026
320.0,-0.2185802161693573,-0.6965436935424805,1.903185486793518,0.23503351211547852,1.55713951587677,-1.7875512838363647,0.8080558180809021,0.028564918786287308,-0.06509517878293991,0.0004702000245373575,0.9978934150568217,-0.007278694639255012,0.06446341367410872
321.0,-0.19730523228645325,-0.6949893832206726,1.8970470428466797,0.23853573203086853,1.5694712400436401,-1.766467571258545,0.8109785318374634,0.0430658794939518,-0.06509014219045639,0.0007721598371332122,0.9978811316876285,-0.012052095828028934,0.06393275981181996
322.0,-0.17677775025367737,-0.6953903436660767,1.8892446756362915,0.23186323046684265,1.58547842502594,0.10015008598566055,0.8173075914382935,0.05587496981024742,-0.06466329842805862,0.7961362129384483,0.6007171318850822,0.043874408639831636,0.05814717683853286
323.0,-0.15090221166610718,-0.6974101066589355,1.8843990564346313,0.2138630449771881,1.6086422204971313,0.21702246367931366,0.8228839039802551,0.07227889448404312,-0.06468790769577026,0.8223107600556581,0.5623604034215927,0.0490683720101752,0.0717501597800365
324.0,-0.17617306113243103,-0.7373611927032471,1.96494722366333,0.006541617214679718,1.5929402112960815,0.06318005174398422,0.8064059019088745,0.057134583592414856,-0.06857308000326157,0.7764528304832294,0.6074005968511327,0.10344191005430592,0.13223194857441173
325.0,-0.12074414640665054,-0.8291671276092529,2.243225574493408,-0.9837664365768433,1.767014741897583,0.0892447680234909,0.7821162343025208,0.07727335393428802,-0.05576315522193909,0.6844395442654041,0.4859098042280638,0.31464819101878727,0.44320501834863657
326.0,-0.08119447529315948,-0.8168115019798279,2.22274112701416,-0.9662607908248901,1.863651156425476,0.13496577739715576,0.785686194896698,0.09303885698318481,-0.06117894500494003,0.699876655072281,0.4625272922903989,0.300087647903905,0.45407992154118526
327.0,-0.03882291167974472,-0.8022465705871582,2.1942760944366455,-0.9366368055343628,1.9681508541107178,0.18729227781295776,0.7913521528244019,0.11065743863582611,-0.06672023236751556,0.7158165771606062,0.4363264149380389,0.28375723304783573,0.46551876458680863
328.0,-0.024699438363313675,-0.813286542892456,2.1739799976348877,-0.8889705538749695,2.0138766765594482,0.215317040681839,0.7991445064544678,0.11514653265476227,-0.05533870309591293,0.7253073266302739,0.4233196958097477,0.27365452389094774,0.46887409677866243
329.0,0.010897903703153133,-0.7783538103103638,2.1525328159332275,-0.8905453085899353,2.0963480472564697,0.2576500475406647,0.798858106136322,0.13230274617671967,-0.07623954862356186,0.7344754551386639,0.4020807329291168,0.26251994023556896,0.47954162591452915
330.0,0.011928284540772438,-0.7936815619468689,2.141652822494507,-0.8534752726554871,2.109121322631836,0.26970019936561584,0.8049828410148621,0.13150179386138916,-0.06291957199573517,0.738866531741144,0.3972523916029861,0.25775314381084685,0.4794059892138875
331.0,0.026174554601311684,-0.8017285466194153,2.113677740097046,-0.7920467257499695,2.160005569458008,0.30798104405403137,0.8149096369743347,0.1366291642189026,-0.050706978887319565,0.7492719787321472,0.38092587242950865,0.24551318201984684,0.48291848075541693
332.0,0.06853049993515015,-0.770719051361084,2.057798147201538,-0.7169474363327026,2.2798640727996826,0.39547768235206604,0.8261502385139465,0.15747299790382385,-0.060066524893045425,0.7658060279570159,0.3440425297244263,0.2226446132387323,0.49558575593058657
333.0,0.07673453539609909,-0.7517184019088745,2.057709217071533,-0.7388429641723633,2.2903780937194824,0.39745470881462097,0.8226555585861206,0.1628488302230835,-0.07504723966121674,0.7645314741885416,0.34279947339721134,0.2233361897213089,0.4980974727645759
334.0,0.07871486246585846,-0.7349352240562439,2.069793462753296,-0.783179759979248,2.280355453491211,0.3813197612762451,0.815575897693634,0.1651165932416916,-0.0912272110581398,0.7598572564373954,0.348464666400679,0.22876985165670027,0.49885236401431365
335.0,0.09353835135698318,-0.7107669711112976,2.0576281547546387,-0.7879857420921326,2.3100173473358154,0.3987571597099304,0.8146286606788635,0.17389431595802307,-0.10734682530164719,0.7612574632817276,0.34118398518519605,0.22552956492019438,0.5032066953031579
336.0,0.10273180156946182,-0.72662353515625,2.013416290283203,-0.6756991147994995,2.3660247325897217,0.4638137221336365,0.8317652940750122,0.1770581752061844,-0.08299273997545242,0.7744095060894105,0.3180283024660272,0.20777611806855578,0.5059416967095064
337.0,0.09573665261268616,-0.7452834844589233,2.009706974029541,-0.6447505354881287,2.362074613571167,0.4695647358894348,0.8364266753196716,0.17199578881263733,-0.06654899567365646,0.7771823220966069,0.3164009219941049,0.2051021630586372,0.5037967819373942
338.0,0.08984282612800598,-0.7627255320549011,2.002952814102173,-0.6091986298561096,2.361861228942871,0.47920167446136475,0.8416901230812073,0.16747047007083893,-0.050022192299366,0.7805176208146604,0.31336054384583306,0.20153301518925193,0.5019779446820295
339.0,0.12382746487855911,-0.7135328054428101,1.9421287775039673,-0.5296059250831604,2.4565677642822266,0.5770323276519775,0.8517547845840454,0.1881515085697174,-0.07072121649980545,0.7903818543282214,0.2807985337911265,0.1822727553903716,0.5130549194889739
340.0,0.13615010678768158,-0.6916071176528931,1.9192556142807007,-0.5021663904190063,2.4883663654327393,0.6135679483413696,0.8548368215560913,0.19630974531173706,-0.08155926316976547,0.7929498176589886,0.2699093287159862,0.1760156643978529,0.5171054310614471
341.0,0.1384163349866867,-0.6817150712013245,1.9344146251678467,-0.5512873530387878,2.4775514602661133,0.5869950652122498,0.8478353023529053,0.19836458563804626,-0.09573385864496231,0.7884985471384799,0.27770437824026445,0.18229825759671536,0.5176076359018443
342.0,0.1418018788099289,-0.6704652905464172,1.943015694618225,-0.5862855911254883,2.4730939865112305,0.5712774395942688,0.8426230549812317,0.20101571083068848,-0.10846372693777084,0.7852772657360632,0.28233151469878554,0.18642758538150764,0.5185299288708439
343.0,0.16366374492645264,-0.6373539566993713,1.8609410524368286,-0.4248678684234619,2.560418128967285,0.7093438506126404,0.862116813659668,0.21537955105304718,-0.10778877139091492,0.7982056410122764,0.24400619302402302,0.16100658418650202,0.5266930911552752
344.0,0.15947343409061432,-0.6471319198608398,1.853232502937317,-0.3904476463794708,2.5627799034118652,0.7269070744514465,0.8667796850204468,0.212168887257576,-0.09542059898376465,0.8011789692253376,0.23932974605072602,0.15698911054231526,0.525535870419378
345.0,0.17733433842658997,-0.6037535071372986,1.7974458932876587,-0.29890409111976624,2.6140644550323486,0.822577178478241,0.8761812448501587,0.22578121721744537,-0.11207256466150284,0.8056824153856046,0.2173033764620266,0.14349756037222006,0.5320371587434866
346.0,0.17309610545635223,-0.6089017391204834,1.7694716453552246,-0.20913155376911163,2.6280088424682617,0.88485187292099,0.8868932127952576,0.22268639504909515,-0.0931069552898407,0.8117339203338793,0.20275517167220855,0.1327275962795363,0.5313772371163644
347.0,0.16508476436138153,-0.6283214092254639,1.7807461023330688,-0.21367189288139343,2.6151862144470215,0.8681020140647888,0.887208104133606,0.21633073687553406,-0.07954037934541702,0.8126388180061662,0.20567870650178405,0.13378789250565093,0.5285974091690105
348.0,0.15715640783309937,-0.6396937370300293,1.7558977603912354,-0.1206296756863594,2.623831033706665,0.9297569394111633,0.8976106643676758,0.20999747514724731,-0.054563969373703,0.8192886044609178,0.19081336386687067,0.12264725320737574,0.5266062039617239
349.0,0.16736644506454468,-0.586449921131134,1.666754126548767,0.09198443591594696,2.673624277114868,1.1299986839294434,0.9177233576774597,0.2192327082157135,-0.05541190877556801,0.8276758765528482,0.15105239829270395,0.09703872146009185,0.5317135534099987
350.0,0.18020546436309814,-0.536573052406311,1.615565299987793,0.19351445138454437,2.7005624771118164,1.243060827255249,0.9256224036216736,0.23110784590244293,-0.0751609355211258,0.8284661846646063,0.13286939321960958,0.08615361571153839,0.5371843814860514
351.0,0.18814879655838013,-0.5016573071479797,1.5789737701416016,0.2698463201522827,2.715712070465088,1.3260563611984253,0.9315237998962402,0.2389322966337204,-0.08842680603265762,0.8288133990614681,0.12035786844895217,0.07852685085675817,0.5407549044928958
352.0,0.17847946286201477,-0.5132611989974976,1.5682477951049805,0.33594900369644165,2.7100634574890137,1.3732311725616455,0.9390340447425842,0.23122811317443848,-0.06632556766271591,0.8329678999992716,0.1091834254456434,0.07049895382718953,0.5378413843207223
353.0,0.17529988288879395,-0.4800078570842743,1.5092344284057617,0.5258575081825256,2.7127699851989746,1.5535200834274292,0.9563155174255371,0.23099583387374878,-0.05671671777963638,0.8378531075299116,0.07665984544167423,0.049246400042212965,0.5382380796471126
354.0,0.16770292818546295,-0.6454713940620422,1.9940742254257202,-2.7879862785339355,-2.6848130226135254,-1.4245738983154297,0.9737327694892883,0.22825492918491364,-0.044270895421504974,0.8465870800216793,0.043805604958875,0.02741052536750315,0.5297358285160926
355.0,0.17434684932231903,-0.634035050868988,1.9761626720428467,-2.720966100692749,-2.7036237716674805,-1.3593963384628296,0.9776962995529175,0.23441331088542938,-0.05741039663553238,0.840755641205572,0.035854855338690116,0.023017562242374882,0.5397356509978452
356.0,0.18320174515247345,-0.6096892952919006,1.9662389755249023,-2.7241475582122803,-2.7114412784576416,-1.3478708267211914,0.9767765402793884,0.24276676774024963,-0.07731524854898453,0.8383087354158398,0.038117678050947866,0.024703725222618815,0.5433003153925322
357.0,0.1948971152305603,-0.5734967589378357,1.962399959564209,-2.7831618785858154,-2.724452495574951,-1.3780909776687622,0.9711766242980957,0.2528006434440613,-0.10220026224851608,0.8348802808761473,0.04899149403682721,0.03211635843626908,0.5473054810953368
358.0,0.18929630517959595,-0.6018887758255005,1.9105565547943115,-2.5063271522521973,-2.69657301902771,-1.1615632772445679,0.9935789108276367,0.25321120023727417,-0.09936605393886566,0.8368843674949461,0.007180090858909293,0.004695694575120653,0.5473124813032307
359.0,0.18061935901641846,-0.6257153749465942,1.9125038385391235,-2.4736948013305664,-2.685070514678955,-1.1479289531707764,0.9972010254859924,0.2456335872411728,-0.08108633756637573,0.8392682998632696,-0.000540603832392456,-0.0003502283557696285,0.5437171194032909
360.0,0.17632856965065002,-0.6367719173431396,1.930768609046936,-2.525963544845581,-2.687671422958374,-1.19709312915802,0.9932088255882263,0.24027585983276367,-0.06887543946504593,0.8406773290690371,0.006539833534914292,0.0042123083490830755,0.5414804848053693
361.0,0.17007200419902802,-0.6542360186576843,1.9205169677734375,-2.459038496017456,-2.6744191646575928,-1.1522722244262695,0.9994086027145386,0.23578909039497375,-0.057683251798152924,0.8421682662153906,-0.00589500533448866,-0.0037740750991789524,0.5391693765868151
362.0,0.17178529500961304,-0.6418826580047607,1.8722214698791504,-2.30932354927063,-2.6523168087005615,-1.0252996683120728,1.0135525465011597,0.24161817133426666,-0.07363998889923096,0.8403331002617906,-0.03133695576744617,-0.020166581333824266,0.5407879296035949
363.0,0.17015910148620605,-0.6295289397239685,1.8200305700302124,-2.1655385494232178,-2.6218764781951904,-0.9077110886573792,1.0294933319091797,0.24494481086730957,-0.08564170449972153,0.8378905266577699,-0.0589665113619868,-0.038094325536252735,0.5413051248943611
364.0,0.1626824587583542,-0.6423628330230713,1.8099620342254639,-2.1212735176086426,-2.6060917377471924,-0.8809531331062317,1.0353912115097046,0.23915569484233856,-0.07394921034574509,0.8385030890833142,-0.07062571618141565,-0.04534802577565572,0.5383940326283827
365.0,0.15907227993011475,-0.6613295674324036,1.8394402265548706,-2.183230400085449,-2.617520809173584,-0.9380669593811035,1.0282599925994873,0.23323212563991547,-0.05809127911925316,0.8412390665222627,-0.05955048007613284,-0.03794520055625553,0.5360324011048212
366.0,0.15260225534439087,-0.6525555849075317,1.78702974319458,-2.048851728439331,-2.572829246520996,-0.8301219344139099,1.0451148748397827,0.2325630635023117,-0.06375906616449356,0.8395148900815556,-0.09244402280580698,-0.05860349423705041,0.5321977850781054
367.0,0.1570201963186264,-0.6230335235595703,1.7573740482330322,-2.030372142791748,-2.5498485565185547,-0.8037579655647278,1.0540289878845215,0.24072182178497314,-0.08783524483442307,0.8411037708883845,-0.10162846051466173,-0.06372493390304247,0.5274042428818835
368.0,0.155584916472435,-0.6311962604522705,1.7577723264694214,-1.998382568359375,-2.554677724838257,-0.7806709408760071,1.0517985820770264,0.2383856475353241,-0.08091364055871964,0.8372593088061896,-0.10468896228020053,-0.06658806633623295,0.5325439891836894
369.0,0.15875877439975739,-0.6186363697052002,1.7459927797317505,-1.9831393957138062,-2.5508785247802734,-0.7631861567497253,1.0537515878677368,0.2424870878458023,-0.0913577452301979,0.8359117518216476,-0.10735598408799098,-0.06856575840601781,0.5338773010918996
370.0,0.15995511412620544,-0.603320300579071,1.7362117767333984,-2.0146443843841553,-2.525437831878662,-0.7807499170303345,1.0592724084854126,0.24694155156612396,-0.10466926544904709,0.8429645493479927,-0.11152903415784157,-0.06902849564758706,0.5217347121583783
371.0,0.17395035922527313,-0.6056921482086182,1.7790679931640625,-2.0807886123657227,-2.6045758724212646,-0.8327170610427856,1.0396479368209839,0.2521613836288452,-0.10513284802436829,0.8342838542415266,-0.07422097650088057,-0.048411132251988516,0.5441673083466513
372.0,0.1840357631444931,-0.6084288954734802,1.855027198791504,-2.299797773361206,-2.6602964401245117,-0.9998186230659485,1.013169527053833,0.2539258301258087,-0.10263220220804214,0.836847949027867,-0.028816833486634753,-0.018813635182533674,0.5463525852843335
373.0,0.14948686957359314,-0.6283268332481384,1.968413233757019,-2.8075783252716064,-2.359954595565796,-1.4257539510726929,0.9863388538360596,0.24106863141059875,-0.09095912426710129,0.9218808778086898,0.021895993092784765,0.009185752536148305,0.3867451804063042
374.0,0.07886949181556702,-0.676834762096405,1.9522216320037842,-2.757845401763916,-2.0187478065490723,-1.3690882921218872,1.0167622566223145,0.21494616568088531,-0.07352739572525024,0.9728364681274005,-0.05000058972627232,-0.011601836807075517,0.22573113363276348
375.0,-0.011290677823126316,-0.7063989043235779,2.017720937728882,-2.8801403045654297,-1.6262261867523193,1.559488296508789,1.0037955045700073,0.1811298131942749,-0.06286156922578812,-3.6068734947634775e-05,0.9996154768242203,-0.027698425697201635,-0.0013016936774136372
376.0,-0.011256572790443897,-0.7096273303031921,2.0366370677948,-2.900322437286377,-1.6284579038619995,1.5595210790634155,0.9915968775749207,0.18095746636390686,-0.0628582313656807,2.6910552621305665e-05,0.9995836311076666,-0.028839100119918117,0.0009327388208367764
