Sungjin-Park-dev/vision_inspection_sogang/data/glass/trajectory/675/gtsp_final.csv
time,ur20-shoulder_pan_joint,ur20-shoulder_lift_joint,ur20-elbow_joint,ur20-wrist_1_joint,ur20-wrist_2_joint,ur20-wrist_3_joint
0.0,-0.35142257809638977,-0.755716860294342,2.3030481338500977,-1.088178277015686,1.23589289188385,-0.16108852624893188
1.0,-0.34318485856056213,-0.7600067853927612,2.303576707839966,-1.0895041227340698,1.251050074895223,-0.15235881507396698
2.0,-0.3349471390247345,-0.7642967104911804,2.304105281829834,-1.0908299684524536,1.266207257906596,-0.14362910389900208
3.0,-0.32670941948890686,-0.7685866355895996,2.304633855819702,-1.0921558141708374,1.2813644409179688,-0.13489939272403717
4.0,-0.32670941948890686,-0.7685866355895996,2.304633855819702,-1.0921558141708374,1.2813644409179688,-0.13489939272403717
5.0,-0.3187989592552185,-0.7831782698631287,2.3026732206344604,-1.0823156237602234,1.2940475940704346,-0.12709075585007668
6.0,-0.31088849902153015,-0.7977699041366577,2.3007125854492188,-1.0724754333496094,1.3067307472229004,-0.11928211897611618
7.0,-0.31088849902153015,-0.7977699041366577,2.3007125854492188,-1.0724754333496094,1.3067307472229004,-0.11928211897611618
8.0,-0.31620801985263824,-0.8065424561500549,2.299943685531616,-1.0673112869262695,1.2943190932273865,-0.12320075556635857
9.0,-0.32152754068374634,-0.8153150081634521,2.2991747856140137,-1.0621471405029297,1.2819074392318726,-0.12711939215660095
10.0,-0.32152754068374634,-0.8153150081634521,2.2991747856140137,-1.0621471405029297,1.2819074392318726,-0.12711939215660095
11.0,-0.3157549425959587,-0.8205698281526566,2.2965093851089478,-1.0507307648658752,1.2957408726215363,-0.12217160314321518
12.0,-0.3099823445081711,-0.825824648141861,2.293843984603882,-1.0393143892288208,1.3095743060112,-0.1172238141298294
13.0,-0.30420974642038345,-0.8310794681310654,2.291178584098816,-1.0278980135917664,1.3234077394008636,-0.11227602511644363
14.0,-0.2984371483325958,-0.8363342881202698,2.28851318359375,-1.016481637954712,1.3372411727905273,-0.10732823610305786
15.0,-0.2984371483325958,-0.8363342881202698,2.28851318359375,-1.016481637954712,1.3372411727905273,-0.10732823610305786
16.0,-0.2936237037181854,-0.8277137517929077,2.2911879062652587,-1.0315088272094726,1.3494057178497314,-0.10106218755245208
17.0,-0.288810259103775,-0.8190932154655457,2.2938626289367674,-1.0465360164642334,1.3615702629089355,-0.09479613900184632
18.0,-0.28399681448936465,-0.8104726791381835,2.2965373516082765,-1.061563205718994,1.3737348079681397,-0.08853009045124054
19.0,-0.27918336987495423,-0.8018521428108215,2.2992120742797852,-1.076590394973755,1.3858993530273438,-0.08226404190063477
20.0,-0.2743699252605438,-0.7932316064834595,2.301886796951294,-1.0916175842285156,1.3980638980865479,-0.07599799335002899
21.0,-0.2743699252605438,-0.7932316064834595,2.301886796951294,-1.0916175842285156,1.3980638980865479,-0.07599799335002899
22.0,-0.268014798561732,-0.803171177705129,2.298157056172689,-1.0763463973999023,1.4132261276245117,-0.06962885831793149
23.0,-0.2616596718629201,-0.8131107489267985,2.2944273153940835,-1.061075210571289,1.4283883571624756,-0.063259723285834
24.0,-0.2553045451641083,-0.823050320148468,2.2906975746154785,-1.0458040237426758,1.4435505867004395,-0.056890588253736496
25.0,-0.2553045451641083,-0.823050320148468,2.2906975746154785,-1.0458040237426758,1.4435505867004395,-0.056890588253736496
26.0,-0.247988594075044,-0.8189844389756521,2.290614128112793,-1.0516608158747356,1.4605252146720886,-0.04925135135029753
27.0,-0.2406726429859797,-0.8149185578028361,2.2905306816101074,-1.0575176080067952,1.4774998426437378,-0.04161211444685857
28.0,-0.23335669189691544,-0.8108526766300201,2.290447235107422,-1.063374400138855,1.494474470615387,-0.0339728775434196
29.0,-0.22604074080785116,-0.8067867954572042,2.2903637886047363,-1.0692311922709148,1.5114490985870361,-0.026333640639980636
30.0,-0.2187247897187869,-0.8027209142843882,2.290280342102051,-1.0750879844029744,1.5284237265586853,-0.018694403736541673
31.0,-0.2114088386297226,-0.7986550331115723,2.2901968955993652,-1.0809447765350342,1.5453983545303345,-0.011055166833102703
32.0,-0.2114088386297226,-0.7986550331115723,2.2901968955993652,-1.0809447765350342,1.5453983545303345,-0.011055166833102703
33.0,-0.20729926601052284,-0.8075083345174789,2.2860512137413025,-1.0653070211410522,1.5558387637138367,-0.006458939402364194
34.0,-0.2031896933913231,-0.8163616359233856,2.2819055318832397,-1.0496692657470703,1.5662791728973389,-0.0018627119716256857
35.0,-0.19908012077212334,-0.8252149373292923,2.277759850025177,-1.0340315103530884,1.576719582080841,0.002733515459112823
36.0,-0.19497054815292358,-0.834068238735199,2.2736141681671143,-1.0183937549591064,1.5871599912643433,0.007329742889851332
37.0,-0.19497054815292358,-0.834068238735199,2.2736141681671143,-1.0183937549591064,1.5871599912643433,0.007329742889851332
38.0,-0.1881285309791565,-0.8308876156806946,2.272002591027154,-1.0201626221338909,1.603028416633606,0.014353693773349125
39.0,-0.1812865138053894,-0.8277069926261902,2.2703910138871937,-1.021931489308675,1.6188968420028687,0.02137764465684692
40.0,-0.17444449663162231,-0.8245263695716858,2.268779436747233,-1.0237003564834595,1.6347652673721313,0.028401595540344715
41.0,-0.16760247945785522,-0.8213457465171814,2.2671678596072726,-1.025469223658244,1.650633692741394,0.035425546423842505
42.0,-0.16076046228408813,-0.818165123462677,2.2655562824673123,-1.027238090833028,1.6665021181106567,0.04244949730734031
43.0,-0.15391844511032104,-0.8149845004081726,2.263944705327352,-1.0290069580078125,1.6823705434799194,0.0494734481908381
44.0,-0.14707642793655396,-0.8118038773536682,2.2623331281873913,-1.030775825182597,1.6982389688491821,0.05649739907433589
45.0,-0.14023441076278687,-0.8086232542991638,2.260721551047431,-1.032544692357381,1.7141073942184448,0.06352134995783368
46.0,-0.13339239358901978,-0.8054426312446594,2.2591099739074707,-1.0343135595321655,1.7299758195877075,0.07054530084133148
47.0,-0.13339239358901978,-0.8054426312446594,2.2591099739074707,-1.0343135595321655,1.7299758195877075,0.07054530084133148
48.0,-0.13259142264723778,-0.795948714017868,2.2617107033729553,-1.0491236746311188,1.729644924402237,0.0698934942483902
49.0,-0.13179045170545578,-0.7864547967910767,2.26431143283844,-1.063933789730072,1.7293140292167664,0.06924168765544891
50.0,-0.13098948076367378,-0.7769608795642853,2.2669121623039246,-1.0787439048290253,1.7289831340312958,0.06858988106250763
51.0,-0.13018850982189178,-0.7674669623374939,2.269512891769409,-1.0935540199279785,1.7286522388458252,0.06793807446956635
52.0,-0.13018850982189178,-0.7674669623374939,2.269512891769409,-1.0935540199279785,1.7286522388458252,0.06793807446956635
53.0,-0.13596315681934357,-0.7590009272098541,2.2746100425720215,-1.1106577515602112,1.7133814692497253,0.06088979169726372
54.0,-0.14173780381679535,-0.7505348920822144,2.279707193374634,-1.1277614831924438,1.6981106996536255,0.05384150892496109
55.0,-0.14173780381679535,-0.7505348920822144,2.279707193374634,-1.1277614831924438,1.6981106996536255,0.05384150892496109
56.0,-0.14958961308002472,-0.7621527115503947,2.2796006997426352,-1.1135652462641399,1.681791106859843,0.04719394942124685
57.0,-0.1574414223432541,-0.7737705310185751,2.2794942061106362,-1.0993690093358357,1.6654715140660603,0.04054638991753261
58.0,-0.16529323160648346,-0.7853883504867554,2.2793877124786377,-1.0851727724075317,1.6491519212722778,0.03389883041381836
59.0,-0.16529323160648346,-0.7853883504867554,2.2793877124786377,-1.0851727724075317,1.6491519212722778,0.03389883041381836
60.0,-0.17168159782886505,-0.7803561886151632,2.2830093701680503,-1.0956687927246094,1.633563796679179,0.027091401939590774
61.0,-0.17806996405124664,-0.7753240267435709,2.2866310278574624,-1.106164813041687,1.6179756720860798,0.020283973465363186
62.0,-0.18445833027362823,-0.7702918648719788,2.290252685546875,-1.1166608333587646,1.602387547492981,0.013476544991135597
63.0,-0.18445833027362823,-0.7702918648719788,2.290252685546875,-1.1166608333587646,1.602387547492981,0.013476544991135597
64.0,-0.19169570718492782,-0.7666987776756287,2.2930781160082137,-1.1239909274237496,1.5868770395006453,0.0069477031273501265
65.0,-0.19893308409622737,-0.7631056904792786,2.2959035464695523,-1.1313210214887346,1.5713665315083094,0.00041886126356465575
66.0,-0.20617046100752695,-0.7595126032829285,2.298728976930891,-1.1386511155537196,1.5558560235159737,-0.006109980600220815
67.0,-0.2134078379188265,-0.7559195160865784,2.301554407392229,-1.1459812096187048,1.540345515523638,-0.012638822464006286
68.0,-0.22064521483012609,-0.7523264288902283,2.304379837853568,-1.1533113036836897,1.5248350075313024,-0.019167664327791753
69.0,-0.22788259174142564,-0.7487333416938782,2.3072052683149065,-1.1606413977486747,1.5093244995389665,-0.025696506191577227
70.0,-0.23511996865272522,-0.7451402544975281,2.310030698776245,-1.1679714918136597,1.4938139915466309,-0.0322253480553627
71.0,-0.23511996865272522,-0.7451402544975281,2.310030698776245,-1.1679714918136597,1.4938139915466309,-0.0322253480553627
72.0,-0.24187861755490303,-0.7470165938138962,2.3090541064739227,-1.158611387014389,1.476669728755951,-0.04095059633255005
73.0,-0.24863726645708084,-0.7488929331302643,2.3080775141716003,-1.1492512822151184,1.459525465965271,-0.049675844609737396
74.0,-0.25539591535925865,-0.7507692724466324,2.307100921869278,-1.1398911774158478,1.442381203174591,-0.058401092886924744
75.0,-0.26215456426143646,-0.7526456117630005,2.3061243295669556,-1.1305310726165771,1.4252369403839111,-0.06712634116411209
76.0,-0.2689132131636143,-0.7545219510793686,2.305147737264633,-1.1211709678173065,1.4080926775932312,-0.07585158944129944
77.0,-0.2756718620657921,-0.7563982903957367,2.304171144962311,-1.1118108630180359,1.3909484148025513,-0.08457683771848679
78.0,-0.2824305109679699,-0.7582746297121048,2.3031945526599884,-1.1024507582187653,1.3738041520118713,-0.09330208599567413
79.0,-0.2891891598701477,-0.7601509690284729,2.302217960357666,-1.0930906534194946,1.3566598892211914,-0.10202733427286148
80.0,-0.2891891598701477,-0.7601509690284729,2.302217960357666,-1.0930906534194946,1.3566598892211914,-0.10202733427286148
81.0,-0.290794188606328,-0.7607943148448549,2.298069452417308,-1.0757269509907426,1.3550412079383587,-0.10770177121820121
82.0,-0.29239921734250823,-0.761437660661237,2.29392094447695,-1.0583632485619907,1.353422526655526,-0.11337620816354094
83.0,-0.2940042460786885,-0.762081006477619,2.2897724365365915,-1.0409995461332386,1.3518038453726933,-0.11905064510888066
84.0,-0.2956092748148688,-0.762724352294001,2.2856239285962334,-1.0236358437044868,1.3501851640898606,-0.1247250820542204
85.0,-0.29721430355104905,-0.7633676981103832,2.2814754206558754,-1.0062721412757347,1.3485664828070278,-0.13039951899956012
86.0,-0.29881933228722934,-0.7640110439267652,2.2773269127155173,-0.9889084388469828,1.3469478015241951,-0.13607395594489985
87.0,-0.30042436102340964,-0.7646543897431473,2.2731784047751593,-0.9715447364182308,1.3453291202413624,-0.14174839289023958
88.0,-0.3020293897595899,-0.7652977355595293,2.269029896834801,-0.9541810339894788,1.3437104389585297,-0.1474228298355793
89.0,-0.30363441849577016,-0.7659410813759113,2.264881388894443,-0.9368173315607269,1.342091757675697,-0.15309726678091903
90.0,-0.30523944723195046,-0.7665844271922934,2.2607328809540848,-0.9194536291319748,1.3404730763928643,-0.15877170372625876
91.0,-0.3068444759681307,-0.7672277730086754,2.2565843730137267,-0.9020899267032229,1.3388543951100316,-0.1644461406715985
92.0,-0.308449504704311,-0.7678711188250574,2.2524358650733687,-0.8847262242744709,1.3372357138271989,-0.17012057761693822
93.0,-0.3100545334404913,-0.7685144646414395,2.24828735713301,-0.8673625218457189,1.3356170325443661,-0.17579501456227797
94.0,-0.3116595621766715,-0.7691578104578215,2.244138849192652,-0.849998819416967,1.3339983512615334,-0.18146945150761767
95.0,-0.3132645909128518,-0.7698011562742036,2.239990341252294,-0.8326351169882149,1.332379669978701,-0.18714388845295743
96.0,-0.31486961964903204,-0.7704445020905857,2.235841833311936,-0.8152714145594631,1.3307609886958682,-0.19281832539829713
97.0,-0.31647464838521233,-0.7710878479069677,2.2316933253715776,-0.797907712130711,1.3291423074130355,-0.19849276234363689
98.0,-0.3180796771213926,-0.7717311937233498,2.2275448174312196,-0.780544009701959,1.3275236261302028,-0.2041671992889766
99.0,-0.31968470585757286,-0.7723745395397318,2.2233963094908615,-0.7631803072732071,1.32590494484737,-0.20984163623431634
100.0,-0.32128973459375315,-0.7730178853561138,2.2192478015505035,-0.745816604844455,1.3242862635645374,-0.21551607317965607
101.0,-0.32289476332993344,-0.7736612311724959,2.2150992936101455,-0.7284529024157032,1.3226675822817047,-0.2211905101249958
102.0,-0.3244997920661137,-0.7743045769888779,2.210950785669787,-0.7110891999869511,1.321048900998872,-0.2268649470703355
103.0,-0.32610482080229397,-0.7749479228052599,2.206802277729429,-0.6937254975581991,1.3194302197160392,-0.23253938401567525
104.0,-0.32770984953847426,-0.775591268621642,2.202653769789071,-0.6763617951294472,1.3178115384332065,-0.23821382096101498
105.0,-0.3293148782746545,-0.7762346144380241,2.198505261848713,-0.6589980927006952,1.3161928571503738,-0.2438882579063547
106.0,-0.3309199070108348,-0.7768779602544061,2.194356753908355,-0.6416343902719432,1.314574175867541,-0.24956269485169444
107.0,-0.3325249357470151,-0.7775213060707882,2.1902082459679963,-0.6242706878431912,1.3129554945847084,-0.25523713179703417
108.0,-0.3341299644831953,-0.7781646518871702,2.1860597380276383,-0.6069069854144393,1.3113368133018757,-0.26091156874237387
109.0,-0.3357349932193756,-0.7788079977035522,2.1819112300872803,-0.5895432829856873,1.309718132019043,-0.2665860056877136
110.0,-0.3357349932193756,-0.7788079977035522,2.1819112300872803,-0.5895432829856873,1.309718132019043,-0.2665860056877136
111.0,-0.3376113286724797,-0.7781771399356701,2.1860511744463884,-0.6066862433044998,1.3044031152018793,-0.26419016001401124
112.0,-0.3394876641255838,-0.7775462821677879,2.190191118805497,-0.6238292036233125,1.299088098384716,-0.26179431434030886
113.0,-0.3413639995786879,-0.7769154243999057,2.194331063164605,-0.6409721639421251,1.2937730815675523,-0.2593984686666065
114.0,-0.34324033503179197,-0.7762845666320236,2.1984710075237133,-0.6581151242609378,1.2884580647503887,-0.2570026229929041
115.0,-0.3451166704848961,-0.7756537088641414,2.2026109518828214,-0.6752580845797503,1.2831430479332253,-0.2546067773192017
116.0,-0.34699300593800014,-0.7750228510962592,2.20675089624193,-0.6924010448985629,1.2778280311160617,-0.25221093164549935
117.0,-0.34886934139110426,-0.774391993328377,2.210890840601038,-0.7095440052173756,1.2725130142988983,-0.24981508597179697
118.0,-0.3507456768442083,-0.7737611355604949,2.2150307849601463,-0.7266869655361882,1.2671979974817347,-0.2474192402980946
119.0,-0.35262201229731244,-0.7731302777926127,2.2191707293192544,-0.7438299258550007,1.261882980664571,-0.24502339462439218
120.0,-0.3544983477504165,-0.7724994200247305,2.223310673678363,-0.7609728861738134,1.2565679638474077,-0.2426275489506898
121.0,-0.3563746832035206,-0.7718685622568484,2.227450618037471,-0.7781158464926261,1.251252947030244,-0.24023170327698742
122.0,-0.3582510186566247,-0.7712377044889662,2.2315905623965793,-0.7952588068114387,1.2459379302130804,-0.23783585760328504
123.0,-0.3601273541097288,-0.770606846721084,2.2357305067556874,-0.8124017671302513,1.240622913395917,-0.23544001192958267
124.0,-0.36200368956283285,-0.7699759889532019,2.239870451114796,-0.8295447274490639,1.2353078965787534,-0.2330441662558803
125.0,-0.36388002501593697,-0.7693451311853197,2.244010395473904,-0.8466876877678765,1.22999287976159,-0.2306483205821779
126.0,-0.36575636046904103,-0.7687142734174375,2.2481503398330123,-0.8638306480866891,1.2246778629444264,-0.22825247490847553
127.0,-0.36763269592214515,-0.7680834156495554,2.2522902841921204,-0.8809736084055018,1.2193628461272628,-0.22585662923477315
128.0,-0.3695090313752492,-0.7674525578816732,2.256430228551229,-0.8981165687243143,1.2140478293100994,-0.22346078356107077
129.0,-0.3713853668283533,-0.766821700113791,2.260570172910337,-0.915259529043127,1.2087328124929357,-0.22106493788736836
130.0,-0.3732617022814574,-0.7661908423459088,2.2647101172694453,-0.9324024893619396,1.2034177956757721,-0.21866909221366598
131.0,-0.3751380377345615,-0.7655599845780267,2.2688500616285534,-0.9495454496807522,1.1981027788586087,-0.21627324653996363
132.0,-0.37701437318766556,-0.7649291268101445,2.272990005987662,-0.9666884099995648,1.192787762041445,-0.21387740086626122
133.0,-0.3788907086407697,-0.7642982690422623,2.27712995034677,-0.9838313703183774,1.1874727452242815,-0.21148155519255885
134.0,-0.38076704409387374,-0.7636674112743802,2.2812698947058783,-1.00097433063719,1.182157728407118,-0.20908570951885647
135.0,-0.38264337954697786,-0.763036553506498,2.2854098390649864,-1.0181172909560026,1.1768427115899545,-0.2066898638451541
136.0,-0.3845197150000819,-0.7624056957386158,2.289549783424095,-1.0352602512748152,1.171527694772791,-0.2042940181714517
137.0,-0.38639605045318604,-0.7617748379707336,2.293689727783203,-1.052403211593628,1.1662126779556274,-0.20189817249774933
138.0,-0.38639605045318604,-0.7617748379707336,2.293689727783203,-1.052403211593628,1.1662126779556274,-0.20189817249774933
139.0,-0.3777874857187271,-0.7733483016490936,2.2944514751434326,-1.0518997311592102,1.1803261637687683,-0.19076498597860336
140.0,-0.3691789209842682,-0.7849217653274536,2.295213222503662,-1.0513962507247925,1.1944396495819092,-0.1796317994594574
141.0,-0.3691789209842682,-0.7849217653274536,2.295213222503662,-1.0513962507247925,1.1944396495819092,-0.1796317994594574
142.0,-0.3754174381494522,-0.7845505535602569,2.293609380722046,-1.0477330565452576,1.1773385405540466,-0.18832556307315826
143.0,-0.38165595531463625,-0.7841793417930603,2.2920055389404297,-1.0440698623657227,1.160237431526184,-0.19701932668685912
144.0,-0.38789447247982023,-0.7838081300258637,2.2904016971588135,-1.0404066681861877,1.1431363224983215,-0.20571309030056
145.0,-0.39413298964500426,-0.783436918258667,2.2887978553771973,-1.0367434740066528,1.126035213470459,-0.21440685391426087
146.0,-0.4003715068101883,-0.7830657064914703,2.287194013595581,-1.033080279827118,1.1089341044425964,-0.22310061752796173
147.0,-0.4066100239753723,-0.7826944947242737,2.285590171813965,-1.029417085647583,1.0918329954147339,-0.23179438114166262
148.0,-0.41284854114055636,-0.782323282957077,2.2839863300323486,-1.0257538914680482,1.0747318863868713,-0.24048814475536345
149.0,-0.41908705830574033,-0.7819520711898804,2.2823824882507324,-1.022090697288513,1.0576307773590088,-0.24918190836906434
150.0,-0.42532557547092437,-0.7815808594226837,2.280778646469116,-1.0184275031089782,1.0405296683311462,-0.2578756719827652
151.0,-0.4315640926361084,-0.7812096476554871,2.2791748046875,-1.0147643089294434,1.0234285593032837,-0.26656943559646606
152.0,-0.4315640926361084,-0.7812096476554871,2.2791748046875,-1.0147643089294434,1.0234285593032837,-0.26656943559646606
153.0,-0.4349108785390854,-0.7729977369308472,2.2808643579483032,-1.02578604221344,1.0186251401901245,-0.26786336302757263
154.0,-0.4382576644420624,-0.7647858262062073,2.2825539112091064,-1.0368077754974365,1.0138217210769653,-0.2691572904586792
155.0,-0.4382576644420624,-0.7647858262062073,2.2825539112091064,-1.0368077754974365,1.0138217210769653,-0.2691572904586792
156.0,-0.4449833780527115,-0.7601799666881561,2.280574321746826,-1.0356354713439941,0.9995245784521103,-0.2774636894464493
157.0,-0.4517090916633606,-0.755574107170105,2.278594732284546,-1.0344631671905518,0.9852274358272552,-0.28577008843421936
158.0,-0.4584348052740097,-0.7509682476520538,2.2766151428222656,-1.0332908630371094,0.9709302932024002,-0.29407648742198944
159.0,-0.4651605188846588,-0.7463623881340027,2.2746355533599854,-1.032118558883667,0.9566331505775452,-0.3023828864097595
160.0,-0.4651605188846588,-0.7463623881340027,2.2746355533599854,-1.032118558883667,0.9566331505775452,-0.3023828864097595
161.0,-0.46762924641370773,-0.7515900135040283,2.270425021648407,-1.0167876929044724,0.947523757815361,-0.31018881499767303
162.0,-0.47009797394275665,-0.756817638874054,2.2662144899368286,-1.0014568269252777,0.9384143650531769,-0.31799474358558655
163.0,-0.4725667014718056,-0.7620452642440796,2.2620039582252502,-0.9861259609460831,0.9293049722909927,-0.32580067217350006
164.0,-0.4750354290008545,-0.7672728896141052,2.257793426513672,-0.9707950949668884,0.9201955795288086,-0.3336066007614136
165.0,-0.4750354290008545,-0.7672728896141052,2.257793426513672,-0.9707950949668884,0.9201955795288086,-0.3336066007614136
166.0,-0.47766632586717606,-0.7704903930425644,2.2536407113075256,-0.9572060704231262,0.9102678596973419,-0.3422337770462036
167.0,-0.4802972227334976,-0.7737078964710236,2.2494879961013794,-0.943617045879364,0.9003401398658752,-0.35086095333099365
168.0,-0.4829281195998192,-0.7769253998994827,2.245335280895233,-0.9300280213356018,0.8904124200344086,-0.3594881296157837
169.0,-0.48555901646614075,-0.7801429033279419,2.241182565689087,-0.9164389967918396,0.8804847002029419,-0.36811530590057373
170.0,-0.48555901646614075,-0.7801429033279419,2.241182565689087,-0.9164389967918396,0.8804847002029419,-0.36811530590057373
171.0,-0.4873473271727562,-0.7845118492841721,2.236053764820099,-0.8998553156852722,0.87174853682518,-0.3771744519472122
172.0,-0.48913563787937164,-0.7888807952404022,2.230924963951111,-0.8832716345787048,0.8630123734474182,-0.3862335979938507
173.0,-0.4909239485859871,-0.7932497411966324,2.225796163082123,-0.8666879534721375,0.8542762100696564,-0.3952927440404892
174.0,-0.49271225929260254,-0.7976186871528625,2.2206673622131348,-0.8501042723655701,0.8455400466918945,-0.4043518900871277
175.0,-0.49271225929260254,-0.7976186871528625,2.2206673622131348,-0.8501042723655701,0.8455400466918945,-0.4043518900871277
176.0,-0.49038438498973846,-0.8050658702850342,2.2176252603530884,-0.8364978432655334,0.8461906909942627,-0.4065634608268738
177.0,-0.4880565106868744,-0.8125130534172058,2.214583158493042,-0.8228914141654968,0.8468413352966309,-0.4087750315666199
178.0,-0.4880565106868744,-0.8125130534172058,2.214583158493042,-0.8228914141654968,0.8468413352966309,-0.4087750315666199
179.0,-0.49567081928253176,-0.804220998287201,2.210245370864868,-0.8180797219276428,0.829522681236267,-0.4230251371860504
180.0,-0.5032851278781891,-0.7959289431571961,2.2059075832366943,-0.8132680296897888,0.8122040271759033,-0.43727524280548097
181.0,-0.5108994364738464,-0.7876368880271911,2.2015697956085205,-0.8084563374519348,0.7948853731155395,-0.4515253484249115
182.0,-0.5185137450695038,-0.7793448328971863,2.1972320079803467,-0.8036446452140809,0.7775667190551758,-0.46577545404434206
183.0,-0.5261280536651611,-0.7710527777671814,2.192894220352173,-0.7988329529762268,0.760248064994812,-0.4800255596637726
184.0,-0.5261280536651611,-0.7710527777671814,2.192894220352173,-0.7988329529762268,0.760248064994812,-0.4800255596637726
185.0,-0.5328493316968282,-0.7636191447575887,2.1874688466389975,-0.7904065251350403,0.7441592812538147,-0.4953851302464803
186.0,-0.5395706097284952,-0.756185511747996,2.182043472925822,-0.7819800972938538,0.7280704975128174,-0.510744700829188
187.0,-0.5462918877601624,-0.7487518787384033,2.1766180992126465,-0.7735536694526672,0.7119817137718201,-0.5261042714118958
188.0,-0.5462918877601624,-0.7487518787384033,2.1766180992126465,-0.7735536694526672,0.7119817137718201,-0.5261042714118958
189.0,-0.5500671565532684,-0.7397383153438568,2.1785374879837036,-0.7865696847438812,0.7087521255016327,-0.5254318118095398
190.0,-0.5538424253463745,-0.7307247519493103,2.1804568767547607,-0.7995857000350952,0.7055225372314453,-0.5247593522071838
191.0,-0.5538424253463745,-0.7307247519493103,2.1804568767547607,-0.7995857000350952,0.7055225372314453,-0.5247593522071838
192.0,-0.5573297739028931,-0.7214140594005585,2.1830095052719116,-0.8150010406970978,0.7036794126033783,-0.52224200963974
193.0,-0.5608171224594116,-0.7121033668518066,2.1855621337890625,-0.8304163813591003,0.7018362879753113,-0.5197246670722961
194.0,-0.5608171224594116,-0.7121033668518066,2.1855621337890625,-0.8304163813591003,0.7018362879753113,-0.5197246670722961
195.0,-0.562437527709537,-0.7126942806773715,2.179946369594998,-0.8147614002227783,0.6943010687828064,-0.5311821103096008
196.0,-0.5640579329596626,-0.7132851945029365,2.1743306054009333,-0.7991064190864563,0.6867658495903015,-0.5426395535469055
197.0,-0.565678338209788,-0.7138761083285013,2.1687148412068686,-0.7834514379501343,0.6792306303977966,-0.5540969967842102
198.0,-0.5672987434599135,-0.7144670221540663,2.163099077012804,-0.7677964568138123,0.6716954112052917,-0.5655544400215149
199.0,-0.5689191487100389,-0.7150579359796312,2.157483312818739,-0.7521414756774902,0.6641601920127869,-0.5770118832588196
200.0,-0.5705395539601644,-0.7156488498051962,2.1518675486246743,-0.7364864945411682,0.656624972820282,-0.5884693264961243
201.0,-0.5721599592102898,-0.716239763630761,2.1462517844306097,-0.7208315134048462,0.6490897536277771,-0.599926769733429
202.0,-0.5737803644604154,-0.716830677456326,2.140636020236545,-0.7051765322685242,0.6415545344352722,-0.6113842129707336
203.0,-0.5754007697105408,-0.7174215912818909,2.1350202560424805,-0.6895215511322021,0.6340193152427673,-0.6228416562080383
204.0,-0.5754007697105408,-0.7174215912818909,2.1350202560424805,-0.6895215511322021,0.6340193152427673,-0.6228416562080383
205.0,-0.5727060735225677,-0.7244862616062164,2.1320698261260986,-0.6752626597881317,0.634707897901535,-0.6266554594039917
206.0,-0.5700113773345947,-0.731550931930542,2.129119396209717,-0.6610037684440613,0.6353964805603027,-0.6304692625999451
207.0,-0.5700113773345947,-0.731550931930542,2.129119396209717,-0.6610037684440613,0.6353964805603027,-0.6304692625999451
208.0,-0.5713785025808547,-0.7305973635779487,2.123295227686564,-0.6450884209738837,0.6286372807290819,-0.6435916490024991
209.0,-0.5727456278271146,-0.7296437952253554,2.1174710591634116,-0.6291730735037062,0.621878080897861,-0.656714035405053
210.0,-0.5741127530733744,-0.7286902268727621,2.111646890640259,-0.6132577260335287,0.6151188810666403,-0.669836421807607
211.0,-0.5754798783196343,-0.7277366585201688,2.105822722117106,-0.5973423785633512,0.6083596812354194,-0.682958808210161
212.0,-0.5768470035658942,-0.7267830901675754,2.0999985535939536,-0.5814270310931735,0.6016004814041985,-0.696081194612715
213.0,-0.5782141288121542,-0.7258295218149821,2.094174385070801,-0.565511683622996,0.5948412815729777,-0.7092035810152689
214.0,-0.579581254058414,-0.7248759534623888,2.088350216547648,-0.5495963361528184,0.5880820817417569,-0.722325967417823
215.0,-0.5809483793046739,-0.7239223851097955,2.0825260480244956,-0.5336809886826409,0.581322881910536,-0.7354483538203769
216.0,-0.5823155045509338,-0.7229688167572021,2.0767018795013428,-0.5177656412124634,0.5745636820793152,-0.7485707402229309
217.0,-0.5823155045509338,-0.7229688167572021,2.0767018795013428,-0.5177656412124634,0.5745636820793152,-0.7485707402229309
218.0,-0.5890242755413055,-0.7094264328479767,2.071747660636902,-0.5153306424617767,0.5635962784290314,-0.7631283104419708
219.0,-0.5957330465316772,-0.6958840489387512,2.066793441772461,-0.5128956437110901,0.5526288747787476,-0.7776858806610107
220.0,-0.5957330465316772,-0.6958840489387512,2.066793441772461,-0.5128956437110901,0.5526288747787476,-0.7776858806610107
221.0,-0.598001846245357,-0.6911812935556684,2.059628895350865,-0.4956575759819576,0.5455087167876107,-0.7948989697865078
222.0,-0.6002706459590367,-0.6864785381725856,2.052464348929269,-0.4784195082528251,0.538388558796474,-0.8121120589120048
223.0,-0.6025394456727164,-0.6817757827895028,2.045299802507673,-0.46118144052369253,0.5312684008053371,-0.8293251480375018
224.0,-0.6048082453863961,-0.6770730274064201,2.038135256086077,-0.44394337279456003,0.5241482428142002,-0.8465382371629987
225.0,-0.6070770451000759,-0.6723702720233372,2.030970709664481,-0.42670530506542753,0.5170280848230635,-0.8637513262884957
226.0,-0.6093458448137555,-0.6676675166402545,2.023806163242885,-0.409467237336295,0.5099079268319267,-0.8809644154139927
227.0,-0.6116146445274353,-0.6629647612571716,2.016641616821289,-0.3922291696071625,0.5027877688407898,-0.8981775045394897
228.0,-0.6116146445274353,-0.6629647612571716,2.016641616821289,-0.3922291696071625,0.5027877688407898,-0.8981775045394897
229.0,-0.6151664853096008,-0.6555162072181702,2.0196621417999268,-0.4084806740283966,0.5013070404529572,-0.892579585313797
230.0,-0.6187183260917664,-0.6480676531791687,2.0226826667785645,-0.42473217844963074,0.4998263120651245,-0.8869816660881042
231.0,-0.6187183260917664,-0.6480676531791687,2.0226826667785645,-0.42473217844963074,0.4998263120651245,-0.8869816660881042
232.0,-0.6195390657945112,-0.6452186324379661,2.016668666492809,-0.40807867321101104,0.4958016195080497,-0.9021033590490167
233.0,-0.6203598054972562,-0.6423696116967634,2.0106546662070532,-0.3914251679723913,0.4917769269509749,-0.9172250520099293
234.0,-0.6211805452000011,-0.6395205909555609,2.004640665921298,-0.3747716627337716,0.4877522343939001,-0.9323467449708418
235.0,-0.622001284902746,-0.6366715702143583,1.9986266656355425,-0.35811815749515186,0.48372754183682526,-0.9474684379317544
236.0,-0.622822024605491,-0.6338225494731556,1.9926126653497869,-0.3414646522565321,0.4797028492797505,-0.9625901308926669
237.0,-0.6236427643082358,-0.630973528731953,1.9865986650640315,-0.32481114701791247,0.47567815672267566,-0.9777118238535795
238.0,-0.6244635040109808,-0.6281245079907504,1.9805846647782759,-0.3081576417792927,0.4716534641656009,-0.992833516814492
239.0,-0.6252842437137257,-0.6252754872495477,1.9745706644925205,-0.291504136540673,0.46762877160852606,-1.0079552097754045
240.0,-0.6261049834164706,-0.6224264665083452,1.968556664206765,-0.2748506313020532,0.46360407905145123,-1.0230769027363171
241.0,-0.6269257231192156,-0.6195774457671426,1.9625426639210095,-0.25819712606343354,0.45957938649437646,-1.0381985956972295
242.0,-0.6277464628219604,-0.6167284250259399,1.956528663635254,-0.24154362082481384,0.45555469393730164,-1.053320288658142
243.0,-0.6277464628219604,-0.6167284250259399,1.956528663635254,-0.24154362082481384,0.45555469393730164,-1.053320288658142
244.0,-0.6261619726816813,-0.6190812587738037,1.953417460123698,-0.2288988083600998,0.4554949402809143,-1.060965100924174
245.0,-0.6245774825414022,-0.6214340925216675,1.9503062566121419,-0.21625399589538574,0.455435186624527,-1.0686099131902058
246.0,-0.622992992401123,-0.6237869262695312,1.947195053100586,-0.2036091834306717,0.45537543296813965,-1.0762547254562378
247.0,-0.622992992401123,-0.6237869262695312,1.947195053100586,-0.2036091834306717,0.45537543296813965,-1.0762547254562378
248.0,-0.6240646110640632,-0.6192081305715773,1.941150387128194,-0.18739980459213257,0.45223264230622184,-1.092609206835429
249.0,-0.6251362297270033,-0.6146293348736234,1.9351057211558025,-0.17119042575359344,0.44908985164430404,-1.1089636882146199
250.0,-0.6262078483899435,-0.6100505391756693,1.9290610551834106,-0.15498104691505432,0.4459470609823863,-1.125318169593811
251.0,-0.6272794670528836,-0.6054717434777154,1.9230163892110188,-0.1387716680765152,0.4428042703204685,-1.1416726509730022
252.0,-0.6283510857158237,-0.6008929477797614,1.9169717232386272,-0.12256228923797607,0.4396614796585507,-1.1580271323521931
253.0,-0.6294227043787638,-0.5963141520818075,1.9109270572662354,-0.10635291039943695,0.4365186889966329,-1.1743816137313843
254.0,-0.6304943230417039,-0.5917353563838534,1.9048823912938435,-0.09014353156089784,0.4333758983347151,-1.1907360951105754
255.0,-0.6315659417046441,-0.5871565606858995,1.898837725321452,-0.0739341527223587,0.4302331076727973,-1.2070905764897664
256.0,-0.6326375603675842,-0.5825777649879456,1.89279305934906,-0.05772477388381958,0.4270903170108795,-1.2234450578689575
257.0,-0.6326375603675842,-0.5825777649879456,1.89279305934906,-0.05772477388381958,0.4270903170108795,-1.2234450578689575
258.0,-0.6273601949214935,-0.5931408703327179,1.8925228714942932,-0.045143960043787956,0.43114639818668365,-1.2247347235679626
259.0,-0.6220828294754028,-0.6037039756774902,1.8922526836395264,-0.03256314620375633,0.4352024793624878,-1.2260243892669678
260.0,-0.6220828294754028,-0.6037039756774902,1.8922526836395264,-0.03256314620375633,0.4352024793624878,-1.2260243892669678
261.0,-0.6188437938690186,-0.6130570967992147,1.898170034090678,-0.044618477423985795,0.43989747762680054,-1.208546757698059
262.0,-0.6156047582626343,-0.6224102179209391,1.9040873845418294,-0.056673808644215264,0.4445924758911133,-1.1910691261291504
263.0,-0.61236572265625,-0.6317633390426636,1.910004734992981,-0.06872913986444473,0.449287474155426,-1.1735914945602417
264.0,-0.61236572265625,-0.6317633390426636,1.910004734992981,-0.06872913986444473,0.449287474155426,-1.1735914945602417
265.0,-0.6111171394586563,-0.6326195597648621,1.9062932431697845,-0.05458487034775317,0.4490075930953026,-1.1839958131313324
266.0,-0.6098685562610626,-0.6334757804870605,1.9025817513465881,-0.0404406008310616,0.44872771203517914,-1.194400131702423
267.0,-0.6086199730634689,-0.634332001209259,1.8988702595233917,-0.026296331314370036,0.4484478309750557,-1.2048044502735138
268.0,-0.6073713898658752,-0.6351882219314575,1.8951587677001953,-0.01215206179767847,0.44816794991493225,-1.2152087688446045
269.0,-0.6073713898658752,-0.6351882219314575,1.8951587677001953,-0.01215206179767847,0.44816794991493225,-1.2152087688446045
270.0,-0.6039990186691284,-0.6403613686561584,1.8930754661560059,0.001920851568380991,0.4558737476666768,-1.2214250564575195
271.0,-0.6006266474723816,-0.6455345153808594,1.8909921646118164,0.015993764934440453,0.46357954541842145,-1.2276413440704346
272.0,-0.5972542762756348,-0.6507076621055603,1.888908863067627,0.030066678300499916,0.471285343170166,-1.2338576316833496
273.0,-0.5972542762756348,-0.6507076621055603,1.888908863067627,0.030066678300499916,0.471285343170166,-1.2338576316833496
274.0,-0.5977770273502057,-0.6465239754089942,1.8833971206958477,0.04649374863276115,0.4687472123366136,-1.2507579234930186
275.0,-0.5982997784247766,-0.6423402887124282,1.8778853783240685,0.06292081896502238,0.4662090815030612,-1.2676582153026874
276.0,-0.5988225294993474,-0.6381566020158621,1.8723736359522893,0.07934788929728362,0.4636709506695087,-1.2845585071123564
277.0,-0.5993452805739182,-0.633972915319296,1.8668618935805101,0.09577495962954485,0.4611328198359563,-1.3014587989220252
278.0,-0.5998680316484891,-0.62978922862273,1.861350151208731,0.11220202996180609,0.45859468900240385,-1.3183590907316942
279.0,-0.60039078272306,-0.6256055419261639,1.8558384088369517,0.12862910029406732,0.45605655816885143,-1.335259382541363
280.0,-0.6009135337976309,-0.6214218552295978,1.8503266664651723,0.14505617062632856,0.45351842733529896,-1.352159674351032
281.0,-0.6014362848722018,-0.6172381685330317,1.844814924093393,0.1614832409585898,0.45098029650174654,-1.3690599661607008
282.0,-0.6019590359467727,-0.6130544818364657,1.839303181721614,0.177910311290851,0.4484421656681941,-1.3859602579703698
283.0,-0.6024817870213435,-0.6088707951398996,1.8337914393498347,0.19433738162311226,0.4459040348346417,-1.4028605497800386
284.0,-0.6030045380959144,-0.6046871084433335,1.8282796969780555,0.2107644519553735,0.4433659040010892,-1.4197608415897076
285.0,-0.6035272891704853,-0.6005034217467675,1.8227679546062763,0.2271915222876347,0.4408277731675368,-1.4366611333993764
286.0,-0.6040500402450562,-0.5963197350502014,1.817256212234497,0.24361859261989594,0.4382896423339844,-1.4535614252090454
287.0,-0.6040500402450562,-0.5963197350502014,1.817256212234497,0.24361859261989594,0.4382896423339844,-1.4535614252090454
288.0,-0.6085801720619202,-0.5830949743588766,1.810889720916748,0.2547297775745392,0.4326076904932658,-1.4735278685887654
289.0,-0.6131103038787842,-0.5698702136675516,1.804523229598999,0.26584096252918243,0.4269257386525472,-1.4934943119684856
290.0,-0.6176404356956482,-0.5566454529762268,1.79815673828125,0.2769521474838257,0.4212437868118286,-1.5134607553482056
291.0,-0.6176404356956482,-0.5566454529762268,1.79815673828125,0.2769521474838257,0.4212437868118286,-1.5134607553482056
292.0,-0.6194593667984009,-0.5486704230308532,1.7919681787490844,0.29342185258865355,0.4198290467262268,-1.5334360599517822
293.0,-0.6212782979011535,-0.5406953930854798,1.7857796192169189,0.3098915576934814,0.418414306640625,-1.5534113645553589
294.0,-0.6230972290039063,-0.5327203631401062,1.7795910596847535,0.32636126279830935,0.4169995665550232,-1.5733866691589355
295.0,-0.624916160106659,-0.5247453331947327,1.773402500152588,0.3428309679031372,0.4155848264694214,-1.5933619737625122
296.0,-0.6267350912094116,-0.5167703032493591,1.7672139406204224,0.3593006730079651,0.4141700863838196,-1.6133372783660889
297.0,-0.6267350912094116,-0.5167703032493591,1.7672139406204224,0.3593006730079651,0.4141700863838196,-1.6133372783660889
298.0,-0.6326418817043304,-0.5053819119930267,1.7667253017425537,0.3456971049308777,0.40945279598236084,-1.6103097200393677
299.0,-0.6385486721992493,-0.49399352073669434,1.766236662864685,0.3320935368537903,0.4047355055809021,-1.6072821617126465
300.0,-0.6385486721992493,-0.49399352073669434,1.766236662864685,0.3320935368537903,0.4047355055809021,-1.6072821617126465
301.0,-0.6385486721992493,-0.49399352073669434,1.766236662864685,0.3320935368537903,0.4047355055809021,-1.6072821617126465
302.0,-0.6384938955307007,-0.5066577196121216,1.7676113843917847,0.3136734366416931,0.3984527289867401,-1.5891506671905518
303.0,-0.6383805274963379,-0.5229710340499878,1.7712910175323486,0.2736692726612091,0.38673990964889526,-1.5515614748001099
304.0,-0.6382119655609131,-0.5402567386627197,1.777370810508728,0.212996244430542,0.37023377418518066,-1.4957122802734375
305.0,-0.6379919648170471,-0.5579201579093933,1.7857279777526855,0.13328629732131958,0.34936580061912537,-1.423093557357788
306.0,-0.6377241611480713,-0.5756391882896423,1.7962130308151245,0.036254119127988815,0.3245387375354767,-1.3352278470993042
307.0,-0.637411892414093,-0.5931214094161987,1.8086730241775513,-0.0763770267367363,0.29615160822868347,-1.2336419820785522
308.0,-0.6370596289634705,-0.6100764870643616,1.8229562044143677,-0.20288075506687164,0.2646033763885498,-1.119864583015442
309.0,-0.63667231798172,-0.6262133717536926,1.8389122486114502,-0.3415273427963257,0.23029305040836334,-0.9954235553741455
310.0,-0.6362549066543579,-0.6412400603294373,1.8563899993896484,-0.49058499932289124,0.19361969828605652,-0.861847460269928
311.0,-0.6358122825622559,-0.6548640727996826,1.8752363920211792,-0.6483216881752014,0.15498191118240356,-0.7206641435623169
312.0,-0.6353480219841003,-0.6667925119400024,1.895300269126892,-0.813007116317749,0.11477780342102051,-0.5734003186225891
313.0,-0.63486647605896,-0.6767329573631287,1.916429877281189,-0.9829117655754089,0.07340525835752487,-0.42158156633377075
314.0,-0.6343706846237183,-0.6843928098678589,1.9384742975234985,-1.156306266784668,0.03126288950443268,-0.2667331099510193
315.0,-0.6338654160499573,-0.689482569694519,1.9612823724746704,-1.3314601182937622,-0.011249599978327751,-0.11037913709878922
316.0,-0.6333554983139038,-0.6917420029640198,1.9846973419189453,-1.5066413879394531,-0.05373121052980423,0.04595736786723137
317.0,-0.6328474283218384,-0.6911248564720154,2.008509874343872,-1.6801210641860962,-0.09577903896570206,0.20075467228889465
318.0,-0.6323468685150146,-0.6879491209983826,2.0324180126190186,-1.8501826524734497,-0.13698507845401764,0.3524916172027588
319.0,-0.631859302520752,-0.6826197504997253,2.0560965538024902,-2.01511549949646,-0.1769399642944336,0.49964746832847595
320.0,-0.6313896179199219,-0.6755511164665222,2.079219341278076,-2.173210620880127,-0.2152349352836609,0.6407010555267334
321.0,-0.6309431791305542,-0.6671579480171204,2.1014597415924072,-2.322758913040161,-0.2514617443084717,0.7741314172744751
322.0,-0.6305251121520996,-0.6578550338745117,2.1224923133850098,-2.462047815322876,-0.2852129638195038,0.8984165787696838
323.0,-0.6301407814025879,-0.6480586528778076,2.1419904232025146,-2.5893635749816895,-0.3160820007324219,1.0120353698730469
324.0,-0.6297957301139832,-0.6381866335868835,2.159630298614502,-2.702993392944336,-0.3436626195907593,1.1134676933288574
325.0,-0.6294957995414734,-0.6286570429801941,2.1750900745391846,-2.801225423812866,-0.3675484359264374,1.2011945247650146
326.0,-0.6292465329170227,-0.6198878288269043,2.188044786453247,-2.8823513984680176,-0.3873327076435089,1.2736984491348267
327.0,-0.62905353307724,-0.6123012900352478,2.198166847229004,-2.9446685314178467,-0.40260791778564453,1.329465627670288
328.0,-0.6289226412773132,-0.6063578128814697,2.2051289081573486,-2.9865174293518066,-0.4129685163497925,1.3670122623443604
329.0,-0.6288589239120483,-0.6027977466583252,2.2086048126220703,-3.006614923477173,-0.4180452227592468,1.3851399421691895
330.0,-0.6288589239120483,-0.6027977466583252,2.2086048126220703,-3.006614923477173,-0.4180452227592468,1.3851399421691895
331.0,-0.6288589239120483,-0.6027977466583252,2.2086048126220703,-3.006614923477173,-0.4180452227592468,1.3851399421691895
332.0,-0.6321508288383484,-0.5958195626735687,2.204521059989929,-2.9964797496795654,-0.4163716733455658,1.3711289167404175
333.0,-0.6354427337646484,-0.5888413786888123,2.200437307357788,-2.986344575881958,-0.41469812393188477,1.3571178913116455
334.0,-0.6354427337646484,-0.5888413786888123,2.200437307357788,-2.986344575881958,-0.41469812393188477,1.3571178913116455
335.0,-0.6339678585529327,-0.5943238377571106,2.1986239671707155,-2.970276141166687,-0.41672817468643186,1.3473708391189576
336.0,-0.6324929833412171,-0.599806296825409,2.1968106269836425,-2.954207706451416,-0.418758225440979,1.3376237869262695
337.0,-0.6310181081295013,-0.6052887558937072,2.19499728679657,-2.938139271736145,-0.4207882761955261,1.3278767347335816
338.0,-0.6295432329177857,-0.6107712149620056,2.193183946609497,-2.922070837020874,-0.42281832695007326,1.3181296825408935
339.0,-0.62806835770607,-0.616253674030304,2.1913706064224243,-2.906002402305603,-0.42484837770462036,1.3083826303482056
340.0,-0.6265934824943542,-0.6217361330986023,2.1895572662353517,-2.889933967590332,-0.42687842845916746,1.2986355781555177
341.0,-0.6251186072826386,-0.6272185921669007,2.1877439260482787,-2.873865532875061,-0.4289084792137146,1.2888885259628295
342.0,-0.6236437320709228,-0.6327010512351989,2.185930585861206,-2.85779709815979,-0.4309385299682617,1.2791414737701416
343.0,-0.6221688568592072,-0.6381835103034973,2.184117245674133,-2.841728663444519,-0.43296858072280886,1.2693944215774535
344.0,-0.6206939816474915,-0.6436659693717957,2.1823039054870605,-2.825660228729248,-0.43499863147735596,1.2596473693847656
345.0,-0.6206939816474915,-0.6436659693717957,2.1823039054870605,-2.825660228729248,-0.43499863147735596,1.2596473693847656
346.0,-0.6161914070447286,-0.6537360946337382,2.1882659594217935,-2.839731772740682,-0.43689502278963727,1.279203732808431
347.0,-0.6116888324419657,-0.6638062198956808,2.194228013356527,-2.8538033167521157,-0.4387914141019185,1.2987600962320964
348.0,-0.6071862578392029,-0.6738763451576233,2.2001900672912598,-2.86787486076355,-0.44068780541419983,1.3183164596557617
349.0,-0.6071862578392029,-0.6738763451576233,2.2001900672912598,-2.86787486076355,-0.44068780541419983,1.3183164596557617
350.0,-0.6068116085869926,-0.6760418031896863,2.1966673816953386,-2.8505829572677612,-0.4425187132188252,1.3054137229919434
351.0,-0.6064369593347821,-0.6782072612217495,2.1931446960994174,-2.8332910537719727,-0.4443496210234506,1.292510986328125
352.0,-0.6060623100825718,-0.6803727192538125,2.1896220105034963,-2.815999150276184,-0.44618052882807596,1.2796082496643066
353.0,-0.6056876608303615,-0.6825381772858756,2.1860993249075755,-2.7987072467803955,-0.4480114366327013,1.2667055130004883
354.0,-0.6053130115781512,-0.6847036353179387,2.1825766393116544,-2.781415343284607,-0.4498423444373267,1.25380277633667
355.0,-0.6049383623259408,-0.6868690933500018,2.179053953715733,-2.7641234397888184,-0.4516732522419521,1.2409000396728516
356.0,-0.6045637130737305,-0.6890345513820648,2.175531268119812,-2.74683153629303,-0.45350416004657745,1.2279973030090332
357.0,-0.6041890638215202,-0.6912000094141278,2.172008582523891,-2.729539632797241,-0.4553350678512028,1.2150945663452148
358.0,-0.6038144145693097,-0.693365467446191,2.1684858969279697,-2.7122477293014526,-0.4571659756558282,1.2021918296813965
359.0,-0.6034397653170994,-0.695530925478254,2.1649632113320485,-2.694955825805664,-0.4589968834604536,1.1892890930175781
360.0,-0.6030651160648891,-0.6976963835103172,2.1614405257361278,-2.6776639223098755,-0.46082779126507895,1.1763863563537598
361.0,-0.6026904668126788,-0.6998618415423802,2.1579178401402066,-2.660372018814087,-0.4626586990697043,1.1634836196899414
362.0,-0.6023158175604684,-0.7020272995744433,2.1543951545442854,-2.6430801153182983,-0.4644896068743297,1.150580883026123
363.0,-0.6019411683082581,-0.7041927576065063,2.1508724689483643,-2.6257882118225098,-0.4663205146789551,1.1376781463623047
364.0,-0.6019411683082581,-0.7041927576065063,2.1508724689483643,-2.6257882118225098,-0.4663205146789551,1.1376781463623047
365.0,-0.6014400124549866,-0.7050984246390206,2.146278585706438,-2.6092115300042287,-0.4692213109561375,1.125173155750547
366.0,-0.6009388566017151,-0.706004091671535,2.1416847024645125,-2.592634848185948,-0.47212210723332,1.1126681651387895
367.0,-0.6004377007484436,-0.7069097587040493,2.1370908192225864,-2.576058166367667,-0.4750229035105024,1.100163174527032
368.0,-0.5999365448951721,-0.7078154257365635,2.1324969359806607,-2.5594814845493863,-0.47792369978768484,1.0876581839152746
369.0,-0.5994353890419006,-0.7087210927690778,2.1279030527387346,-2.542904802731105,-0.48082449606486727,1.075153193303517
370.0,-0.5989342331886292,-0.7096267598015922,2.123309169496809,-2.5263281209128245,-0.48372529234204975,1.0626482026917594
371.0,-0.5984330773353577,-0.7105324268341064,2.118715286254883,-2.5097514390945435,-0.4866260886192322,1.0501432120800018
372.0,-0.5979319214820862,-0.7114380938666207,2.1141214030129567,-2.4931747572762624,-0.4895268848964146,1.0376382214682442
373.0,-0.5974307656288147,-0.7123437608991351,2.109527519771031,-2.4765980754579817,-0.49242768117359703,1.0251332308564867
374.0,-0.5969296097755432,-0.7132494279316494,2.104933636529105,-2.4600213936397006,-0.4953284774507795,1.0126282402447293
375.0,-0.5964284539222717,-0.7141550949641636,2.1003397532871793,-2.44344471182142,-0.49822927372796194,1.0001232496329717
376.0,-0.5959272980690002,-0.7150607619966779,2.095745870045253,-2.426868030003139,-0.5011300700051444,0.9876182590212141
377.0,-0.5954261422157288,-0.7159664290291923,2.0911519868033275,-2.4102913481848582,-0.5040308662823269,0.9751132684094566
378.0,-0.5949249863624573,-0.7168720960617065,2.0865581035614014,-2.393714666366577,-0.5069316625595093,0.962608277797699
379.0,-0.5949249863624573,-0.7168720960617065,2.0865581035614014,-2.393714666366577,-0.5069316625595093,0.962608277797699
380.0,-0.6015013754367828,-0.6996584236621857,2.0830299854278564,-2.400354504585266,-0.50229312479496,0.9563888609409332
381.0,-0.6080777645111084,-0.6824447512626648,2.0795018672943115,-2.406994342803955,-0.49765458703041077,0.9501694440841675
382.0,-0.6080777645111084,-0.6824447512626648,2.0795018672943115,-2.406994342803955,-0.49765458703041077,0.9501694440841675
383.0,-0.6116645932197571,-0.6735499501228333,2.080345312754313,-2.4194480578104653,-0.49337347348531085,0.9541002313296
384.0,-0.6152514219284058,-0.6646551489830017,2.081188758214315,-2.431901772816976,-0.489092359940211,0.9580310185750326
385.0,-0.6188382506370544,-0.6557603478431702,2.0820322036743164,-2.4443554878234863,-0.4848112463951111,0.9619618058204651
386.0,-0.6188382506370544,-0.6557603478431702,2.0820322036743164,-2.4443554878234863,-0.4848112463951111,0.9619618058204651
387.0,-0.6173549234867096,-0.6579504311084747,2.0771320104599,-2.4277785301208494,-0.4890685439109802,0.9509438216686249
388.0,-0.6158715963363648,-0.6601405143737793,2.072231817245483,-2.411201572418213,-0.4933258414268494,0.9399258375167847
389.0,-0.6143882691860199,-0.6623305976390839,2.067331624031067,-2.394624614715576,-0.4975831389427185,0.9289078533649444
390.0,-0.612904942035675,-0.6645206809043884,2.0624314308166505,-2.3780476570129396,-0.5018404364585877,0.9178898692131042
391.0,-0.6114216148853302,-0.666710764169693,2.057531237602234,-2.3614706993103027,-0.5060977339744568,0.906871885061264
392.0,-0.6099382877349854,-0.6689008474349976,2.0526310443878173,-2.344893741607666,-0.5103550314903259,0.8958539009094239
393.0,-0.6084549605846405,-0.6710909307003021,2.0477308511734007,-2.3283167839050294,-0.514612329006195,0.8848359167575837
394.0,-0.6069716334342956,-0.6732810139656067,2.0428306579589846,-2.3117398262023925,-0.5188696265220643,0.8738179326057434
395.0,-0.6054883062839508,-0.6754710972309113,2.037930464744568,-2.295162868499756,-0.5231269240379334,0.8627999484539032
396.0,-0.604004979133606,-0.6776611804962158,2.0330302715301514,-2.278585910797119,-0.5273842215538025,0.851781964302063
397.0,-0.604004979133606,-0.6776611804962158,2.0330302715301514,-2.278585910797119,-0.5273842215538025,0.851781964302063
398.0,-0.603703091541926,-0.6752898891766866,2.026122510433197,-2.263174811999003,-0.5315065582593282,0.8394513030846914
399.0,-0.6034012039502462,-0.6729185978571574,2.0192147493362427,-2.247763713200887,-0.5356288949648539,0.8271206418673197
400.0,-0.6030993163585663,-0.6705473065376282,2.0123069882392883,-2.232352614402771,-0.5397512316703796,0.8147899806499481
401.0,-0.6027974287668864,-0.668176015218099,2.005399227142334,-2.216941515604655,-0.5438735683759054,0.8024593194325765
402.0,-0.6024955411752065,-0.6658047238985697,1.9984914660453796,-2.201530416806539,-0.547995905081431,0.7901286582152048
403.0,-0.6021936535835266,-0.6634334325790405,1.9915837049484253,-2.186119318008423,-0.5521182417869568,0.7777979969978333
404.0,-0.6021936535835266,-0.6634334325790405,1.9915837049484253,-2.186119318008423,-0.5521182417869568,0.7777979969978333
405.0,-0.5998782068490982,-0.6665657162666321,1.9872122704982758,-2.1722859740257263,-0.5571865290403366,0.7698352783918381
406.0,-0.5975627601146698,-0.6696979999542236,1.9828408360481262,-2.15845263004303,-0.5622548162937164,0.7618725597858429
407.0,-0.5952473133802414,-0.6728302836418152,1.9784694015979767,-2.1446192860603333,-0.5673231035470963,0.7539098411798477
408.0,-0.592931866645813,-0.6759625673294067,1.9740979671478271,-2.1307859420776367,-0.5723913908004761,0.7459471225738525
409.0,-0.592931866645813,-0.6759625673294067,1.9740979671478271,-2.1307859420776367,-0.5723913908004761,0.7459471225738525
410.0,-0.5867383480072021,-0.6898344159126282,1.9734915494918823,-2.1158136129379272,-0.5798083543777466,0.7430326640605927
411.0,-0.5805448293685913,-0.7037062644958496,1.9728851318359375,-2.1008412837982178,-0.5872253179550171,0.7401182055473328
412.0,-0.5805448293685913,-0.7037062644958496,1.9728851318359375,-2.1008412837982178,-0.5872253179550171,0.7401182055473328
413.0,-0.5778692066669464,-0.7065139710903168,1.9674570858478546,-2.0856627225875854,-0.5934735536575317,0.7310985922813416
414.0,-0.5751935839653015,-0.7093216776847839,1.9620290398597717,-2.070484161376953,-0.5997217893600464,0.7220789790153503
415.0,-0.5725179612636566,-0.7121293842792511,1.9566009938716888,-2.055305600166321,-0.605970025062561,0.7130593657493591
416.0,-0.5698423385620117,-0.7149370908737183,1.951172947883606,-2.0401270389556885,-0.6122182607650757,0.7040397524833679
417.0,-0.5698423385620117,-0.7149370908737183,1.951172947883606,-2.0401270389556885,-0.6122182607650757,0.7040397524833679
418.0,-0.5641072988510132,-0.7311403155326843,1.9563913345336914,-2.0379257202148438,-0.6151936054229736,0.7116913795471191
419.0,-0.5641072988510132,-0.7311403155326843,1.9563913345336914,-2.0379257202148438,-0.6151936054229736,0.7116913795471191
420.0,-0.5621773600578308,-0.7291232177189418,1.9475138528006417,-2.0209474563598633,-0.6232074839728219,0.6989438278334481
421.0,-0.5602474212646484,-0.7271061199051994,1.938636371067592,-2.003969192504883,-0.6312213625226702,0.6861962761197772
422.0,-0.5583174824714661,-0.7250890220914569,1.9297588893345423,-1.9869909286499023,-0.6392352410725185,0.6734487244061061
423.0,-0.5563875436782837,-0.7230719242777143,1.9208814076014928,-1.9700126647949219,-0.6472491196223668,0.6607011726924351
424.0,-0.5544576048851013,-0.7210548264639718,1.9120039258684431,-1.9530344009399414,-0.655262998172215,0.6479536209787642
425.0,-0.552527666091919,-0.7190377286502293,1.9031264441353934,-1.936056137084961,-0.6632768767220634,0.6352060692650932
426.0,-0.5505977272987366,-0.7170206308364868,1.8942489624023438,-1.9190778732299805,-0.6712907552719116,0.6224585175514221
427.0,-0.5505977272987366,-0.7170206308364868,1.8942489624023438,-1.9190778732299805,-0.6712907552719116,0.6224585175514221
428.0,-0.5560038685798645,-0.701316237449646,1.8883687257766724,-1.9196357727050781,-0.6689163446426392,0.6145517230033875
429.0,-0.5560038685798645,-0.701316237449646,1.8883687257766724,-1.9196357727050781,-0.6689163446426392,0.6145517230033875
430.0,-0.5556845267613729,-0.6955389579137167,1.8795599142710369,-1.9069054524103801,-0.6750858426094055,0.6031375726064047
431.0,-0.5553651849428812,-0.6897616783777872,1.8707511027654011,-1.894175132115682,-0.6812553405761719,0.5917234222094218
432.0,-0.5550458431243896,-0.6839843988418579,1.8619422912597656,-1.8814448118209839,-0.6874248385429382,0.580309271812439
433.0,-0.5550458431243896,-0.6839843988418579,1.8619422912597656,-1.8814448118209839,-0.6874248385429382,0.580309271812439
434.0,-0.5589694579442342,-0.6811254620552063,1.869192123413086,-1.8980336983998616,-0.6779195070266724,0.5899036129315695
435.0,-0.5628930727640787,-0.6782665252685547,1.8764419555664062,-1.9146225849787395,-0.6684141755104065,0.5994979540506998
436.0,-0.5668166875839233,-0.6754075884819031,1.8836917877197266,-1.9312114715576172,-0.6589088439941406,0.6090922951698303
437.0,-0.5668166875839233,-0.6754075884819031,1.8836917877197266,-1.9312114715576172,-0.6589088439941406,0.6090922951698303
438.0,-0.5666909068822861,-0.6682930737733841,1.8733946681022644,-1.9169529378414154,-0.6657503098249435,0.596258744597435
439.0,-0.5665651261806488,-0.6611785590648651,1.8630975484848022,-1.9026944041252136,-0.6725917756557465,0.5834251940250397
440.0,-0.5664393454790115,-0.6540640443563461,1.85280042886734,-1.8884358704090118,-0.6794332414865494,0.5705916434526443
441.0,-0.5663135647773743,-0.6469495296478271,1.842503309249878,-1.87417733669281,-0.6862747073173523,0.557758092880249
442.0,-0.5663135647773743,-0.6469495296478271,1.842503309249878,-1.87417733669281,-0.6862747073173523,0.557758092880249
443.0,-0.5670429319143295,-0.6526057124137878,1.852757304906845,-1.8901455253362656,-0.6788226813077927,0.5712117776274681
444.0,-0.5677722990512848,-0.6582618951797485,1.8630113005638123,-1.906113713979721,-0.671370655298233,0.5846654623746872
445.0,-0.56850166618824,-0.6639180779457092,1.8732652962207794,-1.9220819026231766,-0.6639186292886734,0.5981191471219063
446.0,-0.5692310333251953,-0.6695742607116699,1.8835192918777466,-1.938050091266632,-0.6564666032791138,0.6115728318691254
447.0,-0.5699604004621506,-0.6752304434776306,1.8937732875347137,-1.9540182799100876,-0.6490145772695541,0.6250265166163445
448.0,-0.5706897675991058,-0.6808866262435913,1.904027283191681,-1.969986468553543,-0.6415625512599945,0.6384802013635635
449.0,-0.5714191347360611,-0.686542809009552,1.914281278848648,-1.9859546571969986,-0.6341105252504349,0.6519338861107826
450.0,-0.5721485018730164,-0.6921989917755127,1.9245352745056152,-2.001922845840454,-0.6266584992408752,0.6653875708580017
451.0,-0.5721485018730164,-0.6921989917755127,1.9245352745056152,-2.001922845840454,-0.6266584992408752,0.6653875708580017
452.0,-0.5704174701656614,-0.6925758634294782,1.9274330650057112,-2.0190083980560303,-0.6375308505126408,0.6776918016728901
453.0,-0.5686864384583065,-0.6929527350834438,1.930330855505807,-2.0360939502716064,-0.6484032017844064,0.6899960324877784
454.0,-0.5669554067509515,-0.6933296067374093,1.933228646005903,-2.0531795024871826,-0.6592755530561719,0.7023002633026668
455.0,-0.5652243750435966,-0.6937064783913749,1.936126436505999,-2.070265054702759,-0.6701479043279376,0.7146044941175551
456.0,-0.5634933433362416,-0.6940833500453404,1.939024227006095,-2.087350606918335,-0.6810202555997031,0.7269087249324435
457.0,-0.5617623116288867,-0.694460221699306,1.9419220175061906,-2.104436159133911,-0.6918926068714687,0.7392129557473319
458.0,-0.5600312799215317,-0.6948370933532715,1.9448198080062866,-2.1215217113494873,-0.7027649581432343,0.7515171865622202
459.0,-0.5583002482141767,-0.695213965007237,1.9477175985063826,-2.1386072635650635,-0.7136373094149998,0.7638214173771086
460.0,-0.5565692165068218,-0.6955908366612026,1.9506153890064784,-2.1556928157806396,-0.7245096606867654,0.7761256481919969
461.0,-0.5548381847994668,-0.6959677083151681,1.9535131795065743,-2.172778367996216,-0.7353820119585309,0.7884298790068853
462.0,-0.5531071530921119,-0.6963445799691337,1.9564109700066703,-2.189863920211792,-0.7462543632302965,0.8007341098217737
463.0,-0.5513761213847569,-0.6967214516230992,1.9593087605067663,-2.206949472427368,-0.7571267145020621,0.813038340636662
464.0,-0.549645089677402,-0.6970983232770648,1.962206551006862,-2.2240350246429443,-0.7679990657738277,0.8253425714515504
465.0,-0.547914057970047,-0.6974751949310303,1.965104341506958,-2.2411205768585205,-0.7788714170455933,0.8376468022664387
466.0,-0.546183026262692,-0.6978520665849958,1.968002132007054,-2.2582061290740967,-0.7897437683173588,0.8499510330813271
467.0,-0.5444519945553371,-0.6982289382389614,1.9708999225071497,-2.275291681289673,-0.8006161195891244,0.8622552638962155
468.0,-0.5427209628479821,-0.6986058098929269,1.9737977130072457,-2.292377233505249,-0.81148847086089,0.874559494711104
469.0,-0.5409899311406272,-0.6989826815468925,1.9766955035073417,-2.309462785720825,-0.8223608221326555,0.8868637255259922
470.0,-0.5392588994332722,-0.699359553200858,1.9795932940074377,-2.3265483379364014,-0.8332331734044212,0.8991679563408805
471.0,-0.5375278677259173,-0.6997364248548236,1.9824910845075334,-2.3436338901519775,-0.8441055246761867,0.9114721871557689
472.0,-0.5357968360185623,-0.7001132965087891,1.9853888750076294,-2.3607194423675537,-0.8549778759479523,0.9237764179706573
473.0,-0.5340658043112074,-0.7004901681627546,1.9882866655077254,-2.37780499458313,-0.8658502272197178,0.9360806487855456
474.0,-0.5323347726038524,-0.7008670398167202,1.9911844560078211,-2.394890546798706,-0.8767225784914834,0.948384879600434
475.0,-0.5306037408964974,-0.7012439114706857,1.994082246507917,-2.4119760990142822,-0.887594929763249,0.9606891104153223
476.0,-0.5288727091891425,-0.7016207831246513,1.996980037008013,-2.4290616512298584,-0.8984672810350145,0.9729933412302108
477.0,-0.5271416774817875,-0.7019976547786168,1.999877827508109,-2.4461472034454346,-0.9093396323067802,0.9852975720450992
478.0,-0.5254106457744326,-0.7023745264325824,2.002775618008205,-2.4632327556610107,-0.9202119835785456,0.9976018028599876
479.0,-0.5236796140670776,-0.7027513980865479,2.005673408508301,-2.480318307876587,-0.9310843348503113,1.0099060336748757
480.0,-0.5219485823597226,-0.7031282697405133,2.0085711990083968,-2.497403860092163,-0.9419566861220768,1.0222102644897642
481.0,-0.5202175506523677,-0.703505141394479,2.0114689895084927,-2.5144894123077393,-0.9528290373938424,1.0345144953046526
482.0,-0.5184865189450127,-0.7038820130484444,2.0143667800085887,-2.5315749645233154,-0.963701388665608,1.046818726119541
483.0,-0.5167554872376579,-0.70425888470241,2.0172645705086842,-2.5486605167388916,-0.9745737399373735,1.0591229569344294
484.0,-0.5150244555303028,-0.7046357563563755,2.02016236100878,-2.5657460689544678,-0.9854460912091392,1.0714271877493178
485.0,-0.513293423822948,-0.7050126280103411,2.023060151508876,-2.582831621170044,-0.9963184424809047,1.0837314185642062
486.0,-0.511562392115593,-0.7053894996643066,2.025957942008972,-2.59991717338562,-1.0071907937526703,1.0960356493790944
487.0,-0.509831360408238,-0.7057663713182721,2.028855732509068,-2.6170027256011963,-1.0180631450244357,1.1083398801939828
488.0,-0.5081003287008831,-0.7061432429722377,2.031753523009164,-2.6340882778167725,-1.0289354962962014,1.1206441110088712
489.0,-0.5063692969935281,-0.7065201146262032,2.03465131350926,-2.6511738300323486,-1.039807847567967,1.1329483418237594
490.0,-0.5046382652861732,-0.7068969862801688,2.0375491040093556,-2.668259382247925,-1.0506801988397325,1.1452525726386478
491.0,-0.5029072335788182,-0.7072738579341343,2.0404468945094516,-2.685344934463501,-1.0615525501114982,1.1575568034535362
492.0,-0.5011762018714633,-0.7076507295880999,2.0433446850095476,-2.702430486679077,-1.0724249013832636,1.1698610342684246
493.0,-0.4994451701641083,-0.7080276012420654,2.0462424755096436,-2.7195160388946533,-1.0832972526550293,1.182165265083313
494.0,-0.4994451701641083,-0.7080276012420654,2.0462424755096436,-2.7195160388946533,-1.0832972526550293,1.182165265083313
495.0,-0.49599239230155945,-0.7081585824489594,2.037835717201233,-2.7043420672416687,-1.0923700630664825,1.162752091884613
496.0,-0.4925396144390106,-0.7082895636558533,2.0294289588928223,-2.689168095588684,-1.1014428734779358,1.143338918685913
497.0,-0.4890868365764618,-0.7084205448627472,2.0210222005844116,-2.6739941239356995,-1.110515683889389,1.1239257454872131
498.0,-0.48563405871391296,-0.7085515260696411,2.012615442276001,-2.658820152282715,-1.1195884943008423,1.1045125722885132
499.0,-0.48563405871391296,-0.7085515260696411,2.012615442276001,-2.658820152282715,-1.1195884943008423,1.1045125722885132
500.0,-0.4821590304374695,-0.7088736772537232,2.0139893531799316,-2.668612849712372,-1.1361922681331635,1.106863510608673
501.0,-0.478684002161026,-0.7091958284378052,2.015363264083862,-2.6784055471420287,-1.1527960419654846,1.109214448928833
502.0,-0.4752089738845825,-0.7095179796218872,2.016737174987793,-2.688198244571686,-1.1693998157978058,1.111565387248993
503.0,-0.471733945608139,-0.7098401308059692,2.0181110858917237,-2.6979909420013426,-1.1860035896301269,1.1139163255691529
504.0,-0.46825891733169556,-0.7101622819900513,2.0194849967956543,-2.7077836394309998,-1.2026073634624481,1.1162672638893127
505.0,-0.4647838890552521,-0.7104844331741333,2.020858907699585,-2.717576336860657,-1.2192111372947694,1.1186182022094726
506.0,-0.4613088607788086,-0.7108065843582153,2.0222328186035154,-2.7273690342903136,-1.2358149111270904,1.1209691405296325
507.0,-0.4578338325023651,-0.7111287355422974,2.0236067295074465,-2.737161731719971,-1.2524186849594117,1.1233200788497926
508.0,-0.4543588042259216,-0.7114508867263794,2.024980640411377,-2.7469544291496275,-1.2690224587917327,1.1256710171699524
509.0,-0.45088377594947815,-0.7117730379104614,2.0263545513153076,-2.7567471265792847,-1.285626232624054,1.1280219554901123
510.0,-0.4474087476730347,-0.7120951890945435,2.027728462219238,-2.766539824008942,-1.3022300064563752,1.1303728938102722
511.0,-0.4439337193965912,-0.7124173402786255,2.0291023731231688,-2.7763325214385985,-1.3188337802886962,1.132723832130432
512.0,-0.4404586911201477,-0.7127394914627075,2.0304762840271,-2.7861252188682557,-1.3354375541210175,1.1350747704505921
513.0,-0.4369836628437042,-0.7130616426467895,2.0318501949310304,-2.7959179162979124,-1.3520413279533385,1.137425708770752
514.0,-0.43350863456726074,-0.7133837938308716,2.033224105834961,-2.8057106137275696,-1.3686451017856598,1.1397766470909119
515.0,-0.43003360629081727,-0.7137059450149537,2.0345980167388915,-2.8155033111572267,-1.385248875617981,1.1421275854110717
516.0,-0.4265585780143738,-0.7140280961990356,2.035971927642822,-2.8252960085868835,-1.401852649450302,1.1444785237312316
517.0,-0.4230835497379303,-0.7143502473831177,2.037345838546753,-2.8350887060165406,-1.4184564232826233,1.1468294620513917
518.0,-0.4196085214614868,-0.7146723985671997,2.0387197494506837,-2.8448814034461973,-1.4350601971149444,1.1491804003715516
519.0,-0.41613349318504333,-0.7149945497512817,2.0400936603546143,-2.8546741008758545,-1.4516639709472656,1.1515313386917114
520.0,-0.41613349318504333,-0.7149945497512817,2.0400936603546143,-2.8546741008758545,-1.4516639709472656,1.1515313386917114
521.0,-0.4120363692442576,-0.7129970987637838,2.026384472846985,-2.8375345865885415,-1.4532986481984456,1.1557416915893555
522.0,-0.40793924530347186,-0.7109996477762858,2.0126752853393555,-2.820395072301229,-1.4549333254496257,1.1599520444869995
523.0,-0.40384212136268616,-0.7090021967887878,1.998966097831726,-2.803255558013916,-1.4565680027008057,1.1641623973846436
524.0,-0.40384212136268616,-0.7090021967887878,1.998966097831726,-2.803255558013916,-1.4565680027008057,1.1641623973846436
525.0,-0.3989541083574295,-0.7062409222126007,1.9857340455055237,-2.7911429405212402,-1.4644932746887207,1.169470489025116
526.0,-0.39406609535217285,-0.7034796476364136,1.9725019931793213,-2.7790303230285645,-1.4724185466766357,1.1747785806655884
527.0,-0.39406609535217285,-0.7034796476364136,1.9725019931793213,-2.7790303230285645,-1.4724185466766357,1.1747785806655884
528.0,-0.3881167769432068,-0.7005465229352316,1.959668517112732,-2.7679017384847007,-1.4785406986872356,1.181017239888509
529.0,-0.3821674585342407,-0.6976133982340494,1.9468350410461426,-2.7567731539408364,-1.4846628506978352,1.18725589911143
530.0,-0.37621814012527466,-0.6946802735328674,1.9340015649795532,-2.7456445693969727,-1.490785002708435,1.1934945583343506
531.0,-0.37621814012527466,-0.6946802735328674,1.9340015649795532,-2.7456445693969727,-1.490785002708435,1.1934945583343506
532.0,-0.37425654381513596,-0.6946416944265366,1.9283922612667084,-2.730957865715027,-1.4826754331588745,1.104259967803955
533.0,-0.37229494750499725,-0.6946031153202057,1.9227829575538635,-2.716271162033081,-1.474565863609314,1.0150253772735596
534.0,-0.37033335119485855,-0.6945645362138748,1.9171736538410187,-2.7015844583511353,-1.4664562940597534,0.9257907867431641
535.0,-0.36837175488471985,-0.694525957107544,1.9115643501281738,-2.6868977546691895,-1.4583467245101929,0.8365561962127686
536.0,-0.36837175488471985,-0.694525957107544,1.9115643501281738,-2.6868977546691895,-1.4583467245101929,0.8365561962127686
537.0,-0.3696495294570923,-0.695766806602478,1.910068392753601,-2.6716960271199546,-1.4544790983200073,0.7998949488004049
538.0,-0.3709273040294647,-0.6970076560974121,1.9085724353790283,-2.6564942995707193,-1.4506114721298218,0.7632337013880411
539.0,-0.37220507860183716,-0.6982485055923462,1.9070764780044556,-2.6412925720214844,-1.4467438459396362,0.7265724539756775
540.0,-0.37220507860183716,-0.6982485055923462,1.9070764780044556,-2.6412925720214844,-1.4467438459396362,0.7265724539756775
541.0,-0.3794642587502797,-0.7008516788482666,1.916261116663615,-2.6434499422709146,-1.4331802527109783,0.7579856117566427
542.0,-0.38672343889872235,-0.703454852104187,1.9254457553227742,-2.645607312520345,-1.41961665948232,0.7893987695376078
543.0,-0.3939826190471649,-0.7060580253601074,1.9346303939819336,-2.6477646827697754,-1.406053066253662,0.820811927318573
544.0,-0.3939826190471649,-0.7060580253601074,1.9346303939819336,-2.6477646827697754,-1.406053066253662,0.820811927318573
545.0,-0.3912236154079437,-0.7056151509284974,1.9388574361801147,-2.6648834228515623,-1.418646776676178,0.8591446936130523
546.0,-0.38846461176872255,-0.7051722764968872,1.943084478378296,-2.6820021629333497,-1.431240487098694,0.8974774599075317
547.0,-0.38570560812950133,-0.7047294020652771,1.947311520576477,-2.6991209030151366,-1.4438341975212097,0.9358102262020112
548.0,-0.3829466044902802,-0.704286527633667,1.9515385627746582,-2.716239643096924,-1.4564279079437257,0.9741429924964905
549.0,-0.38018760085105896,-0.7038436532020569,1.9557656049728394,-2.733358383178711,-1.4690216183662415,1.0124757587909698
550.0,-0.37742859721183775,-0.7034007787704468,1.9599926471710205,-2.750477123260498,-1.4816153287887572,1.0508085250854493
551.0,-0.3746695935726166,-0.7029579043388366,1.9642196893692017,-2.7675958633422852,-1.4942090392112732,1.0891412913799285
552.0,-0.3719105899333954,-0.7025150299072266,1.9684467315673828,-2.784714603424072,-1.506802749633789,1.127474057674408
553.0,-0.3691515862941742,-0.7020721554756164,1.972673773765564,-2.8018333435058596,-1.519396460056305,1.1658068239688872
554.0,-0.366392582654953,-0.7016292810440063,1.9769008159637451,-2.8189520835876465,-1.5319901704788208,1.2041395902633667
555.0,-0.366392582654953,-0.7016292810440063,1.9769008159637451,-2.8189520835876465,-1.5319901704788208,1.2041395902633667
556.0,-0.3610270619392395,-0.6992866098880768,1.9671379923820496,-2.8113996982574463,-1.5343810319900513,1.2095473408699036
557.0,-0.355661541223526,-0.6969439387321472,1.957375168800354,-2.803847312927246,-1.5367718935012817,1.2149550914764404
558.0,-0.355661541223526,-0.6969439387321472,1.957375168800354,-2.803847312927246,-1.5367718935012817,1.2149550914764404
559.0,-0.3488878458738327,-0.693903923034668,1.9456350207328796,-2.79536771774292,-1.540191888809204,1.2217763662338257
560.0,-0.3421141505241394,-0.6908639073371887,1.9338948726654053,-2.7868881225585938,-1.5436118841171265,1.228597640991211
561.0,-0.3421141505241394,-0.6908639073371887,1.9338948726654053,-2.7868881225585938,-1.5436118841171265,1.228597640991211
562.0,-0.33669158816337585,-0.6873867809772491,1.9215554594993591,-2.7787718772888184,-1.5479665398597717,1.2340611815452576
563.0,-0.3312690258026123,-0.6839096546173096,1.909216046333313,-2.770655632019043,-1.552321195602417,1.2395247220993042
564.0,-0.3312690258026123,-0.6839096546173096,1.909216046333313,-2.770655632019043,-1.552321195602417,1.2395247220993042
565.0,-0.32481876015663147,-0.6814531981945038,1.9003748297691345,-2.7645705938339233,-1.5549729466438293,1.2459932565689087
566.0,-0.31836849451065063,-0.678996741771698,1.891533613204956,-2.7584855556488037,-1.5576246976852417,1.2524617910385132
567.0,-0.31836849451065063,-0.678996741771698,1.891533613204956,-2.7584855556488037,-1.5576246976852417,1.2524617910385132
568.0,-0.30669961869716644,-0.6752168536186218,1.8790473937988281,-2.7514021396636963,-1.5607517957687378,1.2641364932060242
569.0,-0.29503074288368225,-0.6714369654655457,1.8665611743927002,-2.744318723678589,-1.5638788938522339,1.2758111953735352
570.0,-0.29503074288368225,-0.6714369654655457,1.8665611743927002,-2.744318723678589,-1.5638788938522339,1.2758111953735352
571.0,-0.2849099040031433,-0.6665126085281372,1.8526419401168823,-2.740349769592285,-1.567859172821045,1.2859184741973877
572.0,-0.2849099040031433,-0.6665126085281372,1.8526419401168823,-2.740349769592285,-1.567859172821045,1.2859184741973877
573.0,-0.2759307324886322,-0.662614643573761,1.841768205165863,-2.7375024557113647,-1.5699554681777954,1.294886291027069
574.0,-0.2669515609741211,-0.6587166786193848,1.8308944702148438,-2.7346551418304443,-1.572051763534546,1.3038541078567505
575.0,-0.2669515609741211,-0.6587166786193848,1.8308944702148438,-2.7346551418304443,-1.572051763534546,1.3038541078567505
576.0,-0.2544763684272766,-0.6579992175102234,1.828710675239563,-2.7335710525512695,-1.573035717010498,1.3163281679153442
577.0,-0.2544763684272766,-0.6579992175102234,1.828710675239563,-2.7335710525512695,-1.573035717010498,1.3163281679153442
578.0,-0.24720778316259384,-0.6546046137809753,1.8196210265159607,-2.731909990310669,-1.573487401008606,1.3235920667648315
579.0,-0.23993919789791107,-0.6512100100517273,1.8105313777923584,-2.7302489280700684,-1.5739390850067139,1.3308559656143188
580.0,-0.23993919789791107,-0.6512100100517273,1.8105313777923584,-2.7302489280700684,-1.5739390850067139,1.3308559656143188
581.0,-0.2384725570678711,-0.6509820342063903,1.8051004648208617,-2.7157010078430175,-1.5718876361846923,1.3323668718338013
582.0,-0.23700591623783113,-0.6507540583610535,1.7996695518493653,-2.7011530876159666,-1.569836187362671,1.3338777780532838
583.0,-0.23553927540779113,-0.6505260825157165,1.7942386388778686,-2.686605167388916,-1.5677847385406494,1.335388684272766
584.0,-0.23407263457775115,-0.6502981066703797,1.7888077259063722,-2.6720572471618653,-1.565733289718628,1.3368995904922485
585.0,-0.23260599374771118,-0.6500701308250427,1.7833768129348755,-2.6575093269348145,-1.5636818408966064,1.338410496711731
586.0,-0.23260599374771118,-0.6500701308250427,1.7833768129348755,-2.6575093269348145,-1.5636818408966064,1.338410496711731
587.0,-0.2451229691505432,-0.6480728983879089,1.7770453691482544,-2.6506869792938232,-1.560975193977356,1.3259172439575195
588.0,-0.2451229691505432,-0.6480728983879089,1.7770453691482544,-2.6506869792938232,-1.560975193977356,1.3259172439575195
589.0,-0.24956682324409485,-0.6519770920276642,1.786442220211029,-2.6511701345443726,-1.5582046508789062,1.3215208649635315
590.0,-0.2540106773376465,-0.6558812856674194,1.7958390712738037,-2.651653289794922,-1.5554341077804565,1.3171244859695435
591.0,-0.2540106773376465,-0.6558812856674194,1.7958390712738037,-2.651653289794922,-1.5554341077804565,1.3171244859695435
592.0,-0.2634994387626648,-0.653414785861969,1.7917183637619019,-2.655066728591919,-1.5545917749404907,1.3075716495513916
593.0,-0.2634994387626648,-0.653414785861969,1.7917183637619019,-2.655066728591919,-1.5545917749404907,1.3075716495513916
594.0,-0.26418108401233203,-0.6522554314299805,1.7865340742346358,-2.6377411754163975,-1.551397548962946,1.2916979797898906
595.0,-0.2648627292619993,-0.6510960769979921,1.7813497847073698,-2.6204156222408765,-1.5482033229854009,1.2758243100283897
596.0,-0.2655443745116665,-0.6499367225660037,1.7761654951801038,-2.603090069065355,-1.545009097007856,1.2599506402668887
597.0,-0.26622601976133375,-0.6487773681340152,1.7709812056528378,-2.585764515889834,-1.541814871030311,1.2440769705053878
598.0,-0.26690766501100094,-0.6476180137020268,1.765796916125572,-2.5684389627143127,-1.5386206450527662,1.2282033007438868
599.0,-0.2675893102606682,-0.6464586592700383,1.760612626598306,-2.5511134095387917,-1.5354264190752211,1.2123296309823859
600.0,-0.2682709555103354,-0.6452993048380499,1.75542833707104,-2.5337878563632703,-1.5322321930976763,1.196455961220885
601.0,-0.26895260076000266,-0.6441399504060614,1.750244047543774,-2.5164623031877493,-1.5290379671201313,1.180582291459384
602.0,-0.2696342460096699,-0.642980595974073,1.745059758016508,-2.499136750012228,-1.5258437411425865,1.164708621697883
603.0,-0.27031589125933714,-0.6418212415420845,1.739875468489242,-2.481811196836707,-1.5226495151650417,1.148834951936382
604.0,-0.2709975365090044,-0.6406618871100961,1.7346911789619759,-2.4644856436611855,-1.5194552891874966,1.1329612821748811
605.0,-0.27167918175867156,-0.6395025326781076,1.7295068894347099,-2.447160090485664,-1.5162610632099518,1.1170876124133802
606.0,-0.2723608270083388,-0.6383431782461193,1.7243225999074439,-2.429834537310143,-1.5130668372324068,1.1012139426518792
607.0,-0.27304247225800604,-0.6371838238141309,1.719138310380178,-2.4125089841346217,-1.509872611254862,1.0853402728903783
608.0,-0.2737241175076733,-0.6360244693821424,1.713954020852912,-2.3951834309591007,-1.506678385277317,1.0694666031288773
609.0,-0.2744057627573405,-0.634865114950154,1.708769731325646,-2.3778578777835793,-1.503484159299772,1.0535929333673764
610.0,-0.27508740800700776,-0.6337057605181655,1.70358544179838,-2.3605323246080583,-1.5002899333222273,1.0377192636058754
611.0,-0.275769053256675,-0.6325464060861771,1.698401152271114,-2.343206771432537,-1.4970957073446822,1.0218455938443745
612.0,-0.27645069850634224,-0.6313870516541886,1.693216862743848,-2.325881218257016,-1.4939014813671374,1.0059719240828735
613.0,-0.2771323437560095,-0.6302276972222002,1.688032573216582,-2.3085556650814945,-1.4907072553895924,0.9900982543213728
614.0,-0.27781398900567666,-0.6290683427902117,1.682848283689316,-2.291230111905973,-1.4875130294120475,0.9742245845598718
615.0,-0.2784956342553439,-0.6279089883582233,1.67766399416205,-2.273904558730452,-1.4843188034345025,0.9583509147983709
616.0,-0.27917727950501114,-0.6267496339262348,1.6724797046347841,-2.256579005554931,-1.4811245774569577,0.9424772450368699
617.0,-0.2798589247546784,-0.6255902794942464,1.667295415107518,-2.2392534523794096,-1.4779303514794129,0.926603575275369
618.0,-0.2805405700043456,-0.624430925062258,1.662111125580252,-2.2219278992038882,-1.4747361255018678,0.910729905513868
619.0,-0.28122221525401286,-0.6232715706302695,1.656926836052986,-2.2046023460283672,-1.471541899524323,0.8948562357523671
620.0,-0.2819038605036801,-0.622112216198281,1.65174254652572,-2.187276792852846,-1.468347673546778,0.8789825659908661
621.0,-0.2825855057533473,-0.6209528617662926,1.646558256998454,-2.169951239677325,-1.4651534475692332,0.8631088962293652
622.0,-0.28326715100301453,-0.6197935073343042,1.641373967471188,-2.1526256865018034,-1.4619592215916881,0.8472352264678642
623.0,-0.28394879625268177,-0.6186341529023157,1.636189677943922,-2.1353001333262824,-1.4587649956141433,0.8313615567063632
624.0,-0.284630441502349,-0.6174747984703273,1.631005388416656,-2.117974580150761,-1.4555707696365983,0.8154878869448623
625.0,-0.28531208675201625,-0.6163154440383388,1.6258210988893902,-2.1006490269752396,-1.4523765436590534,0.7996142171833613
626.0,-0.2859937320016835,-0.6151560896063504,1.6206368093621242,-2.0833234737997186,-1.4491823176815086,0.7837405474218604
627.0,-0.2866753772513507,-0.6139967351743619,1.6154525198348582,-2.0659979206241976,-1.4459880917039636,0.7678668776603594
628.0,-0.28735702250101797,-0.6128373807423735,1.6102682303075921,-2.048672367448676,-1.4427938657264188,0.7519932078988585
629.0,-0.2880386677506852,-0.6116780263103851,1.6050839407803261,-2.0313468142731548,-1.4395996397488737,0.7361195381373575
630.0,-0.2887203130003524,-0.6105186718783966,1.59989965125306,-2.014021261097634,-1.436405413771329,0.7202458683758566
631.0,-0.28940195825001963,-0.6093593174464083,1.594715361725794,-1.9966957079221124,-1.4332111877937839,0.7043721986143556
632.0,-0.29008360349968687,-0.6081999630144198,1.589531072198528,-1.9793701547465914,-1.430016961816239,0.6884985288528548
633.0,-0.2907652487493541,-0.6070406085824314,1.584346782671262,-1.96204460157107,-1.426822735838694,0.6726248590913538
634.0,-0.29144689399902135,-0.6058812541504429,1.579162493143996,-1.9447190483955488,-1.4236285098611492,0.6567511893298528
635.0,-0.2921285392486886,-0.6047218997184545,1.5739782036167302,-1.9273934952200276,-1.4204342838836044,0.6408775195683519
636.0,-0.29281018449835583,-0.603562545286466,1.5687939140894642,-1.9100679420445066,-1.4172400579060593,0.625003849806851
637.0,-0.29349182974802307,-0.6024031908544776,1.5636096245621982,-1.8927423888689852,-1.4140458319285145,0.60913018004535
638.0,-0.2941734749976903,-0.6012438364224891,1.5584253350349322,-1.8754168356934637,-1.4108516059509695,0.593256510283849
639.0,-0.2948551202473575,-0.6000844819905007,1.5532410455076662,-1.8580912825179428,-1.4076573799734247,0.5773828405223481
640.0,-0.29553676549702473,-0.5989251275585122,1.5480567559804002,-1.8407657293424216,-1.4044631539958798,0.5615091707608473
641.0,-0.296218410746692,-0.5977657731265238,1.5428724664531341,-1.8234401761669004,-1.4012689280183348,0.5456355009993462
642.0,-0.2969000559963592,-0.5966064186945353,1.5376881769258681,-1.806114622991379,-1.3980747020407898,0.5297618312378451
643.0,-0.29758170124602645,-0.5954470642625469,1.5325038873986023,-1.788789069815858,-1.394880476063245,0.5138881614763443
644.0,-0.2982633464956937,-0.5942877098305585,1.5273195978713363,-1.7714635166403365,-1.3916862500857001,0.49801449171484347
645.0,-0.29894499174536093,-0.59312835539857,1.5221353083440703,-1.7541379634648153,-1.388492024108155,0.4821408219533424
646.0,-0.2996266369950281,-0.5919690009665816,1.5169510188168043,-1.7368124102892941,-1.3852977981306103,0.46626715219184145
647.0,-0.30030828224469536,-0.5908096465345931,1.5117667292895383,-1.719486857113773,-1.3821035721530652,0.4503934824303405
648.0,-0.3009899274943626,-0.5896502921026047,1.5065824397622722,-1.7021613039382517,-1.3789093461755204,0.43451981266883966
649.0,-0.30167157274402984,-0.5884909376706162,1.5013981502350062,-1.6848357507627305,-1.3757151201979756,0.4186461429073387
650.0,-0.3023532179936971,-0.5873315832386278,1.4962138607077402,-1.6675101975872093,-1.3725208942204306,0.40277247314583764
651.0,-0.3030348632433643,-0.5861722288066393,1.4910295711804742,-1.650184644411688,-1.3693266682428857,0.3868988033843368
652.0,-0.30371650849303156,-0.585012874374651,1.4858452816532084,-1.632859091236167,-1.3661324422653407,0.37102513362283585
653.0,-0.30439815374269874,-0.5838535199426624,1.4806609921259424,-1.6155335380606457,-1.3629382162877959,0.3551514638613349
654.0,-0.30507979899236604,-0.5826941655106741,1.4754767025986764,-1.5982079848851243,-1.3597439903102508,0.33927779409983383
655.0,-0.3057614442420332,-0.5815348110786857,1.4702924130714103,-1.580882431709603,-1.356549764332706,0.323404124338333
656.0,-0.30644308949170046,-0.5803754566466972,1.4651081235441443,-1.563556878534082,-1.353355538355161,0.30753045457683204
657.0,-0.3071247347413677,-0.5792161022147088,1.4599238340168783,-1.5462313253585607,-1.3501613123776162,0.2916567848153311
658.0,-0.30780637999103494,-0.5780567477827203,1.4547395444896123,-1.5289057721830395,-1.3469670864000713,0.27578311505383013
659.0,-0.3084880252407022,-0.5768973933507319,1.4495552549623463,-1.5115802190075183,-1.3437728604225263,0.2599094452923292
660.0,-0.3091696704903694,-0.5757380389187434,1.4443709654350805,-1.494254665831997,-1.3405786344449815,0.24403577553082823
661.0,-0.30985131574003666,-0.574578684486755,1.4391866759078145,-1.4769291126564759,-1.3373844084674364,0.22816210576932727
662.0,-0.31053296098970384,-0.5734193300547665,1.4340023863805484,-1.4596035594809544,-1.3341901824898916,0.21228843600782632
663.0,-0.3112146062393711,-0.5722599756227781,1.4288180968532824,-1.4422780063054335,-1.3309959565123466,0.19641476624632537
664.0,-0.3118962514890383,-0.5711006211907896,1.4236338073260164,-1.4249524531299123,-1.3278017305348018,0.18054109648482464
665.0,-0.31257789673870556,-0.5699412667588012,1.4184495177987504,-1.4076268999543908,-1.3246075045572567,0.16466742672332346
666.0,-0.3132595419883728,-0.5687819123268127,1.4132652282714844,-1.3903013467788696,-1.321413278579712,0.1487937569618225
667.0,-0.3132595419883728,-0.5687819123268127,1.4132652282714844,-1.3903013467788696,-1.321413278579712,0.1487937569618225
668.0,-0.3172095715999603,-0.559990406036377,1.4043446779251099,-1.3740866581598918,-1.3130661249160767,0.14790843427181244
669.0,-0.32115960121154785,-0.5511988997459412,1.3954241275787354,-1.3578719695409138,-1.3047189712524414,0.14702311158180237
670.0,-0.3251096308231354,-0.5424073934555054,1.3865035772323608,-1.341657280921936,-1.2963718175888062,0.1461377888917923
671.0,-0.3251096308231354,-0.5424073934555054,1.3865035772323608,-1.341657280921936,-1.2963718175888062,0.1461377888917923
672.0,-0.3327842056751251,-0.5381869673728943,1.3878583312034607,-1.3432852029800415,-1.281291425228119,0.15231529623270035
673.0,-0.34045878052711487,-0.5339665412902832,1.3892130851745605,-1.344913125038147,-1.2662110328674316,0.1584928035736084
674.0,-0.34045878052711487,-0.5339665412902832,1.3892130851745605,-1.344913125038147,-1.2662110328674316,0.1584928035736084
675.0,-0.3410089910030365,-0.5211988985538483,1.3759593963623047,-1.3360140323638916,-1.2691779732704163,0.15394201129674911
676.0,-0.34155920147895813,-0.5084312558174133,1.3627057075500488,-1.3271149396896362,-1.2721449136734009,0.14939121901988983
677.0,-0.34155920147895813,-0.5084312558174133,1.3627057075500488,-1.3271149396896362,-1.2721449136734009,0.14939121901988983
678.0,-0.3480236331621806,-0.5106479525566101,1.3708794116973877,-1.334281047185262,-1.2581949631373088,0.15649054447809854
679.0,-0.354488064845403,-0.5128646492958069,1.3790531158447266,-1.341447154680888,-1.2442450126012166,0.16358986993630728
680.0,-0.3609524965286255,-0.5150813460350037,1.3872268199920654,-1.3486132621765137,-1.2302950620651245,0.170689195394516
681.0,-0.3609524965286255,-0.5150813460350037,1.3872268199920654,-1.3486132621765137,-1.2302950620651245,0.170689195394516
682.0,-0.3681657512982686,-0.5161785284678141,1.39508056640625,-1.3555361032485962,-1.2146722078323364,0.17805430789788565
683.0,-0.3753790060679118,-0.5172757109006246,1.4029343128204346,-1.3624589443206787,-1.1990493535995483,0.18541942040125528
684.0,-0.38259226083755493,-0.5183728933334351,1.4107880592346191,-1.3693817853927612,-1.1834264993667603,0.19278453290462494
685.0,-0.38259226083755493,-0.5183728933334351,1.4107880592346191,-1.3693817853927612,-1.1834264993667603,0.19278453290462494
686.0,-0.3819987376530965,-0.5304131110509237,1.4230492115020752,-1.3773791392644246,-1.1800430615743,0.19804399212201437
687.0,-0.3814052144686381,-0.5424533287684122,1.4353103637695312,-1.3853764931360881,-1.17665962378184,0.20330345133940378
688.0,-0.3808116912841797,-0.5544935464859009,1.4475715160369873,-1.3933738470077515,-1.1732761859893799,0.2085629105567932
689.0,-0.3808116912841797,-0.5544935464859009,1.4475715160369873,-1.3933738470077515,-1.1732761859893799,0.2085629105567932
690.0,-0.3719225376844406,-0.5645007193088531,1.4493896961212158,-1.3921092748641968,-1.1881881356239319,0.2044357731938362
691.0,-0.36303338408470154,-0.5745078921318054,1.4512078762054443,-1.390844702720642,-1.2031000852584839,0.2003086358308792
692.0,-0.36303338408470154,-0.5745078921318054,1.4512078762054443,-1.390844702720642,-1.2031000852584839,0.2003086358308792
693.0,-0.3576226383447647,-0.5640073120594025,1.4356852173805237,-1.379720151424408,-1.219070017337799,0.18960192054510117
694.0,-0.3522118926048279,-0.5535067319869995,1.420162558555603,-1.3685956001281738,-1.2350399494171143,0.17889520525932312
695.0,-0.3522118926048279,-0.5535067319869995,1.420162558555603,-1.3685956001281738,-1.2350399494171143,0.17889520525932312
696.0,-0.34602896869182587,-0.5578410923480988,1.419208824634552,-1.366523027420044,-1.2466199398040771,0.17430466413497925
697.0,-0.33984604477882385,-0.562175452709198,1.418255090713501,-1.364450454711914,-1.25819993019104,0.16971412301063538
698.0,-0.33984604477882385,-0.562175452709198,1.418255090713501,-1.364450454711914,-1.25819993019104,0.16971412301063538
699.0,-0.3392299632231394,-0.5635587910811106,1.4230238636334738,-1.3814013044039408,-1.2617323080698648,0.17274892926216126
700.0,-0.33861388166745504,-0.5649421294530232,1.4277926365534463,-1.3983521540959676,-1.2652646859486898,0.17578373551368714
701.0,-0.3379978001117706,-0.5663254678249359,1.4325614094734191,-1.4153030037879943,-1.2687970638275146,0.178818541765213
702.0,-0.33738171855608623,-0.5677088061968486,1.437330182393392,-1.432253853480021,-1.2723294417063395,0.18185334801673889
703.0,-0.3367656370004018,-0.5690921445687612,1.4420989553133647,-1.4492047031720479,-1.2758618195851643,0.18488815426826477
704.0,-0.3361495554447174,-0.5704754829406739,1.4468677282333373,-1.4661555528640746,-1.2793941974639893,0.18792296051979065
705.0,-0.335533473889033,-0.5718588213125865,1.45163650115331,-1.4831064025561016,-1.282926575342814,0.19095776677131654
706.0,-0.3349173923333486,-0.5732421596844991,1.456405274073283,-1.5000572522481281,-1.286458953221639,0.1939925730228424
707.0,-0.3343013107776642,-0.5746254980564117,1.4611740469932557,-1.5170081019401551,-1.2899913311004638,0.19702737927436828
708.0,-0.3336852292219798,-0.5760088364283243,1.4659428199132283,-1.5339589516321819,-1.2935237089792888,0.20006218552589417
709.0,-0.33306914766629536,-0.577392174800237,1.470711592833201,-1.5509098013242086,-1.2970560868581136,0.20309699177742005
710.0,-0.332453066110611,-0.5787755131721497,1.4754803657531739,-1.5678606510162354,-1.3005884647369386,0.20613179802894593
711.0,-0.33183698455492655,-0.5801588515440623,1.4802491386731467,-1.5848115007082622,-1.3041208426157633,0.2091666042804718
712.0,-0.3312209029992422,-0.581542189915975,1.4850179115931192,-1.601762350400289,-1.3076532204945883,0.21220141053199768
713.0,-0.33060482144355774,-0.5829255282878876,1.489786684513092,-1.6187132000923157,-1.311185598373413,0.21523621678352356
714.0,-0.3299887398878733,-0.5843088666598002,1.4945554574330648,-1.6356640497843424,-1.3147179762522379,0.21827102303504944
715.0,-0.32937265833218893,-0.5856922050317128,1.4993242303530374,-1.6526148994763692,-1.3182503541310628,0.22130582928657533
716.0,-0.3287565767765045,-0.5870755434036254,1.5040930032730102,-1.669565749168396,-1.3217827320098876,0.22434063553810119
717.0,-0.3281404952208201,-0.5884588817755382,1.508861776192983,-1.6865165988604227,-1.3253151098887126,0.22737544178962707
718.0,-0.3275244136651357,-0.5898422201474508,1.5136305491129558,-1.7034674485524495,-1.3288474877675374,0.23041024804115295
719.0,-0.3269083321094513,-0.5912255585193634,1.5183993220329284,-1.7204182982444762,-1.3323798656463623,0.2334450542926788
720.0,-0.32629225055376687,-0.592608896891276,1.5231680949529012,-1.737369147936503,-1.3359122435251871,0.23647986054420472
721.0,-0.3256761689980825,-0.5939922352631887,1.527936867872874,-1.7543199976285297,-1.339444621404012,0.23951466679573058
722.0,-0.32506008744239806,-0.5953755736351013,1.5327056407928468,-1.7712708473205567,-1.3429769992828369,0.2425494730472565
723.0,-0.3244440058867137,-0.5967589120070139,1.5374744137128193,-1.7882216970125835,-1.3465093771616619,0.24558427929878235
724.0,-0.32382792433102925,-0.5981422503789267,1.5422431866327921,-1.8051725467046102,-1.3500417550404866,0.24861908555030823
725.0,-0.32321184277534487,-0.5995255887508393,1.547011959552765,-1.822123396396637,-1.3535741329193116,0.2516538918018341
726.0,-0.32259576121966044,-0.6009089271227519,1.5517807324727375,-1.8390742460886638,-1.3571065107981364,0.25468869805336
727.0,-0.321979679663976,-0.6022922654946645,1.5565495053927103,-1.8560250957806905,-1.3606388886769614,0.2577235043048859
728.0,-0.3213635981082916,-0.6036756038665771,1.561318278312683,-1.8729759454727173,-1.3641712665557861,0.26075831055641174
729.0,-0.3213635981082916,-0.6036756038665771,1.561318278312683,-1.8729759454727173,-1.3641712665557861,0.26075831055641174
730.0,-0.31245677173137665,-0.6018023788928986,1.554157316684723,-1.868065595626831,-1.3794532418251038,0.2425413727760315
731.0,-0.30354994535446167,-0.59992915391922,1.5469963550567627,-1.8631552457809448,-1.3947352170944214,0.22432443499565125
732.0,-0.30354994535446167,-0.59992915391922,1.5469963550567627,-1.8631552457809448,-1.3947352170944214,0.22432443499565125
733.0,-0.3036241941154003,-0.5976510923355818,1.5410477370023727,-1.8461737744510174,-1.3930986039340496,0.22107191872783005
734.0,-0.30369844287633896,-0.5953730307519436,1.5350991189479828,-1.82919230312109,-1.3914619907736778,0.21781940246000886
735.0,-0.3037726916372776,-0.5930949691683054,1.5291505008935928,-1.8122108317911625,-1.389825377613306,0.21456688619218767
736.0,-0.30384694039821625,-0.5908169075846672,1.5232018828392029,-1.795229360461235,-1.3881887644529343,0.21131436992436647
737.0,-0.3039211891591549,-0.588538846001029,1.517253264784813,-1.7782478891313076,-1.3865521512925625,0.20806185365654528
738.0,-0.30399543792009354,-0.5862607844173908,1.511304646730423,-1.7612664178013802,-1.3849155381321907,0.2048093373887241
739.0,-0.3040696866810322,-0.5839827228337526,1.505356028676033,-1.7442849464714527,-1.383278924971819,0.2015568211209029
740.0,-0.3041439354419708,-0.5817046612501144,1.499407410621643,-1.7273034751415253,-1.3816423118114471,0.1983043048530817
741.0,-0.30421818420290947,-0.5794265996664762,1.4934587925672531,-1.7103220038115978,-1.3800056986510754,0.1950517885852605
742.0,-0.3042924329638481,-0.5771485380828381,1.4875101745128632,-1.6933405324816704,-1.3783690854907036,0.19179927231743932
743.0,-0.30436668172478676,-0.5748704764991999,1.4815615564584732,-1.676359061151743,-1.3767324723303318,0.18854675604961812
744.0,-0.3044409304857254,-0.5725924149155617,1.4756129384040833,-1.6593775898218155,-1.37509585916996,0.18529423978179693
745.0,-0.30451517924666405,-0.5703143533319235,1.4696643203496933,-1.642396118491888,-1.3734592460095882,0.18204172351397574
746.0,-0.3045894280076027,-0.5680362917482853,1.4637157022953033,-1.6254146471619606,-1.3718226328492165,0.17878920724615455
747.0,-0.30466367676854134,-0.5657582301646471,1.4577670842409134,-1.6084331758320332,-1.3701860196888447,0.17553669097833335
748.0,-0.30473792552948,-0.5634801685810089,1.4518184661865234,-1.5914517045021057,-1.368549406528473,0.17228417471051216
749.0,-0.3048121742904186,-0.5612021069973707,1.4458698481321335,-1.5744702331721783,-1.3669127933681011,0.16903165844269097
750.0,-0.30488642305135727,-0.5589240454137325,1.4399212300777435,-1.5574887618422508,-1.3652761802077293,0.16577914217486978
751.0,-0.3049606718122959,-0.5566459838300943,1.4339726120233536,-1.5405072905123234,-1.3636395670473576,0.16252662590704858
752.0,-0.30503492057323456,-0.5543679222464561,1.4280239939689636,-1.523525819182396,-1.3620029538869858,0.1592741096392274
753.0,-0.3051091693341732,-0.552089860662818,1.4220753759145737,-1.5065443478524685,-1.360366340726614,0.1560215933714062
754.0,-0.30518341809511185,-0.5498117990791798,1.4161267578601837,-1.489562876522541,-1.3587297275662422,0.152769077103585
755.0,-0.3052576668560505,-0.5475337374955416,1.4101781398057938,-1.4725814051926136,-1.3570931144058704,0.1495165608357638
756.0,-0.30533191561698914,-0.5452556759119034,1.4042295217514038,-1.4555999338626862,-1.3554565012454987,0.14626404456794262
757.0,-0.3054061643779278,-0.5429776143282652,1.3982809036970139,-1.4386184625327587,-1.3538198880851269,0.14301152830012143
758.0,-0.3054804131388664,-0.540699552744627,1.392332285642624,-1.4216369912028313,-1.352183274924755,0.13975901203230023
759.0,-0.30555466189980507,-0.5384214911609888,1.386383667588234,-1.4046555198729038,-1.3505466617643833,0.13650649576447904
760.0,-0.3056289106607437,-0.5361434295773506,1.380435049533844,-1.3876740485429764,-1.3489100486040115,0.13325397949665785
761.0,-0.30570315942168236,-0.5338653679937124,1.374486431479454,-1.370692577213049,-1.3472734354436398,0.13000146322883666
762.0,-0.305777408182621,-0.5315873064100742,1.368537813425064,-1.3537111058831215,-1.345636822283268,0.12674894696101546
763.0,-0.30585165694355965,-0.529309244826436,1.3625891953706741,-1.336729634553194,-1.3440002091228962,0.12349643069319427
764.0,-0.3059259057044983,-0.5270311832427979,1.3566405773162842,-1.3197481632232666,-1.3423635959625244,0.12024391442537308
765.0,-0.3059259057044983,-0.5270311832427979,1.3566405773162842,-1.3197481632232666,-1.3423635959625244,0.12024391442537308
766.0,-0.3009036183357239,-0.5162631273269653,1.3417733907699585,-1.3090649843215942,-1.3557852506637573,0.11167376860976219
767.0,-0.29588133096694946,-0.5054950714111328,1.3269062042236328,-1.2983818054199219,-1.3692069053649902,0.1031036227941513
768.0,-0.29588133096694946,-0.5054950714111328,1.3269062042236328,-1.2983818054199219,-1.3692069053649902,0.1031036227941513
769.0,-0.30099552869796753,-0.48879286646842957,1.3115445375442505,-1.287412166595459,-1.36251962184906,0.1032801941037178
770.0,-0.30099552869796753,-0.48879286646842957,1.3115445375442505,-1.287412166595459,-1.36251962184906,0.1032801941037178
771.0,-0.3071078260739644,-0.4890214105447133,1.3161927858988445,-1.291446844736735,-1.349904974301656,0.10924734671910603
772.0,-0.31322012344996136,-0.48924995462099713,1.3208410342534382,-1.295481522878011,-1.3372903267542522,0.11521449933449428
773.0,-0.31933242082595825,-0.4894784986972809,1.3254892826080322,-1.299516201019287,-1.3246756792068481,0.12118165194988251
774.0,-0.31933242082595825,-0.4894784986972809,1.3254892826080322,-1.299516201019287,-1.3246756792068481,0.12118165194988251
775.0,-0.31884193420410156,-0.4978373199701309,1.3343242406845093,-1.3056914806365967,-1.3235383033752441,0.12345906347036362
776.0,-0.3183514475822449,-0.506196141242981,1.3431591987609863,-1.3118667602539062,-1.3224009275436401,0.12573647499084473
777.0,-0.3183514475822449,-0.506196141242981,1.3431591987609863,-1.3118667602539062,-1.3224009275436401,0.12573647499084473
778.0,-0.3170078108387609,-0.5090932192340973,1.3491674853909401,-1.329223967367603,-1.3260998418254237,0.12723282508311734
779.0,-0.31566417409527686,-0.5119902972252138,1.3551757720208937,-1.3465811744812997,-1.3297987561072073,0.12872917517538993
780.0,-0.3143205373517929,-0.5148873752163302,1.3611840586508475,-1.3639383815949964,-1.333497670388991,0.13022552526766254
781.0,-0.31297690060830885,-0.5177844532074467,1.367192345280801,-1.381295588708693,-1.3371965846707743,0.13172187535993515
782.0,-0.31163326386482487,-0.5206815311985631,1.3732006319107548,-1.3986527958223895,-1.3408954989525579,0.13321822545220774
783.0,-0.31028962712134084,-0.5235786091896796,1.3792089185407084,-1.4160100029360863,-1.3445944132343415,0.13471457554448035
784.0,-0.30894599037785686,-0.526475687180796,1.3852172051706622,-1.433367210049783,-1.348293327516125,0.13621092563675297
785.0,-0.3076023536343728,-0.5293727651719125,1.391225491800616,-1.4507244171634797,-1.3519922417979087,0.13770727572902555
786.0,-0.30625871689088885,-0.5322698431630288,1.3972337784305695,-1.4680816242771764,-1.3556911560796923,0.13920362582129817
787.0,-0.3049150801474048,-0.5351669211541452,1.4032420650605233,-1.485438831390873,-1.3593900703614759,0.14069997591357078
788.0,-0.30357144340392084,-0.5380639991452617,1.4092503516904769,-1.5027960385045698,-1.3630889846432594,0.14219632600584337
789.0,-0.3022278066604368,-0.5409610771363781,1.4152586383204306,-1.5201532456182665,-1.3667878989250428,0.14369267609811598
790.0,-0.3008841699169528,-0.5438581551274946,1.4212669249503844,-1.5375104527319632,-1.3704868132068264,0.1451890261903886
791.0,-0.2995405331734688,-0.546755233118611,1.427275211580338,-1.5548676598456599,-1.37418572748861,0.1466853762826612
792.0,-0.2981968964299848,-0.5496523111097275,1.4332834982102918,-1.5722248669593566,-1.3778846417703936,0.1481817263749338
793.0,-0.2968532596865008,-0.5525493891008438,1.4392917848402453,-1.589582074073053,-1.3815835560521772,0.1496780764672064
794.0,-0.2955096229430168,-0.5554464670919603,1.4453000714701991,-1.6069392811867498,-1.3852824703339608,0.151174426559479
795.0,-0.29416598619953277,-0.5583435450830767,1.4513083581001527,-1.6242964883004465,-1.3889813846157444,0.1526707766517516
796.0,-0.2928223494560488,-0.5612406230741932,1.4573166447301065,-1.6416536954141432,-1.392680298897528,0.15416712674402422
797.0,-0.29147871271256476,-0.5641377010653096,1.4633249313600603,-1.65901090252784,-1.3963792131793114,0.15566347683629683
798.0,-0.2901350759690808,-0.567034779056426,1.4693332179900138,-1.6763681096415366,-1.400078127461095,0.15715982692856942
799.0,-0.28879143922559675,-0.5699318570475425,1.4753415046199676,-1.6937253167552333,-1.4037770417428785,0.15865617702084203
800.0,-0.28744780248211277,-0.5728289350386588,1.4813497912499212,-1.71108252386893,-1.4074759560246621,0.16015252711311462
801.0,-0.28610416573862874,-0.5757260130297753,1.487358077879875,-1.7284397309826267,-1.4111748703064457,0.16164887720538723
802.0,-0.28476052899514476,-0.5786230910208917,1.4933663645098285,-1.7457969380963232,-1.4148737845882293,0.16314522729765984
803.0,-0.2834168922516608,-0.5815201690120082,1.4993746511397823,-1.76315414521002,-1.418572698870013,0.16464157738993246
804.0,-0.28207325550817675,-0.5844172470031246,1.505382937769736,-1.7805113523237166,-1.4222716131517963,0.16613792748220504
805.0,-0.2807296187646927,-0.5873143249942411,1.5113912243996896,-1.7978685594374133,-1.4259705274335799,0.16763427757447766
806.0,-0.27938598202120873,-0.5902114029853575,1.5173995110296434,-1.81522576655111,-1.4296694417153635,0.16913062766675024
807.0,-0.27804234527772476,-0.593108480976474,1.5234077976595972,-1.8325829736648067,-1.433368355997147,0.17062697775902286
808.0,-0.2766987085342407,-0.5960055589675903,1.5294160842895508,-1.8499401807785034,-1.4370672702789307,0.17212332785129547
