Sungjin-Park-dev/vision_inspection_sogang/data/sample/trajectory/229/gtsp_final.csv
time,ur20-shoulder_pan_joint,ur20-shoulder_lift_joint,ur20-elbow_joint,ur20-wrist_1_joint,ur20-wrist_2_joint,ur20-wrist_3_joint
0.0,-2.7713358402252197,-2.3488078117370605,-2.2953736782073975,-1.9662593603134155,-1.2188048362731934,0.11650532484054565
1.0,-2.770251214504242,-2.346135417620341,-2.292184074719747,-1.9827955067157745,-1.2191834648450215,0.12056412547826767
2.0,-2.769166588783264,-2.3434630235036216,-2.288994471232096,-1.9993316531181335,-1.2195620934168498,0.12462292611598969
3.0,-2.7680819630622864,-2.340790629386902,-2.285804867744446,-2.0158677995204926,-1.219940721988678,0.1286817267537117
4.0,-2.7669973373413086,-2.338118235270182,-2.2826152642567954,-2.0324039459228516,-1.220319350560506,0.13274052739143372
5.0,-2.765912711620331,-2.335445841153463,-2.2794256607691445,-2.0489400923252106,-1.2206979791323345,0.13679932802915573
6.0,-2.764828085899353,-2.332773447036743,-2.276236057281494,-2.0654762387275696,-1.2210766077041626,0.14085812866687775
7.0,-2.7637434601783752,-2.3301010529200235,-2.2730464537938437,-2.0820123851299286,-1.2214552362759907,0.14491692930459976
8.0,-2.7626588344573975,-2.327428658803304,-2.269856850306193,-2.0985485315322876,-1.221833864847819,0.14897572994232178
9.0,-2.7615742087364197,-2.3247562646865845,-2.2666672468185425,-2.1150846779346466,-1.2222124934196472,0.1530345305800438
10.0,-2.760489583015442,-2.3220838705698648,-2.263477643330892,-2.1316208243370056,-1.2225911219914753,0.1570933312177658
11.0,-2.759404957294464,-2.3194114764531455,-2.2602880398432412,-2.1481569707393646,-1.2229697505633037,0.16115213185548782
12.0,-2.7583203315734863,-2.316739082336426,-2.257098436355591,-2.1646931171417236,-1.2233483791351318,0.16521093249320984
13.0,-2.7583203315734863,-2.316739082336426,-2.257098436355591,-2.1646931171417236,-1.2233483791351318,0.16521093249320984
14.0,-2.758618950843811,-2.313173294067383,-2.2546412348747253,-2.173897385597229,-1.2392953038215637,0.15904659032821655
15.0,-2.7589175701141357,-2.30960750579834,-2.25218403339386,-2.1831016540527344,-1.2552422285079956,0.15288224816322327
16.0,-2.7592161893844604,-2.306041717529297,-2.2497268319129944,-2.1923059225082397,-1.2711891531944275,0.14671790599822998
17.0,-2.759514808654785,-2.302475929260254,-2.247269630432129,-2.201510190963745,-1.2871360778808594,0.1405535638332367
18.0,-2.759514808654785,-2.302475929260254,-2.247269630432129,-2.201510190963745,-1.2871360778808594,0.1405535638332367
19.0,-2.7655718008677166,-2.3023221174875896,-2.24757080078125,-2.197516902287801,-1.3041685024897258,0.13200038075447082
20.0,-2.7716287930806476,-2.302168305714925,-2.247871971130371,-2.193523613611857,-1.321200927098592,0.12344719767570496
21.0,-2.777685785293579,-2.3020144939422607,-2.248173141479492,-2.1895303249359133,-1.3382333517074585,0.11489401459693908
22.0,-2.7837427775065104,-2.3018606821695964,-2.2484743118286135,-2.185537036259969,-1.355265776316325,0.10634083151817322
23.0,-2.789799769719442,-2.301706870396932,-2.2487754821777344,-2.181543747584025,-1.3722982009251912,0.09778764843940735
24.0,-2.795856761932373,-2.3015530586242674,-2.2490766525268553,-2.177550458908081,-1.3893306255340576,0.08923446536064147
25.0,-2.8019137541453043,-2.301399246851603,-2.2493778228759767,-2.173557170232137,-1.406363050142924,0.0806812822818756
26.0,-2.8079707463582357,-2.301245435078939,-2.2496789932250976,-2.169563881556193,-1.4233954747517903,0.07212809920310974
27.0,-2.814027738571167,-2.3010916233062746,-2.249980163574219,-2.165570592880249,-1.4404278993606567,0.06357491612434388
28.0,-2.820084730784098,-2.30093781153361,-2.25028133392334,-2.161577304204305,-1.4574603239695232,0.055021733045578
29.0,-2.8261417229970296,-2.3007839997609456,-2.2505825042724608,-2.157584015528361,-1.4744927485783894,0.04646854996681214
30.0,-2.832198715209961,-2.3006301879882813,-2.250883674621582,-2.153590726852417,-1.4915251731872559,0.037915366888046254
31.0,-2.8382557074228925,-2.300476376215617,-2.251184844970703,-2.149597438176473,-1.5085575977961223,0.029362183809280393
32.0,-2.8443126996358234,-2.3003225644429524,-2.2514860153198244,-2.145604149500529,-1.5255900224049885,0.020809000730514518
33.0,-2.850369691848755,-2.300168752670288,-2.2517871856689453,-2.141610860824585,-1.542622447013855,0.012255817651748657
34.0,-2.850369691848755,-2.300168752670288,-2.2517871856689453,-2.141610860824585,-1.542622447013855,0.012255817651748657
35.0,-2.8477977200558313,-2.3034844398498535,-2.253968590184262,-2.1243434077815007,-1.5264907887107448,0.014872999371666657
36.0,-2.8452257482629073,-2.306800127029419,-2.2561499946995784,-2.1070759547384164,-1.5103591304076345,0.017490181091584657
37.0,-2.8426537764699837,-2.3101158142089844,-2.258331399214895,-2.0898085016953316,-1.4942274721045243,0.020107362811502657
38.0,-2.8400818046770597,-2.31343150138855,-2.2605128037302116,-2.0725410486522473,-1.4780958138014142,0.022724544531420657
39.0,-2.837509832884136,-2.3167471885681152,-2.2626942082455286,-2.055273595609163,-1.4619641554983038,0.025341726251338657
40.0,-2.834937861091212,-2.3200628757476807,-2.264875612760845,-2.0380061425660787,-1.4458324971951937,0.027958907971256657
41.0,-2.8323658892982886,-2.323378562927246,-2.2670570172761617,-2.0207386895229944,-1.4297008388920833,0.030576089691174656
42.0,-2.8297939175053646,-2.3266942501068115,-2.2692384217914783,-2.0034712364799097,-1.4135691805889732,0.033193271411092656
43.0,-2.827221945712441,-2.330009937286377,-2.271419826306795,-1.9862037834368254,-1.397437522285863,0.03581045313101065
44.0,-2.824649973919517,-2.3333256244659424,-2.2736012308221114,-1.968936330393741,-1.3813058639827527,0.038427634850928656
45.0,-2.8220780021265934,-2.336641311645508,-2.275782635337428,-1.9516688773506565,-1.3651742056796425,0.04104481657084666
46.0,-2.8195060303336694,-2.3399569988250732,-2.2779640398527445,-1.9344014243075722,-1.3490425473765324,0.043661998290764656
47.0,-2.816934058540746,-2.3432726860046387,-2.280145444368061,-1.917133971264488,-1.332910889073422,0.04627918001068265
48.0,-2.814362086747822,-2.346588373184204,-2.2823268488833777,-1.8998665182214034,-1.316779230770312,0.048896361730600656
49.0,-2.8117901149548983,-2.3499040603637695,-2.2845082533986947,-1.882599065178319,-1.3006475724672018,0.05151354345051866
50.0,-2.8092181431619743,-2.353219747543335,-2.2866896579140112,-1.8653316121352346,-1.2845159141640914,0.054130725170436655
51.0,-2.8066461713690507,-2.3565354347229004,-2.288871062429328,-1.8480641590921503,-1.2683842558609812,0.05674790689035465
52.0,-2.8040741995761267,-2.359851121902466,-2.2910524669446444,-1.8307967060490657,-1.252252597557871,0.059365088610272655
53.0,-2.801502227783203,-2.3631668090820312,-2.293233871459961,-1.8135292530059814,-1.2361209392547607,0.06198227033019066
54.0,-2.801502227783203,-2.3631668090820312,-2.293233871459961,-1.8135292530059814,-1.2361209392547607,0.06198227033019066
55.0,-2.800189232826233,-2.3672539353370667,-2.295107913017273,-1.7961580276489257,-1.2345522224903107,0.05814085812307894
56.0,-2.798876237869263,-2.3713410615921022,-2.296981954574585,-1.77878680229187,-1.2329835057258607,0.05429944591596723
57.0,-2.7975632429122923,-2.3754281878471373,-2.298855996131897,-1.7614155769348145,-1.2314147889614104,0.05045803370885551
58.0,-2.796250247955322,-2.3795153141021728,-2.300730037689209,-1.7440443515777588,-1.2298460721969604,0.046616621501743796
59.0,-2.794937252998352,-2.3836024403572083,-2.302604079246521,-1.7266731262207031,-1.2282773554325104,0.04277520929463208
60.0,-2.793624258041382,-2.3876895666122437,-2.304478120803833,-1.7093019008636474,-1.2267086386680603,0.03893379708752036
61.0,-2.792311263084412,-2.3917766928672792,-2.306352162361145,-1.6919306755065917,-1.2251399219036103,0.03509238488040864
62.0,-2.7909982681274412,-2.3958638191223143,-2.308226203918457,-1.6745594501495362,-1.22357120513916,0.03125097267329693
63.0,-2.789685273170471,-2.3999509453773498,-2.310100245475769,-1.6571882247924805,-1.22200248837471,0.027409560466185208
64.0,-2.788372278213501,-2.4040380716323853,-2.311974287033081,-1.6398169994354248,-1.22043377161026,0.023568148259073496
65.0,-2.787059283256531,-2.4081251978874207,-2.3138483285903932,-1.622445774078369,-1.21886505484581,0.019726736051961777
66.0,-2.7857462882995607,-2.4122123241424562,-2.315722370147705,-1.6050745487213134,-1.21729633808136,0.015885323844850058
67.0,-2.78443329334259,-2.4162994503974913,-2.317596411705017,-1.587703323364258,-1.2157276213169097,0.012043911637738346
68.0,-2.78312029838562,-2.4203865766525268,-2.319470453262329,-1.5703320980072022,-1.2141589045524597,0.008202499430626627
69.0,-2.78180730342865,-2.4244737029075623,-2.321344494819641,-1.5529608726501465,-1.2125901877880096,0.0043610872235149145
70.0,-2.7804943084716798,-2.4285608291625977,-2.3232185363769533,-1.5355896472930908,-1.2110214710235596,0.0005196750164031955
71.0,-2.7791813135147097,-2.4326479554176332,-2.325092577934265,-1.518218421936035,-1.2094527542591096,-0.0033217371907085236
72.0,-2.777868318557739,-2.4367350816726683,-2.3269666194915772,-1.5008471965789796,-1.2078840374946593,-0.007163149397820243
73.0,-2.776555323600769,-2.4408222079277038,-2.328840661048889,-1.4834759712219239,-1.2063153207302093,-0.011004561604931962
74.0,-2.775242328643799,-2.4449093341827393,-2.330714702606201,-1.4661047458648682,-1.2047466039657593,-0.014845973812043667
75.0,-2.775242328643799,-2.4449093341827393,-2.330714702606201,-1.4661047458648682,-1.2047466039657593,-0.014845973812043667
76.0,-2.769721342967107,-2.4414462584715624,-2.3287985141460714,-1.4829637179007897,-1.1914762969200428,-0.007741051188741739
77.0,-2.764200357290415,-2.4379831827603855,-2.326882325685941,-1.4998226899367113,-1.1782059898743262,-0.000636128565439811
78.0,-2.758679371613723,-2.4345201070492086,-2.3249661372258115,-1.5166816619726329,-1.1649356828286097,0.006468794057862118
79.0,-2.7531583859370303,-2.4310570313380313,-2.3230499487656813,-1.5335406340085542,-1.1516653757828932,0.013573716681164045
80.0,-2.7476374002603383,-2.4275939556268544,-2.3211337603055515,-1.5503996060444758,-1.1383950687371767,0.020678639304465972
81.0,-2.7421164145836463,-2.4241308799156775,-2.3192175718454213,-1.5672585780803974,-1.1251247616914601,0.027783561927767902
82.0,-2.7365954289069543,-2.4206678042045007,-2.3173013833852916,-1.584117550116319,-1.1118544546457438,0.03488848455106983
83.0,-2.7310744432302623,-2.417204728493324,-2.3153851949251614,-1.6009765221522405,-1.0985841476000273,0.04199340717437176
84.0,-2.7255534575535703,-2.413741652782147,-2.3134690064650316,-1.617835494188162,-1.0853138405543108,0.04909832979767369
85.0,-2.720032471876878,-2.4102785770709696,-2.3115528180049014,-1.6346944662240834,-1.0720435335085943,0.05620325242097561
86.0,-2.714511486200186,-2.4068155013597927,-2.3096366295447717,-1.651553438260005,-1.0587732264628777,0.06330817504427755
87.0,-2.7089905005234938,-2.403352425648616,-2.3077204410846415,-1.6684124102959266,-1.0455029194171612,0.07041309766757947
88.0,-2.7034695148468018,-2.399889349937439,-2.3058042526245117,-1.6852713823318481,-1.0322326123714447,0.0775180202908814
89.0,-2.6979485291701097,-2.396426274226262,-2.303888064164382,-1.7021303543677697,-1.0189623053257282,0.08462294291418333
90.0,-2.6924275434934177,-2.392963198515085,-2.3019718757042518,-1.7189893264036913,-1.0056919982800117,0.09172786553748526
91.0,-2.6869065578167257,-2.3895001228039083,-2.300055687244122,-1.7358482984396129,-0.9924216912342951,0.09883278816078718
92.0,-2.6813855721400333,-2.386037047092731,-2.298139498783992,-1.7527072704755344,-0.9791513841885786,0.1059377107840891
93.0,-2.6758645864633412,-2.382573971381554,-2.296223310323862,-1.7695662425114558,-0.9658810771428622,0.11304263340739104
94.0,-2.6703436007866492,-2.3791108956703773,-2.294307121863732,-1.7864252145473773,-0.9526107700971456,0.12014755603069296
95.0,-2.664822615109957,-2.3756478199592004,-2.292390933403602,-1.803284186583299,-0.9393404630514292,0.1272524786539949
96.0,-2.659301629433265,-2.3721847442480235,-2.290474744943472,-1.8201431586192205,-0.9260701560057126,0.1343574012772968
97.0,-2.653780643756573,-2.3687216685368466,-2.288558556483342,-1.837002130655142,-0.9127998489599961,0.14146232390059876
98.0,-2.6482596580798807,-2.3652585928256693,-2.286642368023212,-1.8538611026910634,-0.8995295419142797,0.1485672465239007
99.0,-2.6427386724031887,-2.3617955171144924,-2.284726179563082,-1.870720074726985,-0.8862592348685632,0.1556721691472026
100.0,-2.6372176867264967,-2.3583324414033155,-2.282809991102952,-1.8875790467629066,-0.8729889278228466,0.16277709177050453
101.0,-2.6316967010498047,-2.3548693656921387,-2.2808938026428223,-1.9044380187988281,-0.8597186207771301,0.16988201439380646
102.0,-2.6316967010498047,-2.3548693656921387,-2.2808938026428223,-1.9044380187988281,-0.8597186207771301,0.16988201439380646
103.0,-2.6301036711895103,-2.3562300205230713,-2.2779462626486113,-1.8972436587015789,-0.842495374155767,0.1625952971252528
104.0,-2.6285106413292163,-2.357590675354004,-2.2749987226544004,-1.8900492986043294,-0.8252721275344039,0.15530857985669916
105.0,-2.626917611468922,-2.3589513301849365,-2.2720511826601895,-1.88285493850708,-0.8080488809130408,0.1480218625881455
106.0,-2.625324581608628,-2.360311985015869,-2.2691036426659785,-1.8756605784098308,-0.7908256342916777,0.14073514531959186
107.0,-2.6237315517483335,-2.3616726398468018,-2.2661561026717676,-1.8684662183125813,-0.7736023876703146,0.13344842805103824
108.0,-2.6221385218880395,-2.3630332946777344,-2.2632085626775567,-1.861271858215332,-0.7563791410489515,0.12616171078248456
109.0,-2.620545492027745,-2.364393949508667,-2.2602610226833457,-1.8540774981180828,-0.7391558944275884,0.11887499351393092
110.0,-2.6189524621674507,-2.3657546043395996,-2.257313482689135,-1.8468831380208333,-0.7219326478062253,0.11158827624537729
111.0,-2.6173594323071567,-2.3671152591705322,-2.2543659426949243,-1.839688777923584,-0.7047094011848624,0.10430155897682364
112.0,-2.6157664024468623,-2.368475914001465,-2.2514184027007134,-1.8324944178263347,-0.6874861545634992,0.09701484170826999
113.0,-2.6141733725865683,-2.3698365688323975,-2.2484708627065024,-1.8253000577290852,-0.670262907942136,0.08972812443971633
114.0,-2.612580342726274,-2.37119722366333,-2.2455233227122915,-1.818105697631836,-0.6530396613207731,0.08244140717116269
115.0,-2.61098731286598,-2.3725578784942627,-2.2425757827180806,-1.8109113375345867,-0.63581641469941,0.07515468990260905
116.0,-2.6093942830056855,-2.3739185333251953,-2.2396282427238696,-1.8037169774373372,-0.6185931680780469,0.06786797263405539
117.0,-2.607801253145391,-2.375279188156128,-2.2366807027296587,-1.796522617340088,-0.6013699214566837,0.06058125536550174
118.0,-2.606208223285097,-2.3766398429870605,-2.2337331627354478,-1.7893282572428386,-0.5841466748353207,0.053294538096948105
119.0,-2.6046151934248027,-2.378000497817993,-2.230785622741237,-1.7821338971455891,-0.5669234282139576,0.046007820828394455
120.0,-2.6030221635645088,-2.379361152648926,-2.227838082747026,-1.7749395370483398,-0.5497001815925946,0.03872110355984082
121.0,-2.6014291337042144,-2.3807218074798584,-2.224890542752815,-1.7677451769510906,-0.5324769349712314,0.03143438629128714
122.0,-2.59983610384392,-2.382082462310791,-2.221943002758604,-1.760550816853841,-0.5152536883498683,0.02414766902273352
123.0,-2.598243073983626,-2.3834431171417236,-2.218995462764393,-1.7533564567565918,-0.49803044172850525,0.01686095175417987
124.0,-2.5966500441233316,-2.3848037719726562,-2.216047922770182,-1.7461620966593425,-0.4808071951071421,0.009574234485626193
125.0,-2.5950570142630376,-2.386164426803589,-2.213100382775971,-1.738967736562093,-0.463583948485779,0.002287517217072571
126.0,-2.593463984402743,-2.3875250816345215,-2.2101528427817603,-1.7317733764648438,-0.44636070186441595,-0.004999200051481079
127.0,-2.591870954542449,-2.388885736465454,-2.20720530278755,-1.7245790163675945,-0.42913745524305286,-0.012285917320034728
128.0,-2.590277924682155,-2.3902463912963867,-2.204257762793339,-1.717384656270345,-0.41191420862168976,-0.01957263458858835
129.0,-2.5886848948218604,-2.3916070461273193,-2.201310222799128,-1.7101902961730957,-0.39469096200032666,-0.026859351857142028
130.0,-2.5870918649615664,-2.392967700958252,-2.198362682804917,-1.7029959360758464,-0.37746771537896356,-0.03414606912569568
131.0,-2.585498835101272,-2.3943283557891846,-2.195415142810706,-1.695801575978597,-0.3602444687576005,-0.0414327863942493
132.0,-2.583905805240978,-2.395689010620117,-2.192467602816495,-1.6886072158813477,-0.3430212221362373,-0.048719503662802977
133.0,-2.5823127753806836,-2.39704966545105,-2.189520062822284,-1.6814128557840984,-0.3257979755148743,-0.056006220931356626
134.0,-2.5807197455203896,-2.3984103202819824,-2.1865725228280732,-1.6742184956868489,-0.30857472889351123,-0.06329293819991025
135.0,-2.579126715660095,-2.399770975112915,-2.1836249828338623,-1.6670241355895996,-0.29135148227214813,-0.0705796554684639
136.0,-2.577533685799801,-2.4011316299438477,-2.1806774428396514,-1.6598297754923503,-0.27412823565078503,-0.07786637273701755
137.0,-2.575940655939507,-2.4024922847747803,-2.1777299028454404,-1.652635415395101,-0.25690498902942194,-0.0851530900055712
138.0,-2.5743476260792124,-2.403852939605713,-2.1747823628512295,-1.6454410552978516,-0.23968174240805895,-0.09243980727412482
139.0,-2.5727545962189184,-2.4052135944366455,-2.1718348228570186,-1.638246695200602,-0.22245849578669574,-0.0997265245426785
140.0,-2.571161566358624,-2.406574249267578,-2.1688872828628076,-1.6310523351033528,-0.20523524916533264,-0.10701324181123217
141.0,-2.56956853649833,-2.4079349040985107,-2.1659397428685967,-1.6238579750061035,-0.18801200254396955,-0.1142999590797858
142.0,-2.5679755066380356,-2.4092955589294434,-2.1629922028743858,-1.6166636149088542,-0.17078875592260645,-0.12158667634833942
143.0,-2.5663824767777412,-2.410656213760376,-2.160044662880175,-1.6094692548116047,-0.15356550930124335,-0.1288733936168931
144.0,-2.5647894469174473,-2.4120168685913086,-2.1570971228859643,-1.6022748947143555,-0.13634226267988037,-0.13616011088544672
145.0,-2.563196417057153,-2.413377523422241,-2.1541495828917534,-1.5950805346171062,-0.11911901605851727,-0.14344682815400034
146.0,-2.561603387196859,-2.414738178253174,-2.1512020428975425,-1.5878861745198567,-0.10189576943715406,-0.15073354542255407
147.0,-2.5600103573365645,-2.4160988330841064,-2.1482545029033315,-1.5806918144226074,-0.08467252281579096,-0.1580202626911077
148.0,-2.5584173274762705,-2.417459487915039,-2.1453069629091206,-1.573497454325358,-0.06744927619442787,-0.16530697995966132
149.0,-2.556824297615976,-2.4188201427459717,-2.1423594229149097,-1.5663030942281086,-0.05022602957306488,-0.172593697228215
150.0,-2.5552312677556817,-2.4201807975769043,-2.1394118829206987,-1.5591087341308594,-0.03300278295170178,-0.17988041449676861
151.0,-2.5536382378953877,-2.421541452407837,-2.136464342926488,-1.55191437403361,-0.015779536330338684,-0.18716713176532224
152.0,-2.5520452080350933,-2.4229021072387695,-2.133516802932277,-1.5447200139363606,0.0014437102910244137,-0.19445384903387591
153.0,-2.5504521781747993,-2.424262762069702,-2.130569262938066,-1.5375256538391113,0.01866695691238751,-0.20174056630242954
154.0,-2.548859148314505,-2.4256234169006348,-2.127621722943855,-1.530331293741862,0.03589020353375061,-0.20902728357098316
155.0,-2.5472661184542105,-2.4269840717315674,-2.124674182949644,-1.5231369336446126,0.053113450155113706,-0.2163140008395369
156.0,-2.5456730885939165,-2.4283447265625,-2.121726642955433,-1.5159425735473633,0.0703366967764768,-0.2236007181080905
157.0,-2.544080058733622,-2.4297053813934326,-2.118779102961222,-1.5087482134501138,0.0875599433978399,-0.23088743537664413
158.0,-2.542487028873328,-2.4310660362243652,-2.1158315629670112,-1.5015538533528645,0.104783190019203,-0.2381741526451978
159.0,-2.5408939990130337,-2.432426691055298,-2.1128840229728003,-1.4943594932556152,0.1220064366405661,-0.24546086991375143
160.0,-2.5393009691527397,-2.4337873458862305,-2.10993648297859,-1.487165133158366,0.13922968326192908,-0.25274758718230506
161.0,-2.5377079392924453,-2.435148000717163,-2.106988942984379,-1.4799707730611165,0.15645292988329218,-0.26003430445085873
162.0,-2.536114909432151,-2.4365086555480957,-2.104041402990168,-1.4727764129638672,0.1736761765046555,-0.2673210217194124
163.0,-2.534521879571857,-2.4378693103790283,-2.101093862995957,-1.4655820528666177,0.19089942312601837,-0.27460773898796603
164.0,-2.5329288497115625,-2.439229965209961,-2.098146323001746,-1.4583876927693684,0.20812266974738147,-0.2818944562565197
165.0,-2.5313358198512685,-2.4405906200408936,-2.095198783007535,-1.4511933326721191,0.22534591636874457,-0.28918117352507333
166.0,-2.529742789990974,-2.441951274871826,-2.092251243013324,-1.4439989725748696,0.24256916299010767,-0.29646789079362695
167.0,-2.52814976013068,-2.443311929702759,-2.0893037030191133,-1.4368046124776204,0.25979240961147076,-0.30375460806218063
168.0,-2.5265567302703857,-2.4446725845336914,-2.0863561630249023,-1.429610252380371,0.27701565623283386,-0.31104132533073425
169.0,-2.5265567302703857,-2.4446725845336914,-2.0863561630249023,-1.429610252380371,0.27701565623283386,-0.31104132533073425
170.0,-2.5147208230553475,-2.436663460151284,-2.0689570054543758,-1.4286440257477548,0.2625455232584371,-0.3096650363050222
171.0,-2.5028849158403093,-2.428654335768877,-2.051557847883849,-1.4276777991151388,0.24807539028404033,-0.30828874727931005
172.0,-2.491049008625271,-2.4206452113864696,-2.034158690313322,-1.4267115724825226,0.23360525730964357,-0.306912458253598
173.0,-2.4792131014102328,-2.412636087004062,-2.0167595327427956,-1.4257453458499065,0.2191351243352468,-0.3055361692278859
174.0,-2.4673771941951945,-2.404626962621655,-1.999360375172269,-1.4247791192172903,0.20466499136085003,-0.30415988020217377
175.0,-2.4555412869801563,-2.396617838239248,-1.9819612176017423,-1.423812892584674,0.19019485838645328,-0.3027835911764617
176.0,-2.443705379765118,-2.3886087138568404,-1.9645620600312157,-1.422846665952058,0.17572472541205653,-0.3014073021507496
177.0,-2.43186947255008,-2.3805995894744334,-1.9471629024606891,-1.4218804393194417,0.16125459243765974,-0.3000310131250375
178.0,-2.4200335653350415,-2.372590465092026,-1.9297637448901623,-1.4209142126868257,0.146784459463263,-0.2986547240993254
179.0,-2.4081976581200033,-2.3645813407096186,-1.9123645873196358,-1.4199479860542095,0.1323143264888662,-0.29727843507361335
180.0,-2.396361750904965,-2.3565722163272116,-1.894965429749109,-1.4189817594215932,0.11784419351446945,-0.2959021460479012
181.0,-2.384525843689927,-2.348563091944804,-1.8775662721785824,-1.4180155327889772,0.1033740605400727,-0.29452585702218914
182.0,-2.3726899364748886,-2.340553967562397,-1.8601671146080556,-1.417049306156361,0.08890392756567592,-0.29314956799647707
183.0,-2.3608540292598503,-2.33254484317999,-1.842767957037529,-1.416083079523745,0.07443379459127916,-0.291773278970765
184.0,-2.349018122044812,-2.3245357187975824,-1.8253687994670025,-1.4151168528911287,0.05996366161688241,-0.29039698994505286
185.0,-2.337182214829774,-2.3165265944151754,-1.8079696418964757,-1.4141506262585126,0.045493528642485626,-0.2890207009193408
186.0,-2.3253463076147356,-2.308517470032768,-1.7905704843259491,-1.4131843996258964,0.031023395668088843,-0.2876444118936287
187.0,-2.3135104003996974,-2.3005083456503606,-1.7731713267554223,-1.4122181729932801,0.016553262693692117,-0.2862681228679166
188.0,-2.3016744931846596,-2.2924992212679536,-1.7557721691848958,-1.411251946360664,0.0020831297192953624,-0.2848918338422045
189.0,-2.2898385859696213,-2.284490096885546,-1.7383730116143692,-1.4102857197280478,-0.012387003255101448,-0.28351554481649244
190.0,-2.278002678754583,-2.2764809725031387,-1.7209738540438424,-1.4093194930954318,-0.026857136229498202,-0.2821392557907803
191.0,-2.266166771539545,-2.2684718481207318,-1.7035746964733158,-1.4083532664628156,-0.041327269203894956,-0.28076296676506823
192.0,-2.2543308643245066,-2.2604627237383244,-1.686175538902789,-1.4073870398301993,-0.05579740217829171,-0.27938667773935616
193.0,-2.2424949571094683,-2.252453599355917,-1.6687763813322625,-1.4064208131975833,-0.07026753515268847,-0.27801038871364403
194.0,-2.23065904989443,-2.24444447497351,-1.6513772237617357,-1.405454586564967,-0.08473766812708527,-0.27663409968793196
195.0,-2.218823142679392,-2.2364353505911025,-1.633978066191209,-1.404488359932351,-0.09920780110148203,-0.2752578106622199
196.0,-2.2069872354643536,-2.228426226208695,-1.6165789086206825,-1.4035221332997347,-0.11367793407587878,-0.2738815216365078
197.0,-2.1951513282493154,-2.220417101826288,-1.5991797510501558,-1.4025559066671185,-0.12814806705027554,-0.2725052326107957
198.0,-2.183315421034277,-2.2124079774438807,-1.5817805934796292,-1.4015896800345025,-0.14261820002467235,-0.2711289435850836
199.0,-2.171479513819239,-2.2043988530614733,-1.5643814359091026,-1.4006234534018862,-0.15708833299906905,-0.2697526545593715
200.0,-2.1596436066042006,-2.1963897286790663,-1.5469822783385758,-1.3996572267692702,-0.1715584659734658,-0.2683763655336594
201.0,-2.1478076993891624,-2.188380604296659,-1.529583120768049,-1.398691000136654,-0.1860285989478626,-0.2670000765079473
202.0,-2.135971792174124,-2.1803714799142515,-1.5121839631975225,-1.3977247735040377,-0.20049873192225937,-0.26562378748223525
203.0,-2.124135884959086,-2.1723623555318445,-1.494784805626996,-1.3967585468714216,-0.21496886489665618,-0.2642474984565231
204.0,-2.1122999777440477,-2.164353231149437,-1.4773856480564693,-1.3957923202388054,-0.22943899787105282,-0.26287120943081105
205.0,-2.1004640705290094,-2.1563441067670297,-1.4599864904859423,-1.3948260936061894,-0.24390913084544963,-0.2614949204050989
206.0,-2.088628163313971,-2.1483349823846227,-1.4425873329154157,-1.3938598669735731,-0.25837926381984644,-0.26011863137938684
207.0,-2.076792256098933,-2.1403258580022153,-1.4251881753448892,-1.392893640340957,-0.27284939679424314,-0.25874234235367477
208.0,-2.0649563488838947,-2.132316733619808,-1.4077890177743626,-1.3919274137083408,-0.28731952976863995,-0.2573660533279627
209.0,-2.0531204416688564,-2.124307609237401,-1.3903898602038358,-1.3909611870757246,-0.30178966274303676,-0.25598976430225057
210.0,-2.041284534453818,-2.1162984848549935,-1.372990702633309,-1.3899949604431086,-0.31625979571743346,-0.2546134752765385
211.0,-2.02944862723878,-2.108289360472586,-1.3555915450627825,-1.3890287338104923,-0.33072992869183027,-0.25323718625082636
212.0,-2.0176127200237417,-2.100280236090179,-1.3381923874922559,-1.3880625071778763,-0.34520006166622696,-0.2518608972251143
213.0,-2.0057768128087035,-2.0922711117077717,-1.3207932299217293,-1.38709628054526,-0.3596701946406238,-0.2504846081994022
214.0,-1.9939409055936652,-2.0842619873253643,-1.3033940723512025,-1.3861300539126438,-0.3741403276150206,-0.2491083191736901
215.0,-1.982104998378627,-2.0762528629429573,-1.285994914780676,-1.3851638272800277,-0.3886104605894173,-0.24773203014797804
216.0,-1.9702690911635887,-2.06824373856055,-1.2685957572101492,-1.3841976006474115,-0.4030805935638141,-0.24635574112226594
217.0,-1.9584331839485505,-2.060234614178143,-1.2511965996396226,-1.3832313740147955,-0.4175507265382108,-0.24497945209655386
218.0,-1.9465972767335122,-2.0522254897957355,-1.2337974420690958,-1.3822651473821792,-0.4320208595126076,-0.24360316307084173
219.0,-1.934761369518474,-2.044216365413328,-1.216398284498569,-1.381298920749563,-0.4464909924870044,-0.24222687404512966
220.0,-1.922925462303436,-2.036207241030921,-1.1989991269280424,-1.380332694116947,-0.4609611254614011,-0.24085058501941758
221.0,-1.9110895550883977,-2.0281981166485137,-1.1815999693575159,-1.3793664674843307,-0.4754312584357979,-0.23947429599370548
222.0,-1.8992536478733595,-2.0201889922661063,-1.1642008117869893,-1.3784002408517146,-0.48990139141019473,-0.23809800696799338
223.0,-1.8874177406583212,-2.0121798678836993,-1.1468016542164627,-1.3774340142190984,-0.5043715243845914,-0.2367217179422813
224.0,-1.875581833443283,-2.004170743501292,-1.129402496645936,-1.3764677875864821,-0.5188416573589881,-0.2353454289165692
225.0,-1.8637459262282448,-1.9961616191188847,-1.1120033390754092,-1.375501560953866,-0.5333117903333849,-0.2339691398908571
226.0,-1.8519100190132065,-1.9881524947364773,-1.0946041815048826,-1.3745353343212499,-0.5477819233077817,-0.23259285086514503
227.0,-1.8400741117981683,-1.98014337035407,-1.0772050239343558,-1.3735691076886338,-0.5622520562821786,-0.23121656183943293
228.0,-1.82823820458313,-1.9721342459716626,-1.0598058663638292,-1.3726028810560176,-0.5767221892565753,-0.22984027281372083
229.0,-1.816402297368092,-1.9641251215892557,-1.0424067087933027,-1.3716366544234013,-0.591192322230972,-0.22846398378800875
230.0,-1.8045663901530538,-1.9561159972068483,-1.025007551222776,-1.3706704277907853,-0.6056624552053687,-0.22708769476229668
231.0,-1.7927304829380155,-1.948106872824441,-1.0076083936522493,-1.369704201158169,-0.6201325881797655,-0.22571140573658455
232.0,-1.7808945757229773,-1.9400977484420339,-0.9902092360817225,-1.368737974525553,-0.6346027211541623,-0.22433511671087247
233.0,-1.769058668507939,-1.9320886240596264,-0.9728100785111959,-1.3677717478929368,-0.6490728541285591,-0.2229588276851604
234.0,-1.7572227612929008,-1.9240794996772193,-0.9554109209406692,-1.3668055212603205,-0.6635429871029559,-0.22158253865944827
235.0,-1.7453868540778625,-1.916070375294812,-0.9380117633701426,-1.3658392946277045,-0.6780131200773526,-0.2202062496337362
236.0,-1.7335509468628243,-1.9080612509124046,-0.9206126057996158,-1.3648730679950882,-0.6924832530517494,-0.2188299606080241
237.0,-1.721715039647786,-1.9000521265299972,-0.9032134482290892,-1.3639068413624722,-0.7069533860261462,-0.217453671582312
238.0,-1.7098791324327478,-1.8920430021475902,-0.8858142906585627,-1.362940614729856,-0.7214235190005428,-0.21607738255659992
239.0,-1.6980432252177096,-1.8840338777651828,-0.8684151330880361,-1.3619743880972397,-0.7358936519749395,-0.21470109353088784
240.0,-1.6862073180026713,-1.8760247533827756,-0.8510159755175093,-1.3610081614646237,-0.7503637849493363,-0.21332480450517574
241.0,-1.674371410787633,-1.8680156290003684,-0.8336168179469825,-1.3600419348320074,-0.7648339179237331,-0.21194851547946364
242.0,-1.6625355035725948,-1.860006504617961,-0.8162176603764559,-1.3590757081993914,-0.7793040508981299,-0.21057222645375157
243.0,-1.6506995963575566,-1.8519973802355538,-0.7988185028059291,-1.3581094815667751,-0.7937741838725267,-0.20919593742803944
244.0,-1.6388636891425183,-1.8439882558531466,-0.7814193452354026,-1.3571432549341589,-0.8082443168469235,-0.20781964840232736
245.0,-1.62702778192748,-1.8359791314707392,-0.764020187664876,-1.3561770283015429,-0.8227144498213201,-0.2064433593766153
246.0,-1.6151918747124419,-1.8279700070883322,-0.7466210300943494,-1.3552108016689266,-0.837184582795717,-0.20506707035090319
247.0,-1.6033559674974036,-1.8199608827059248,-0.7292218725238226,-1.3542445750363106,-0.8516547157701138,-0.20369078132519108
248.0,-1.5915200602823654,-1.8119517583235174,-0.7118227149532961,-1.3532783484036943,-0.8661248487445106,-0.202314492299479
249.0,-1.5796841530673271,-1.8039426339411104,-0.6944235573827693,-1.3523121217710783,-0.8805949817189074,-0.2009382032737669
250.0,-1.5678482458522889,-1.795933509558703,-0.6770243998122427,-1.351345895138462,-0.8950651146933042,-0.1995619142480548
251.0,-1.5560123386372506,-1.7879243851762956,-0.6596252422417159,-1.3503796685058458,-0.9095352476677008,-0.19818562522234273
252.0,-1.5441764314222124,-1.7799152607938884,-0.6422260846711891,-1.3494134418732298,-0.9240053806420976,-0.19680933619663063
253.0,-1.5323405242071741,-1.7719061364114812,-0.6248269271006626,-1.3484472152406135,-0.9384755136164944,-0.19543304717091853
254.0,-1.5205046169921361,-1.763897012029074,-0.607427769530136,-1.3474809886079975,-0.952945646590891,-0.19405675814520645
255.0,-1.5086687097770979,-1.7558878876466668,-0.5900286119596094,-1.3465147619753812,-0.9674157795652878,-0.19268046911949438
256.0,-1.4968328025620596,-1.7478787632642594,-0.5726294543890826,-1.345548535342765,-0.9818859125396846,-0.19130418009378225
257.0,-1.4849968953470214,-1.7398696388818522,-0.5552302968185561,-1.344582308710149,-0.9963560455140814,-0.18992789106807018
258.0,-1.4731609881319832,-1.731860514499445,-0.5378311392480293,-1.3436160820775327,-1.0108261784884782,-0.1885516020423581
259.0,-1.461325080916945,-1.7238513901170376,-0.5204319816775027,-1.3426498554449167,-1.025296311462875,-0.18717531301664597
260.0,-1.4494891737019067,-1.7158422657346302,-0.5030328241069759,-1.3416836288123004,-1.0397664444372718,-0.1857990239909339
261.0,-1.4376532664868684,-1.7078331413522232,-0.48563366653644957,-1.3407174021796844,-1.0542365774116684,-0.18442273496522182
262.0,-1.4258173592718302,-1.6998240169698158,-0.4682345089659228,-1.3397511755470681,-1.0687067103860652,-0.18304644593950972
263.0,-1.413981452056792,-1.6918148925874086,-0.450835351395396,-1.3387849489144519,-1.083176843360462,-0.18167015691379762
264.0,-1.4021455448417537,-1.6838057682050014,-0.4334361938248694,-1.3378187222818358,-1.0976469763348586,-0.18029386788808555
265.0,-1.3903096376267154,-1.675796643822594,-0.41603703625434263,-1.3368524956492196,-1.1121171093092554,-0.17891757886237344
266.0,-1.3784737304116772,-1.6677875194401868,-0.39863787868381606,-1.3358862690166036,-1.1265872422836523,-0.17754128983666134
267.0,-1.366637823196639,-1.6597783950577796,-0.38123872111328927,-1.3349200423839873,-1.141057375258049,-0.17616500081094924
268.0,-1.3548019159816007,-1.6517692706753722,-0.3638395635427627,-1.333953815751371,-1.1555275082324459,-0.17478871178523717
269.0,-1.3429660087665625,-1.643760146292965,-0.3464404059722359,-1.332987589118755,-1.1699976412068427,-0.17341242275952506
270.0,-1.3311301015515244,-1.6357510219105578,-0.32904124840170956,-1.3320213624861388,-1.1844677741812393,-0.172036133733813
271.0,-1.3192941943364862,-1.6277418975281503,-0.31164209083118277,-1.3310551358535228,-1.198937907155636,-0.1706598447081009
272.0,-1.307458287121448,-1.6197327731457432,-0.294242933260656,-1.3300889092209065,-1.213408040130033,-0.16928355568238881
273.0,-1.2956223799064097,-1.611723648763336,-0.2768437756901294,-1.3291226825882902,-1.2278781731044297,-0.1679072666566767
274.0,-1.2837864726913715,-1.6037145243809285,-0.2594446181196026,-1.3281564559556742,-1.2423483060788265,-0.1665309776309646
275.0,-1.2719505654763332,-1.5957053999985213,-0.24204546054907605,-1.327190229323058,-1.2568184390532233,-0.1651546886052525
276.0,-1.260114658261295,-1.5876962756161141,-0.22464630297854926,-1.326224002690442,-1.27128857202762,-0.16377839957954043
277.0,-1.2482787510462567,-1.579687151233707,-0.20724714540802291,-1.3252577760578257,-1.2857587050020167,-0.16240211055382836
278.0,-1.2364428438312185,-1.5716780268512998,-0.18984798783749612,-1.3242915494252094,-1.3002288379764133,-0.16102582152811626
279.0,-1.2246069366161803,-1.5636689024688923,-0.17244883026696955,-1.3233253227925934,-1.3146989709508101,-0.15964953250240416
280.0,-1.212771029401142,-1.555659778086485,-0.15504967269644276,-1.3223590961599772,-1.329169103925207,-0.15827324347669205
281.0,-1.2009351221861038,-1.547650653704078,-0.1376505151259162,-1.3213928695273611,-1.3436392368996037,-0.15689695445097998
282.0,-1.1890992149710655,-1.5396415293216705,-0.1202513575553894,-1.3204266428947449,-1.3581093698740005,-0.15552066542526788
283.0,-1.1772633077560273,-1.5316324049392631,-0.10285219998486261,-1.3194604162621286,-1.3725795028483974,-0.15414437639955578
284.0,-1.165427400540989,-1.5236232805568561,-0.08545304241433582,-1.3184941896295126,-1.3870496358227942,-0.1527680873738437
285.0,-1.1535914933259508,-1.5156141561744487,-0.06805388484380925,-1.3175279629968963,-1.401519768797191,-0.1513917983481316
286.0,-1.1417555861109125,-1.5076050317920413,-0.050654727273282685,-1.3165617363642803,-1.4159899017715878,-0.1500155093224195
287.0,-1.1299196788958743,-1.499595907409634,-0.033255569702756116,-1.315595509731664,-1.4304600347459844,-0.1486392202967074
288.0,-1.118083771680836,-1.491586783027227,-0.015856412132229103,-1.3146292830990478,-1.4449301677203812,-0.14726293127099532
289.0,-1.106247864465798,-1.48357765864482,0.0015427454382970218,-1.3136630564664318,-1.4594003006947778,-0.14588664224528325
290.0,-1.0944119572507598,-1.4755685342624125,0.01894190300882359,-1.3126968298338155,-1.4738704336691746,-0.14451035321957117
291.0,-1.0825760500357215,-1.467559409880005,0.03634106057935016,-1.3117306032011995,-1.4883405666435712,-0.14313406419385907
292.0,-1.0707401428206833,-1.459550285497598,0.05374021814987717,-1.3107643765685832,-1.502810699617968,-0.14175777516814697
293.0,-1.058904235605645,-1.4515411611151907,0.07113937572040374,-1.309798149935967,-1.5172808325923648,-0.14038148614243487
294.0,-1.0470683283906068,-1.4435320367327835,0.08853853329093031,-1.308831923303351,-1.5317509655667616,-0.1390051971167228
295.0,-1.0352324211755686,-1.435522912350376,0.10593769086145732,-1.3078656966707347,-1.5462210985411584,-0.1376289080910107
296.0,-1.0233965139605303,-1.427513787967969,0.12333684843198389,-1.3068994700381187,-1.5606912315155552,-0.1362526190652986
297.0,-1.011560606745492,-1.4195046635855615,0.14073600600251046,-1.3059332434055024,-1.575161364489952,-0.13487633003958652
298.0,-0.9997246995304538,-1.4114955392031543,0.15813516357303703,-1.3049670167728862,-1.5896314974643488,-0.13350004101387442
299.0,-0.9878887923154156,-1.403486414820747,0.17553432114356404,-1.3040007901402701,-1.6041016304387457,-0.1321237519881623
300.0,-0.9760528851003774,-1.3954772904383397,0.1929334787140906,-1.303034563507654,-1.6185717634131425,-0.1307474629624502
301.0,-0.9642169778853391,-1.3874681660559325,0.21033263628461718,-1.3020683368750379,-1.633041896387539,-0.12937117393673814
302.0,-0.9523810706703009,-1.3794590416735253,0.22773179385514375,-1.3011021102424216,-1.6475120293619359,-0.12799488491102604
303.0,-0.9405451634552626,-1.3714499172911179,0.24513095142567076,-1.3001358836098054,-1.6619821623363327,-0.12661859588531393
304.0,-0.9287092562402244,-1.3634407929087107,0.26253010899619733,-1.2991696569771893,-1.6764522953107295,-0.12524230685960186
305.0,-0.9168733490251861,-1.3554316685263033,0.2799292665667239,-1.298203430344573,-1.6909224282851263,-0.12386601783388976
306.0,-0.9050374418101481,-1.3474225441438963,0.29732842413725047,-1.297237203711957,-1.7053925612595227,-0.12248972880817768
307.0,-0.8932015345951099,-1.339413419761489,0.31472758170777704,-1.2962709770793408,-1.7198626942339195,-0.12111343978246561
308.0,-0.8813656273800716,-1.3314042953790817,0.3321267392783036,-1.2953047504467248,-1.7343328272083163,-0.11973715075675351
309.0,-0.8695297201650334,-1.3233951709966745,0.3495258968488302,-1.2943385238141085,-1.7488029601827129,-0.1183608617310414
310.0,-0.8576938129499951,-1.3153860466142673,0.3669250544193572,-1.2933722971814923,-1.76327309315711,-0.1169845727053293
311.0,-0.8458579057349569,-1.3073769222318599,0.38432421198988376,-1.2924060705488762,-1.7777432261315065,-0.11560828367961723
312.0,-0.8340219985199187,-1.2993677978494527,0.4017233695604103,-1.29143984391626,-1.7922133591059035,-0.11423199465390513
313.0,-0.8221860913048804,-1.2913586734670452,0.41912252713093734,-1.290473617283644,-1.8066834920803,-0.11285570562819303
314.0,-0.8103501840898422,-1.283349549084638,0.4365216847014639,-1.2895073906510277,-1.8211536250546971,-0.11147941660248095
315.0,-0.7985142768748039,-1.2753404247022309,0.4539208422719905,-1.2885411640184115,-1.8356237580290937,-0.11010312757676885
316.0,-0.7866783696597657,-1.2673313003198234,0.47131999984251705,-1.2875749373857954,-1.8500938910034908,-0.10872683855105675
317.0,-0.7748424624447274,-1.2593221759374162,0.48871915741304406,-1.2866087107531792,-1.8645640239778873,-0.10735054952534465
318.0,-0.7630065552296892,-1.251313051555009,0.5061183149835706,-1.2856424841205631,-1.8790341569522844,-0.10597426049963257
319.0,-0.7511706480146509,-1.2433039271726016,0.5235174725540972,-1.284676257487947,-1.893504289926681,-0.10459797147392047
320.0,-0.7393347407996127,-1.2352948027901944,0.5409166301246238,-1.2837100308553306,-1.9079744229010775,-0.10322168244820837
321.0,-0.7274988335845747,-1.2272856784077872,0.5583157876951503,-1.2827438042227146,-1.9224445558754741,-0.10184539342249632
322.0,-0.7156629263695364,-1.21927655402538,0.5757149452656769,-1.2817775775900984,-1.9369146888498712,-0.10046910439678422
323.0,-0.7038270191544982,-1.2112674296429728,0.5931141028362035,-1.2808113509574823,-1.9513848218242678,-0.09909281537107212
324.0,-0.69199111193946,-1.2032583052605654,0.6105132604067305,-1.279845124324866,-1.9658549547986643,-0.09771652634536004
325.0,-0.6801552047244217,-1.1952491808781582,0.627912417977257,-1.27887889769225,-1.9803250877730614,-0.09634023731964794
326.0,-0.6683192975093835,-1.187240056495751,0.6453115755477836,-1.2779126710596338,-1.994795220747458,-0.09496394829393584
327.0,-0.6564833902943452,-1.1792309321133436,0.6627107331183102,-1.2769464444270175,-2.009265353721855,-0.09358765926822377
328.0,-0.644647483079307,-1.1712218077309364,0.6801098906888372,-1.2759802177944015,-2.0237354866962516,-0.09221137024251166
329.0,-0.6328115758642687,-1.1632126833485292,0.6975090482593638,-1.2750139911617853,-2.0382056196706486,-0.09083508121679956
330.0,-0.6209756686492305,-1.1552035589661218,0.7149082058298903,-1.2740477645291692,-2.052675752645045,-0.08945879219108746
331.0,-0.6091397614341922,-1.1471944345837146,0.7323073634004169,-1.273081537896553,-2.0671458856194422,-0.08808250316537539
332.0,-0.597303854219154,-1.1391853102013072,0.7497065209709439,-1.2721153112639367,-2.081616018593839,-0.08670621413966328
333.0,-0.5854679470041155,-1.1311761858189,0.7671056785414705,-1.2711490846313207,-2.0960861515682354,-0.08532992511395118
334.0,-0.5736320397890773,-1.1231670614364928,0.7845048361119971,-1.2701828579987045,-2.1105562845426324,-0.08395363608823911
335.0,-0.561796132574039,-1.1151579370540854,0.8019039936825241,-1.2692166313660884,-2.125026417517029,-0.082577347062527
336.0,-0.5499602253590008,-1.1071488126716782,0.8193031512530506,-1.2682504047334722,-2.139496550491426,-0.0812010580368149
337.0,-0.5381243181439626,-1.099139688289271,0.8367023088235772,-1.267284178100856,-2.1539666834658227,-0.0798247690111028
338.0,-0.5262884109289248,-1.0911305639068638,0.8541014663941033,-1.2663179514682399,-2.1684368164402192,-0.07844847998539076
339.0,-0.5144525037138865,-1.0831214395244566,0.8715006239646303,-1.2653517248356236,-2.182906949414616,-0.07707219095967865
340.0,-0.5026165964988483,-1.0751123151420492,0.8888997815351569,-1.2643854982030076,-2.197377082389013,-0.07569590193396658
341.0,-0.49078068928381,-1.067103190759642,0.9062989391056835,-1.2634192715703914,-2.2118472153634094,-0.07431961290825448
342.0,-0.4789447820687718,-1.0590940663772348,0.9236980966762101,-1.262453044937775,-2.2263173483378065,-0.07294332388254238
343.0,-0.46710887485373354,-1.0510849419948274,0.9410972542467371,-1.261486818305159,-2.240787481312203,-0.07156703485683027
344.0,-0.4552729676386953,-1.0430758176124202,0.9584964118172636,-1.2605205916725428,-2.2552576142866,-0.0701907458311182
345.0,-0.44343706042365705,-1.035066693230013,0.9758955693877902,-1.2595543650399268,-2.2697277472609967,-0.0688144568054061
346.0,-0.4316011532086188,-1.0270575688476056,0.9932947269583172,-1.2585881384073105,-2.2841978802353933,-0.067438167779694
347.0,-0.41976524599358056,-1.0190484444651984,1.0106938845288438,-1.2576219117746943,-2.2986680132097903,-0.06606187875398192
348.0,-0.4079293387785423,-1.011039320082791,1.0280930420993704,-1.2566556851420783,-2.313138146184187,-0.06468558972826982
349.0,-0.3960934315635041,-1.0030301957003838,1.045492199669897,-1.255689458509462,-2.327608279158584,-0.06330930070255772
350.0,-0.38425752434846583,-0.9950210713179766,1.062891357240424,-1.254723231876846,-2.3420784121329805,-0.06193301167684562
351.0,-0.3724216171334276,-0.9870119469355692,1.0802905148109505,-1.2537570052442297,-2.3565485451073775,-0.06055672265113354
352.0,-0.36058570991838934,-0.979002822553162,1.097689672381477,-1.2527907786116135,-2.371018678081774,-0.059180433625421414
353.0,-0.3487498027033511,-0.970993698170755,1.1150888299520032,-1.2518245519789974,-2.3854888110561707,-0.057804144599709395
354.0,-0.33691389548831285,-0.9629845737883476,1.1324879875225302,-1.2508583253463812,-2.3999589440305673,-0.056427855573997265
355.0,-0.3250779882732746,-0.9549754494059404,1.1498871450930568,-1.2498920987137652,-2.4144290770049643,-0.05505156654828519
356.0,-0.31324208105823637,-0.946966325023533,1.1672863026635834,-1.248925872081149,-2.428899209979361,-0.05367527752257312
357.0,-0.3014061738431981,-0.9389572006411258,1.1846854602341104,-1.2479596454485329,-2.443369342953758,-0.05229898849686099
358.0,-0.2895702666281599,-0.9309480762587186,1.202084617804637,-1.2469934188159166,-2.4578394759281545,-0.05092269947114891
359.0,-0.27773435941312163,-0.9229389518763111,1.2194837753751635,-1.2460271921833004,-2.472309608902551,-0.04954641044543684
360.0,-0.2658984521980834,-0.914929827493904,1.23688293294569,-1.2450609655506844,-2.486779741876948,-0.04817012141972471
361.0,-0.25406254498304515,-0.9069207031114968,1.254282090516217,-1.244094738918068,-2.5012498748513448,-0.046793832394012636
362.0,-0.2422266377680069,-0.8989115787290893,1.2716812480867437,-1.243128512285452,-2.515720007825742,-0.04541754336830056
363.0,-0.23039073055296866,-0.8909024543466821,1.2890804056572702,-1.2421622856528358,-2.5301901408001384,-0.04404125434258843
364.0,-0.21855482333793042,-0.8828933299642749,1.3064795632277968,-1.2411960590202196,-2.5446602737745354,-0.04266496531687636
365.0,-0.20671891612289217,-0.8748842055818675,1.3238787207983238,-1.2402298323876035,-2.559130406748932,-0.04128867629116423
366.0,-0.19488300890785393,-0.8668750811994603,1.3412778783688504,-1.2392636057549873,-2.573600539723329,-0.039912387265452154
367.0,-0.18304710169281568,-0.8588659568170529,1.358677035939377,-1.2382973791223713,-2.5880706726977256,-0.03853609823974008
368.0,-0.17121119447777744,-0.8508568324346457,1.376076193509904,-1.237331152489755,-2.6025408056721226,-0.03715980921402795
369.0,-0.1593752872627392,-0.8428477080522385,1.3934753510804305,-1.2363649258571388,-2.6170109386465192,-0.035783520188315876
370.0,-0.1475393800477014,-0.8348385836698313,1.4108745086509566,-1.2353986992245227,-2.631481071620916,-0.0344072311626038
371.0,-0.13570347283266315,-0.8268294592874241,1.4282736662214832,-1.2344324725919065,-2.6459512045953124,-0.03303094213689173
372.0,-0.12386756561762491,-0.8188203349050169,1.4456728237920102,-1.2334662459592904,-2.660421337569709,-0.031654653111179654
373.0,-0.11203165840258666,-0.8108112105226095,1.4630719813625368,-1.2325000193266742,-2.674891470544106,-0.030278364085467524
374.0,-0.10019575118754842,-0.8028020861402023,1.4804711389330634,-1.2315337926940582,-2.6893616035185026,-0.02890207505975545
375.0,-0.08835984397251018,-0.7947929617577949,1.4978702965035904,-1.230567566061442,-2.7038317364928997,-0.027525786034043376
376.0,-0.07652393675747193,-0.7867838373753877,1.515269454074117,-1.2296013394288257,-2.7183018694672962,-0.026149497008331246
377.0,-0.06468802954243369,-0.7787747129929805,1.5326686116446435,-1.2286351127962096,-2.7327720024416933,-0.024773207982619172
378.0,-0.052852122327395445,-0.7707655886105731,1.55006776921517,-1.2276688861635934,-2.74724213541609,-0.023396918956907042
379.0,-0.0410162151123572,-0.7627564642281659,1.567466926785697,-1.2267026595309773,-2.761712268390487,-0.022020629931194968
380.0,-0.029180307897318958,-0.7547473398457587,1.5848660843562237,-1.225736432898361,-2.7761824013648835,-0.020644340905482894
381.0,-0.017344400682280714,-0.7467382154633513,1.6022652419267502,-1.2247702062657448,-2.7906525343392805,-0.019268051879770765
382.0,-0.00550849346724247,-0.7387290910809441,1.6196643994972768,-1.2238039796331288,-2.805122667313677,-0.01789176285405869
383.0,0.006327413747795774,-0.7307199666985367,1.6370635570678038,-1.2228377530005126,-2.8195928002880737,-0.016515473828346616
384.0,0.01816332096283446,-0.7227108423161295,1.6544627146383304,-1.2218715263678965,-2.8340629332624707,-0.015139184802634487
385.0,0.02999922817787226,-0.7147017179337225,1.6718618722088565,-1.2209052997352803,-2.8485330662368673,-0.013762895776922468
386.0,0.041835135392910505,-0.7066925935513151,1.6892610297793835,-1.219939073102664,-2.863003199211264,-0.012386606751210338
387.0,0.05367104260794875,-0.6986834691689079,1.70666018734991,-1.218972846470048,-2.8774733321856605,-0.011010317725498264
388.0,0.06550694982298699,-0.6906743447865007,1.7240593449204367,-1.2180066198374317,-2.8919434651600575,-0.009634028699786135
389.0,0.07734285703802524,-0.6826652204040933,1.7414585024909632,-1.2170403932048157,-2.906413598134454,-0.00825773967407406
390.0,0.08917876425306348,-0.6746560960216861,1.7588576600614902,-1.2160741665721995,-2.920883731108851,-0.006881450648361986
391.0,0.10101467146810172,-0.6666469716392787,1.7762568176320168,-1.2151079399395832,-2.9353538640832477,-0.005505161622649857
392.0,0.11285057868313997,-0.6586378472568715,1.7936559752025434,-1.2141417133069672,-2.9498239970576448,-0.004128872596937783
393.0,0.12468648589817821,-0.6506287228744643,1.81105513277307,-1.213175486674351,-2.9642941300320413,-0.0027525835712257085
394.0,0.13652239311321646,-0.6426195984920569,1.828454290343597,-1.212209260041735,-2.9787642630064384,-0.0013762945455135789
395.0,0.1483583003282547,-0.6346104741096497,1.8458534479141235,-1.2112430334091187,-2.993234395980835,-5.519801504760835e-09
396.0,0.1483583003282547,-0.6346104741096497,1.8458534479141235,-1.2112430334091187,-2.993234395980835,-5.519801504760835e-09
397.0,0.14731062203645706,-0.6324142813682556,1.8356750011444092,-1.2032607793807983,-2.9942820072174072,-5.559483984285407e-09
398.0,0.14626294374465942,-0.6302180886268616,1.8254965543746948,-1.195278525352478,-2.9953296184539795,-5.599166463809979e-09
399.0,0.14626294374465942,-0.6302180886268616,1.8254965543746948,-1.195278525352478,-2.9953296184539795,-5.599166463809979e-09
400.0,0.14686601608991623,-0.6403585374355316,1.8335248827934265,-1.193166434764862,-2.994726538658142,-5.576186623557078e-09
401.0,0.14746908843517303,-0.6504989862442017,1.8415532112121582,-1.191054344177246,-2.9941234588623047,-5.5532067833041765e-09
402.0,0.14746908843517303,-0.6504989862442017,1.8415532112121582,-1.191054344177246,-2.9941234588623047,-5.5532067833041765e-09
403.0,0.14756977558135986,-0.6548802852630615,1.8434711694717407,-1.1885908842086792,-2.994022846221924,-5.54940449148944e-09
404.0,0.14756977558135986,-0.6548802852630615,1.8434711694717407,-1.1885908842086792,-2.994022846221924,-5.54940449148944e-09
405.0,0.14821667969226837,-0.6646631956100464,1.8515397310256958,-1.1868765354156494,-2.9933760166168213,-5.525095048142248e-09
406.0,0.14821667969226837,-0.6646631956100464,1.8515397310256958,-1.1868765354156494,-2.9933760166168213,-5.525095048142248e-09
407.0,0.14654485881328583,-0.665344774723053,1.8361845016479492,-1.1708396673202515,-2.9950478076934814,-5.588356888353019e-09
408.0,0.14654485881328583,-0.665344774723053,1.8361845016479492,-1.1708396673202515,-2.9950478076934814,-5.588356888353019e-09
409.0,0.14565975964069366,-0.6516107320785522,1.8248622417449951,-1.1732515096664429,-2.9959328174591064,-5.622435850227703e-09
410.0,0.14565975964069366,-0.6516107320785522,1.8248622417449951,-1.1732515096664429,-2.9959328174591064,-5.622435850227703e-09
411.0,0.14515282958745956,-0.6567172706127167,1.8210763335227966,-1.1643590927124023,-2.996439814567566,-5.6422100325193014e-09
412.0,0.14464589953422546,-0.6618238091468811,1.8172904253005981,-1.1554666757583618,-2.9969468116760254,-5.6619842148109e-09
413.0,0.14464589953422546,-0.6618238091468811,1.8172904253005981,-1.1554666757583618,-2.9969468116760254,-5.6619842148109e-09
414.0,0.1445303112268448,-0.6763468980789185,1.8190056085586548,-1.1426587104797363,-2.9970624446868896,-5.666528135606086e-09
415.0,0.1445303112268448,-0.6763468980789185,1.8190056085586548,-1.1426587104797363,-2.9970624446868896,-5.666528135606086e-09
416.0,0.1432436853647232,-0.6812168955802917,1.8071110248565674,-1.1258941888809204,-2.9983489513397217,-5.717601947452522e-09
417.0,0.1432436853647232,-0.6812168955802917,1.8071110248565674,-1.1258941888809204,-2.9983489513397217,-5.717601947452522e-09
418.0,0.14251530915498734,-0.673531711101532,1.7983043193817139,-1.1247726082801819,-2.999077320098877,-5.747074371953431e-09
419.0,0.14178693294525146,-0.6658465266227722,1.7894976139068604,-1.1236510276794434,-2.9998056888580322,-5.7765467964543404e-09
420.0,0.14178693294525146,-0.6658465266227722,1.7894976139068604,-1.1236510276794434,-2.9998056888580322,-5.7765467964543404e-09
421.0,0.14073608815670013,-0.6609638631343842,1.777553915977478,-1.1165899634361267,-3.0008565187454224,-5.820148141211234e-09
422.0,0.1396852433681488,-0.6560811996459961,1.7656102180480957,-1.10952889919281,-3.0019073486328125,-5.863749485968128e-09
423.0,0.1396852433681488,-0.6560811996459961,1.7656102180480957,-1.10952889919281,-3.0019073486328125,-5.863749485968128e-09
424.0,0.13876134157180786,-0.6431618332862854,1.7530874013900757,-1.109925627708435,-3.002831220626831,-5.902918154276904e-09
425.0,0.13876134157180786,-0.6431618332862854,1.7530874013900757,-1.109925627708435,-3.002831220626831,-5.902918154276904e-09
426.0,0.13735081255435944,-0.636466383934021,1.7360168099403381,-1.099550485610962,-3.0042418241500854,-5.964362559396363e-09
427.0,0.135940283536911,-0.6297709345817566,1.7189462184906006,-1.0891753435134888,-3.00565242767334,-6.025806964515823e-09
428.0,0.135940283536911,-0.6297709345817566,1.7189462184906006,-1.0891753435134888,-3.00565242767334,-6.025806964515823e-09
429.0,0.13504137098789215,-0.624162495136261,1.707406997680664,-1.0832445621490479,-3.0065512657165527,-6.0660418910174485e-09
430.0,0.13504137098789215,-0.624162495136261,1.707406997680664,-1.0832445621490479,-3.0065512657165527,-6.0660418910174485e-09
431.0,0.1344083994626999,-0.6307578682899475,1.7037702798843384,-1.0824973583221436,-3.0070669651031494,-0.009399265982210636
432.0,0.1344083994626999,-0.6307578682899475,1.7037702798843384,-1.0824973583221436,-3.0070669651031494,-0.009399265982210636
433.0,0.13529404997825623,-0.6366342008113861,1.714342713356018,-1.0837072134017944,-3.006224751472473,-0.005944227101281285
434.0,0.13617970049381256,-0.6425105333328247,1.7249151468276978,-1.0849170684814453,-3.005382537841797,-0.0024891882203519344
435.0,0.13617970049381256,-0.6425105333328247,1.7249151468276978,-1.0849170684814453,-3.005382537841797,-0.0024891882203519344
436.0,0.13424187898635864,-0.6480842232704163,1.708020806312561,-1.0808465480804443,-3.0070760250091553,-0.020721109583973885
437.0,0.13424187898635864,-0.6480842232704163,1.708020806312561,-1.0808465480804443,-3.0070760250091553,-0.020721109583973885
438.0,0.13303256034851074,-0.6487666070461273,1.6961010098457336,-1.0788670778274536,-3.008120894432068,-0.031253897584974766
439.0,0.13182324171066284,-0.6494489908218384,1.6841812133789062,-1.076887607574463,-3.0091657638549805,-0.04178668558597565
440.0,0.13182324171066284,-0.6494489908218384,1.6841812133789062,-1.076887607574463,-3.0091657638549805,-0.04178668558597565
441.0,0.13114050775766373,-0.6416303813457489,1.6745259165763855,-1.0764378905296326,-3.009827733039856,-0.04316546954214573
442.0,0.1304577738046646,-0.6338117718696594,1.6648706197738647,-1.0759881734848022,-3.0104897022247314,-0.04454425349831581
443.0,0.1304577738046646,-0.6338117718696594,1.6648706197738647,-1.0759881734848022,-3.0104897022247314,-0.04454425349831581
444.0,0.13026180863380432,-0.6454373002052307,1.666670799255371,-1.075042963027954,-3.0105276107788086,-0.05334887281060219
445.0,0.13026180863380432,-0.6454373002052307,1.666670799255371,-1.075042963027954,-3.0105276107788086,-0.05334887281060219
446.0,0.12944066524505615,-0.6408849358558655,1.6564182043075562,-1.0743142366409302,-3.0112595558166504,-0.05828404240310192
447.0,0.12861952185630798,-0.6363325715065002,1.6461656093597412,-1.0735855102539062,-3.011991500854492,-0.06321921199560165
448.0,0.12861952185630798,-0.6363325715065002,1.6461656093597412,-1.0735855102539062,-3.011991500854492,-0.06321921199560165
449.0,0.12830297648906708,-0.6306252479553223,1.637211561203003,-1.0564614295959474,-3.0116764545440673,-0.04945819666609168
450.0,0.12798643112182617,-0.6249179244041443,1.6282575130462646,-1.0393373489379882,-3.0113614082336424,-0.0356971813365817
451.0,0.12766988575458527,-0.6192106008529663,1.6193034648895264,-1.0222132682800293,-3.011046361923218,-0.021936166007071725
452.0,0.12735334038734436,-0.6135032773017883,1.610349416732788,-1.0050891876220702,-3.010731315612793,-0.008175150677561756
453.0,0.12703679502010345,-0.6077959537506104,1.6013953685760498,-0.9879651069641113,-3.010416269302368,0.005585864651948214
454.0,0.12703679502010345,-0.6077959537506104,1.6013953685760498,-0.9879651069641113,-3.010416269302368,0.005585864651948214
455.0,0.12692145705223085,-0.6075457334518433,1.6033517360687255,-1.0039440274238587,-3.0105710506439207,-0.00807207631878555
456.0,0.1268061190843582,-0.6072955131530762,1.6053081035614014,-1.019922947883606,-3.0107258319854737,-0.021730017289519312
457.0,0.1266907811164856,-0.6070452928543091,1.607264471054077,-1.0359018683433532,-3.0108806133270263,-0.03538795826025308
458.0,0.12657544314861296,-0.606795072555542,1.609220838546753,-1.0518807888031005,-3.0110353946685793,-0.04904589923098684
459.0,0.12646010518074036,-0.6065448522567749,1.6111772060394287,-1.067859709262848,-3.011190176010132,-0.0627038402017206
460.0,0.12634476721286775,-0.6062946319580078,1.6131335735321044,-1.0838386297225953,-3.0113449573516844,-0.07636178117245437
461.0,0.1262294292449951,-0.6060444116592407,1.6150899410247803,-1.0998175501823426,-3.0114997386932374,-0.09001972214318812
462.0,0.1261140912771225,-0.6057941913604736,1.617046308517456,-1.1157964706420898,-3.01165452003479,-0.10367766311392189
463.0,0.12599875330924987,-0.6055439710617065,1.619002676010132,-1.1317753911018371,-3.011809301376343,-0.11733560408465564
464.0,0.12588341534137726,-0.6052937507629395,1.6209590435028076,-1.1477543115615845,-3.0119640827178955,-0.1309935450553894
465.0,0.12588341534137726,-0.6052937507629395,1.6209590435028076,-1.1477543115615845,-3.0119640827178955,-0.1309935450553894
466.0,0.12610896490514278,-0.6038377955555916,1.6193257868289948,-1.1306281685829163,-3.011887401342392,-0.1141853368608281
467.0,0.1263345144689083,-0.6023818403482437,1.6176925301551819,-1.113502025604248,-3.0118107199668884,-0.0973771286662668
468.0,0.12656006403267384,-0.6009258851408958,1.616059273481369,-1.0963758826255798,-3.011734038591385,-0.0805689204717055
469.0,0.12678561359643936,-0.599469929933548,1.6144260168075562,-1.0792497396469116,-3.0116573572158813,-0.0637607122771442
470.0,0.1270111631602049,-0.5980139747262001,1.6127927601337433,-1.0621235966682434,-3.011580675840378,-0.04695250408258289
471.0,0.1272367127239704,-0.5965580195188522,1.6111595034599304,-1.0449974536895752,-3.0115039944648743,-0.03014429588802159
472.0,0.12746226228773594,-0.5951020643115044,1.6095262467861176,-1.027871310710907,-3.0114273130893707,-0.013336087693460286
473.0,0.12768781185150146,-0.5936461091041565,1.6078929901123047,-1.0107451677322388,-3.011350631713867,0.003472120501101017
474.0,0.12768781185150146,-0.5936461091041565,1.6078929901123047,-1.0107451677322388,-3.011350631713867,0.003472120501101017
475.0,0.12861739844083786,-0.5949237048625946,1.6209084391593933,-1.024233877658844,-3.0116981267929077,0.0017360570885083249
476.0,0.12954698503017426,-0.5962013006210327,1.633923888206482,-1.0377225875854492,-3.0120456218719482,-6.324084367292926e-09
477.0,0.12954698503017426,-0.5962013006210327,1.633923888206482,-1.0377225875854492,-3.0120456218719482,-6.324084367292926e-09
478.0,0.13072121888399124,-0.6058273315429688,1.6509014964103699,-1.0450741648674011,-3.010871410369873,-6.267623087197194e-09
479.0,0.13189545273780823,-0.6154533624649048,1.6678791046142578,-1.052425742149353,-3.009697198867798,-6.211161807101462e-09
480.0,0.13189545273780823,-0.6154533624649048,1.6678791046142578,-1.052425742149353,-3.009697198867798,-6.211161807101462e-09
481.0,0.13250741362571716,-0.6135122776031494,1.6749098896980286,-1.0613976120948792,-3.009085178375244,-6.18252515849349e-09
482.0,0.1331193745136261,-0.611571192741394,1.6819406747817993,-1.0703694820404053,-3.0084731578826904,-6.153888509885519e-09
483.0,0.1331193745136261,-0.611571192741394,1.6819406747817993,-1.0703694820404053,-3.0084731578826904,-6.153888509885519e-09
484.0,0.13255461305379868,-0.6013468503952026,1.6726713180541992,-1.0713244676589966,-3.009037971496582,-6.1802976070168825e-09
485.0,0.13198985159397125,-0.5911225080490112,1.6634019613265991,-1.072279453277588,-3.0096027851104736,-6.206706704148246e-09
486.0,0.13198985159397125,-0.5911225080490112,1.6634019613265991,-1.072279453277588,-3.0096027851104736,-6.206706704148246e-09
487.0,0.1317539612452189,-0.6029148697853088,1.6630934874216716,-1.0601785977681477,-3.009838660558065,-6.21789153498753e-09
488.0,0.13151807089646658,-0.6147072315216064,1.662785013516744,-1.0480777422587078,-3.0100745360056558,-6.229076365826813e-09
489.0,0.13128218054771423,-0.626499593257904,1.6624765396118164,-1.0359768867492676,-3.010310411453247,-6.240261196666097e-09
490.0,0.13128218054771423,-0.626499593257904,1.6624765396118164,-1.0359768867492676,-3.010310411453247,-6.240261196666097e-09
491.0,0.13110570775138009,-0.6277752849790785,1.664596712147748,-1.0529139439264934,-3.0096243664070412,-0.01593387507078705
492.0,0.1309292349550459,-0.629050976700253,1.6667168846836797,-1.069851001103719,-3.0089383213608354,-0.0318677439013129
493.0,0.13075276215871176,-0.6303266684214274,1.6688370572196112,-1.0867880582809448,-3.0082522763146295,-0.04780161273183876
494.0,0.13057628936237758,-0.6316023601426018,1.6709572297555428,-1.1037251154581706,-3.0075662312684237,-0.06373548156236461
495.0,0.13039981656604344,-0.6328780518637763,1.6730774022914745,-1.1206621726353962,-3.006880186222218,-0.07966935039289046
496.0,0.13022334376970926,-0.6341537435849508,1.6751975748274062,-1.137599229812622,-3.006194141176012,-0.09560321922341632
497.0,0.1300468709733751,-0.6354294353061252,1.6773177473633378,-1.154536286989848,-3.0055080961298057,-0.11153708805394216
498.0,0.12987039817704094,-0.6367051270272996,1.6794379198992695,-1.1714733441670735,-3.0048220510836,-0.12747095688446802
499.0,0.1296939253807068,-0.6379808187484741,1.681558092435201,-1.1884104013442993,-3.004136006037394,-0.14340482571499386
500.0,0.12951745258437264,-0.6392565104696486,1.6836782649711326,-1.2053474585215251,-3.003449960991188,-0.15933869454551972
501.0,0.12934097978803846,-0.6405322021908231,1.6857984375070643,-1.2222845156987507,-3.0027639159449824,-0.17527256337604558
502.0,0.12916450699170431,-0.6418078939119974,1.687918610042996,-1.2392215728759766,-3.0020778708987765,-0.19120643220657144
503.0,0.12898803419537014,-0.6430835856331719,1.6900387825789276,-1.2561586300532024,-3.0013918258525707,-0.20714030103709727
504.0,0.128811561399036,-0.6443592773543464,1.692158955114859,-1.273095687230428,-3.000705780806365,-0.22307416986762313
505.0,0.1286350886027018,-0.6456349690755209,1.6942791276507907,-1.2900327444076538,-3.000019735760159,-0.239008038698149
506.0,0.12845861580636767,-0.6469106607966952,1.6963993001867224,-1.3069698015848794,-2.999333690713953,-0.25494190752867485
507.0,0.1282821430100335,-0.6481863525178697,1.698519472722654,-1.3239068587621052,-2.9986476456677473,-0.2708757763592007
508.0,0.12810567021369934,-0.6494620442390442,1.7006396452585857,-1.340843915939331,-2.9979616006215415,-0.2868096451897265
509.0,0.1279291974173652,-0.6507377359602187,1.7027598177945173,-1.3577809731165569,-2.9972755555753356,-0.3027435140202524
510.0,0.12775272462103102,-0.6520134276813931,1.7048799903304488,-1.3747180302937825,-2.99658951052913,-0.31867738285077823
511.0,0.12757625182469687,-0.6532891194025675,1.7070001628663805,-1.3916550874710083,-2.9959034654829235,-0.33461125168130407
512.0,0.1273997790283627,-0.654564811123742,1.7091203354023121,-1.408592144648234,-2.9952174204367177,-0.35054512051182996
513.0,0.12722330623202854,-0.6558405028449165,1.7112405079382438,-1.4255292018254597,-2.994531375390512,-0.36647898934235584
514.0,0.12704683343569437,-0.6571161945660909,1.7133606804741754,-1.4424662590026855,-2.993845330344306,-0.3824128581728817
515.0,0.12687036063936022,-0.6583918862872653,1.7154808530101069,-1.4594033161799111,-2.9931592852981,-0.39834672700340745
516.0,0.12669388784302604,-0.6596675780084398,1.7176010255460386,-1.476340373357137,-2.9924732402518943,-0.41428059583393334
517.0,0.1265174150466919,-0.6609432697296143,1.7197211980819702,-1.4932774305343628,-2.9917871952056885,-0.43021446466445923
518.0,0.1265174150466919,-0.6609432697296143,1.7197211980819702,-1.4932774305343628,-2.9917871952056885,-0.43021446466445923
519.0,0.12648334421894766,-0.6583732908422296,1.7149285945025357,-1.4763623042540117,-2.9929711385206743,-0.41569099643013696
520.0,0.12644927339120346,-0.6558033119548451,1.7101359909231013,-1.4594471779736606,-2.99415508183566,-0.40116752819581464
521.0,0.12641520256345923,-0.6532333330674605,1.7053433873436668,-1.4425320516933093,-2.995339025150646,-0.38664405996149237
522.0,0.126381131735715,-0.6506633541800759,1.7005507837642322,-1.4256169254129583,-2.996522968465632,-0.37212059172717005
523.0,0.12634706090797077,-0.6480933752926913,1.6957581801847978,-1.4087017991326072,-2.9977069117806177,-0.3575971234928478
524.0,0.12631299008022656,-0.6455233964053068,1.6909655766053633,-1.391786672852256,-2.998890855095603,-0.3430736552585255
525.0,0.12627891925248233,-0.6429534175179221,1.686172973025929,-1.374871546571905,-3.000074798410589,-0.32855018702420324
526.0,0.1262448484247381,-0.6403834386305376,1.6813803694464944,-1.3579564202915537,-3.0012587417255747,-0.3140267187898809
527.0,0.12621077759699387,-0.637813459743153,1.6765877658670598,-1.3410412940112026,-3.0024426850405606,-0.2995032505555586
528.0,0.12617670676924966,-0.6352434808557684,1.6717951622876255,-1.3241261677308516,-3.0036266283555464,-0.28497978232123633
529.0,0.12614263594150543,-0.6326735019683838,1.667002558708191,-1.3072110414505005,-3.0048105716705322,-0.27045631408691406
530.0,0.12614263594150543,-0.6326735019683838,1.667002558708191,-1.3072110414505005,-3.0048105716705322,-0.27045631408691406
531.0,0.12584695716698965,-0.6338904897371928,1.6609688599904378,-1.2918378114700317,-3.0054670174916587,-0.2624208877484004
532.0,0.12555127839247385,-0.6351074775060018,1.6549351612726848,-1.276464581489563,-3.0061234633127847,-0.25438546140988666
533.0,0.12525559961795807,-0.6363244652748108,1.6489014625549316,-1.2610913515090942,-3.006779909133911,-0.24635003507137299
534.0,0.12525559961795807,-0.6363244652748108,1.6489014625549316,-1.2610913515090942,-3.006779909133911,-0.24635003507137299
535.0,0.12525820118539474,-0.6327247514444239,1.6440587043762207,-1.244005578405717,-3.0063660425298355,-0.23064691025544615
536.0,0.1252608027528314,-0.629125037614037,1.6392159461975098,-1.2269198053023394,-3.00595217592576,-0.2149437854395193
537.0,0.12526340432026806,-0.6255253237836501,1.6343731880187988,-1.209834032198962,-3.005538309321684,-0.1992406606235925
538.0,0.12526600588770473,-0.6219256099532632,1.629530429840088,-1.1927482590955847,-3.0051244427176083,-0.18353753580766566
539.0,0.1252686074551414,-0.6183258961228764,1.624687671661377,-1.1756624859922074,-3.0047105761135326,-0.16783441099173882
540.0,0.12527120902257807,-0.6147261822924894,1.619844913482666,-1.1585767128888298,-3.004296709509457,-0.152131286175812
541.0,0.12527381059001474,-0.6111264684621025,1.615002155303955,-1.1414909397854525,-3.003882842905381,-0.13642816135988517
542.0,0.12527641215745142,-0.6075267546317157,1.6101593971252441,-1.1244051666820751,-3.0034689763013054,-0.12072503654395833
543.0,0.12527901372488806,-0.6039270408013288,1.6053166389465332,-1.1073193935786976,-3.0030551096972298,-0.10502191172803149
544.0,0.12528161529232473,-0.6003273269709419,1.6004738807678223,-1.0902336204753202,-3.002641243093154,-0.08931878691210465
545.0,0.1252842168597614,-0.596727613140555,1.5956311225891113,-1.073147847371943,-3.002227376489078,-0.07361566209617781
546.0,0.12528681842719808,-0.5931278993101681,1.5907883644104004,-1.0560620742685654,-3.0018135098850025,-0.057912537280251
547.0,0.12528941999463475,-0.5895281854797813,1.5859456062316895,-1.038976301165188,-3.001399643280927,-0.04220941246432419
548.0,0.12529202156207142,-0.5859284716493943,1.5811028480529785,-1.0218905280618107,-3.0009857766768513,-0.026506287648397353
549.0,0.12529462312950806,-0.5823287578190074,1.5762600898742676,-1.0048047549584331,-3.0005719100727752,-0.010803162832470514
550.0,0.12529722469694474,-0.5787290439886206,1.5714173316955566,-0.9877189818550558,-3.0001580434686996,0.004899961983456325
551.0,0.1252998262643814,-0.5751293301582336,1.5665745735168457,-0.9706332087516785,-2.999744176864624,0.020603086799383163
552.0,0.1252998262643814,-0.5751293301582336,1.5665745735168457,-0.9706332087516785,-2.999744176864624,0.020603086799383163
553.0,0.12333552271891864,-0.5721486325447376,1.5580228567123413,-0.9643493722646664,-2.9824999968210855,0.02093063495480097
554.0,0.12137121917345585,-0.5691679349312415,1.549471139907837,-0.9580655357776544,-2.9652558167775473,0.021258183110218782
555.0,0.11940691562799308,-0.5661872373177455,1.5409194231033325,-0.9517816992906424,-2.948011636734009,0.02158573126563659
556.0,0.11744261208253029,-0.5632065397042495,1.5323677062988281,-0.9454978628036304,-2.9307674566904702,0.0219132794210544
557.0,0.11547830853706752,-0.5602258420907534,1.5238159894943237,-0.9392140263166183,-2.913523276646932,0.022240827576472208
558.0,0.11351400499160473,-0.5572451444772574,1.5152642726898193,-0.9329301898296063,-2.8962790966033936,0.02256837573189002
559.0,0.11154970144614196,-0.5542644468637613,1.506712555885315,-0.9266463533425943,-2.879034916559855,0.022895923887307826
560.0,0.10958539790067917,-0.5512837492502652,1.4981608390808105,-0.9203625168555822,-2.861790736516317,0.023223472042725637
561.0,0.1076210943552164,-0.5483030516367692,1.4896091222763062,-0.9140786803685702,-2.8445465564727783,0.023551020198143445
562.0,0.10565679080975361,-0.5453223540232732,1.4810574054718018,-0.9077948438815582,-2.8273023764292398,0.023878568353561253
563.0,0.10369248726429084,-0.5423416564097772,1.4725056886672974,-0.9015110073945461,-2.8100581963857016,0.024206116508979064
564.0,0.10172818371882805,-0.5393609587962811,1.463953971862793,-0.8952271709075341,-2.792814016342163,0.024533664664396874
565.0,0.09976388017336528,-0.536380261182785,1.4554022550582886,-0.8889433344205221,-2.7755698362986245,0.024861212819814682
566.0,0.0977995766279025,-0.533399563569289,1.4468505382537842,-0.8826594979335101,-2.7583256562550864,0.02518876097523249
567.0,0.09583527308243972,-0.5304188659557929,1.4382988214492798,-0.876375661446498,-2.741081476211548,0.0255163091306503
568.0,0.09387096953697693,-0.5274381683422968,1.4297471046447754,-0.870091824959486,-2.7238372961680093,0.025843857286068108
569.0,0.09190666599151415,-0.5244574707288009,1.421195387840271,-0.8638079884724739,-2.706593116124471,0.02617140544148592
570.0,0.08994236244605139,-0.5214767731153048,1.4126436710357666,-0.857524151985462,-2.6893489360809326,0.026498953596903727
571.0,0.0879780589005886,-0.5184960755018088,1.4040919542312622,-0.8512403154984498,-2.672104756037394,0.026826501752321538
572.0,0.08601375535512581,-0.5155153778883127,1.3955402374267578,-0.8449564790114379,-2.654860575993856,0.027154049907739345
573.0,0.08404945180966304,-0.5125346802748166,1.3869885206222534,-0.8386726425244257,-2.6376163959503174,0.027481598063157156
574.0,0.08208514826420027,-0.5095539826613206,1.378436803817749,-0.8323888060374138,-2.620372215906779,0.027809146218574964
575.0,0.08012084471873748,-0.5065732850478246,1.3698850870132446,-0.8261049695504017,-2.6031280358632407,0.028136694373992775
576.0,0.0781565411732747,-0.5035925874343286,1.3613333702087402,-0.8198211330633897,-2.585883855819702,0.028464242529410582
577.0,0.07619223762781192,-0.5006118898208325,1.3527816534042358,-0.8135372965763776,-2.5686396757761636,0.028791790684828393
578.0,0.07422793408234915,-0.4976311922073364,1.3442299365997314,-0.8072534600893657,-2.5513954957326255,0.0291193388402462
579.0,0.07226363053688636,-0.49465049459384036,1.335678219795227,-0.8009696236023536,-2.534151315689087,0.029446886995664008
580.0,0.07029932699142358,-0.4916697969803443,1.3271265029907227,-0.7946857871153415,-2.5169071356455484,0.02977443515108182
581.0,0.06833502344596079,-0.4886890993668483,1.3185747861862183,-0.7884019506283295,-2.4996629556020102,0.03010198330649963
582.0,0.06637071990049803,-0.4857084017533522,1.3100230693817139,-0.7821181141413176,-2.4824187755584717,0.030429531461917438
583.0,0.06440641635503525,-0.4827277041398562,1.3014713525772095,-0.7758342776543055,-2.4651745955149336,0.030757079617335245
584.0,0.06244211280957247,-0.47974700652636015,1.292919635772705,-0.7695504411672934,-2.447930415471395,0.031084627772753053
585.0,0.060477809264109686,-0.4767663089128641,1.2843679189682007,-0.7632666046802814,-2.4306862354278564,0.03141217592817086
586.0,0.0585135057186469,-0.473785611299368,1.2758162021636963,-0.7569827681932694,-2.413442055384318,0.031739724083588675
587.0,0.05654920217318413,-0.470804913685872,1.267264485359192,-0.7506989317062573,-2.3961978753407798,0.03206727223900648
588.0,0.054584898627721354,-0.46782421607237595,1.2587127685546875,-0.7444150952192453,-2.378953695297241,0.03239482039442429
589.0,0.05262059508225857,-0.46484351845887995,1.250161051750183,-0.7381312587322333,-2.361709515253703,0.032722368549842104
590.0,0.050656291536795794,-0.4618628208453839,1.2416093349456787,-0.7318474222452213,-2.3444653352101645,0.03304991670525991
591.0,0.04869198799133301,-0.4588821232318878,1.2330576181411743,-0.7255635857582092,-2.327221155166626,0.03337746486067772
592.0,0.04869198799133301,-0.4588821232318878,1.2330576181411743,-0.7255635857582092,-2.327221155166626,0.03337746486067772
593.0,0.04468599764200357,-0.46016296457785827,1.2339542760298803,-0.7312958068572558,-2.3097903568011064,0.03352863943347564
594.0,0.04068000729267414,-0.4614438059238287,1.2348509339185862,-0.7370280279563024,-2.292359558435587,0.03367981400627356
595.0,0.036674016943344705,-0.46272464726979917,1.235747591807292,-0.7427602490553489,-2.2749287600700674,0.033830988579071485
596.0,0.03266802659401527,-0.4640054886157696,1.236644249695998,-0.7484924701543955,-2.2574979617045474,0.03398216315186941
597.0,0.028662036244685832,-0.4652863299617401,1.237540907584704,-0.754224691253442,-2.240067163339028,0.034133337724667326
598.0,0.024656045895356398,-0.4665671713077105,1.2384375654734099,-0.7599569123524886,-2.2226363649735084,0.03428451229746525
599.0,0.02065005554602696,-0.4678480126536809,1.2393342233621156,-0.7656891334515351,-2.205205566607989,0.034435686870263174
600.0,0.016644065196697526,-0.4691288539996514,1.2402308812508216,-0.7714213545505817,-2.1877747682424693,0.0345868614430611
601.0,0.012638074847368092,-0.4704096953456218,1.2411275391395276,-0.7771535756496283,-2.1703439698769498,0.034738036015859015
602.0,0.008632084498038657,-0.4716905366915923,1.2420241970282335,-0.7828857967486749,-2.15291317151143,0.03488921058865694
603.0,0.004626094148709216,-0.47297137803756273,1.2429208549169393,-0.7886180178477213,-2.1354823731459103,0.035040385161454864
604.0,0.0006201037993797884,-0.4742522193835332,1.2438175128056452,-0.7943502389467679,-2.1180515747803907,0.03519155973425278
605.0,-0.003385886549949646,-0.47553306072950363,1.2447141706943512,-0.8000824600458145,-2.100620776414871,0.035342734307050705
606.0,-0.007391876899279087,-0.4768139020754741,1.2456108285830572,-0.8058146811448611,-2.0831899780493517,0.03549390887984863
607.0,-0.011397867248608522,-0.47809474342144453,1.2465074864717631,-0.8115469022439077,-2.065759179683832,0.035645083452646546
608.0,-0.015403857597937956,-0.479375584767415,1.2474041443604689,-0.8172791233429542,-2.0483283813183126,0.03579625802544447
609.0,-0.019409847947267383,-0.48065642611338544,1.2483008022491748,-0.8230113444420007,-2.0308975829527927,0.035947432598242395
610.0,-0.023415838296596825,-0.4819372674593559,1.2491974601378808,-0.8287435655410473,-2.013466784587273,0.03609860717104031
611.0,-0.027421828645926266,-0.48321810880532634,1.2500941180265868,-0.8344757866400939,-1.9960359862217536,0.036249781743838236
612.0,-0.031427818995255694,-0.48449895015129674,1.2509907759152925,-0.8402080077391405,-1.978605187856234,0.03640095631663616
613.0,-0.03543380934458512,-0.4857797914972672,1.2518874338039985,-0.845940228838187,-1.9611743894907145,0.036552130889434084
614.0,-0.039439799693914576,-0.48706063284323764,1.2527840916927044,-0.8516724499372336,-1.9437435911251948,0.036703305462232
615.0,-0.043445790043244004,-0.4883414741892081,1.2536807495814104,-0.8574046710362802,-1.9263127927596753,0.036854480035029925
616.0,-0.04745178039257343,-0.48962231553517854,1.2545774074701161,-0.8631368921353266,-1.9088819943941555,0.03700565460782785
617.0,-0.05145777074190287,-0.490903156881149,1.2554740653588221,-0.8688691132343732,-1.891451196028636,0.03715682918062577
618.0,-0.0554637610912323,-0.49218399822711945,1.256370723247528,-0.8746013343334198,-1.8740203976631165,0.03730800375342369
619.0,-0.05946975144056174,-0.4934648395730899,1.257267381136234,-0.8803335554324664,-1.856589599297597,0.037459178326221615
620.0,-0.06347574178989118,-0.49474568091906035,1.25816403902494,-0.886065776531513,-1.8391588009320772,0.03761035289901954
621.0,-0.06748173213922061,-0.4960265222650308,1.2590606969136457,-0.8917979976305594,-1.8217280025665576,0.037761527471817456
622.0,-0.07148772248855005,-0.49730736361100125,1.2599573548023517,-0.897530218729606,-1.804297204201038,0.03791270204461538
623.0,-0.07549371283787948,-0.4985882049569717,1.2608540126910577,-0.9032624398286526,-1.7868664058355184,0.0380638766174133
624.0,-0.07949970318720892,-0.49986904630294215,1.2617506705797636,-0.9089946609276992,-1.7694356074699988,0.03821505119021122
625.0,-0.08350569353653836,-0.5011498876489126,1.2626473284684694,-0.9147268820267458,-1.7520048091044793,0.038366225763009146
626.0,-0.08751168388586777,-0.5024307289948831,1.2635439863571754,-0.9204591031257923,-1.7345740107389598,0.03851740033580707
627.0,-0.09151767423519722,-0.5037115703408535,1.2644406442458813,-0.9261913242248389,-1.71714321237344,0.03866857490860499
628.0,-0.09552366458452666,-0.504992411686824,1.2653373021345873,-0.9319235453238854,-1.6997124140079205,0.03881974948140291
629.0,-0.0995296549338561,-0.5062732530327944,1.266233960023293,-0.9376557664229319,-1.6822816156424008,0.038970924054200835
630.0,-0.10353564528318554,-0.5075540943787649,1.267130617911999,-0.9433879875219786,-1.6648508172768812,0.03912209862699875
631.0,-0.10754163563251495,-0.5088349357247353,1.268027275800705,-0.9491202086210251,-1.6474200189113617,0.03927327319979668
632.0,-0.1115476259818444,-0.5101157770707057,1.268923933689411,-0.9548524297200717,-1.6299892205458422,0.0394244477725946
633.0,-0.11555361633117384,-0.5113966184166762,1.2698205915781169,-0.9605846508191183,-1.6125584221803224,0.039575622345392525
634.0,-0.11955960668050325,-0.5126774597626466,1.2707172494668226,-0.9663168719181647,-1.5951276238148029,0.03972679691819044
635.0,-0.12356559702983272,-0.5139583011086171,1.2716139073555286,-0.9720490930172113,-1.5776968254492831,0.039877971490988366
636.0,-0.12757158737916216,-0.5152391424545875,1.2725105652442346,-0.9777813141162579,-1.5602660270837636,0.04002914606378629
637.0,-0.13157757772849157,-0.516519983800558,1.2734072231329405,-0.9835135352153044,-1.542835228718244,0.04018032063658421
638.0,-0.13558356807782102,-0.5178008251465284,1.2743038810216463,-0.9892457563143511,-1.5254044303527245,0.04033149520938213
639.0,-0.13958955842715043,-0.5190816664924989,1.2752005389103522,-0.9949779774133976,-1.507973631987205,0.040482669782180056
640.0,-0.14359554877647987,-0.5203625078384693,1.2760971967990582,-1.000710198512444,-1.4905428336216853,0.04063384435497797
641.0,-0.1476015391258093,-0.5216433491844398,1.2769938546877642,-1.0064424196114907,-1.4731120352561655,0.0407850189277759
642.0,-0.15160752947513875,-0.5229241905304102,1.27789051257647,-1.0121746407105372,-1.455681236890646,0.04093619350057382
643.0,-0.1556135198244682,-0.5242050318763807,1.2787871704651759,-1.017906861809584,-1.4382504385251265,0.04108736807337174
644.0,-0.1596195101737976,-0.5254858732223511,1.2796838283538818,-1.0236390829086304,-1.420819640159607,0.04123854264616966
645.0,-0.1596195101737976,-0.5254858732223511,1.2796838283538818,-1.0236390829086304,-1.420819640159607,0.04123854264616966
646.0,-0.16017356369553543,-0.5308727069598872,1.2878131662927024,-1.0410303924141862,-1.418313616659583,0.047260935713605186
647.0,-0.16072761721727324,-0.5362595406974234,1.2959425042315227,-1.0584217019197417,-1.4158075931595593,0.0532833287810407
648.0,-0.16128167073901106,-0.5416463744349596,1.3040718421703432,-1.0758130114252975,-1.4133015696595355,0.059305721848476226
649.0,-0.16183572426074888,-0.5470332081724958,1.3122011801091635,-1.093204320930853,-1.4107955461595116,0.06532811491591174
650.0,-0.1623897777824867,-0.5524200419100319,1.320330518047984,-1.1105956304364089,-1.4082895226594878,0.07135050798334727
651.0,-0.16294383130422452,-0.5578068756475681,1.3284598559868046,-1.1279869399419644,-1.405783499159464,0.07737290105078279
652.0,-0.16349788482596234,-0.5631937093851043,1.336589193925625,-1.1453782494475202,-1.4032774756594402,0.0833952941182183
653.0,-0.16405193834770015,-0.5685805431226405,1.3447185318644455,-1.1627695589530758,-1.4007714521594163,0.08941768718565382
654.0,-0.16460599186943797,-0.5739673768601766,1.3528478698032658,-1.1801608684586316,-1.3982654286593925,0.09544008025308934
655.0,-0.1651600453911758,-0.5793542105977129,1.3609772077420863,-1.1975521779641873,-1.3957594051593687,0.10146247332052487
656.0,-0.16571409891291364,-0.584741044335249,1.3691065456809066,-1.214943487469743,-1.3932533816593449,0.1074848663879604
657.0,-0.16626815243465146,-0.5901278780727852,1.3772358836197272,-1.2323347969752987,-1.390747358159321,0.11350725945539591
658.0,-0.16682220595638927,-0.5955147118103213,1.3853652215585477,-1.2497261064808542,-1.3882413346592972,0.11952965252283143
659.0,-0.1673762594781271,-0.6009015455478575,1.393494559497368,-1.26711741598641,-1.3857353111592734,0.12555204559026695
660.0,-0.1679303129998649,-0.6062883792853937,1.4016238974361885,-1.2845087254919658,-1.3832292876592496,0.13157443865770246
661.0,-0.16848436652160273,-0.6116752130229299,1.4097532353750089,-1.3019000349975214,-1.3807232641592257,0.13759683172513798
662.0,-0.16903842004334055,-0.617062046760466,1.4178825733138294,-1.3192913445030772,-1.378217240659202,0.14361922479257352
663.0,-0.16959247356507837,-0.6224488804980022,1.4260119112526497,-1.3366826540086327,-1.375711217159178,0.149641617860009
664.0,-0.17014652708681618,-0.6278357142355384,1.4341412491914702,-1.3540739635141885,-1.3732051936591543,0.15566401092744456
665.0,-0.170700580608554,-0.6332225479730745,1.4422705871302908,-1.371465273019744,-1.3706991701591305,0.16168640399488007
666.0,-0.17125463413029182,-0.6386093817106108,1.450399925069111,-1.3888565825252999,-1.3681931466591069,0.1677087970623156
667.0,-0.17180868765202964,-0.6439962154481469,1.4585292630079316,-1.4062478920308554,-1.365687123159083,0.17373119012975113
668.0,-0.17236274117376746,-0.6493830491856831,1.4666586009467522,-1.4236392015364112,-1.3631810996590592,0.17975358319718665
669.0,-0.17291679469550528,-0.6547698829232192,1.4747879388855725,-1.441030511041967,-1.3606750761590354,0.18577597626462217
670.0,-0.1734708482172431,-0.6601567166607554,1.482917276824393,-1.4584218205475226,-1.3581690526590116,0.19179836933205768
671.0,-0.1740249017389809,-0.6655435503982916,1.4910466147632133,-1.4758131300530781,-1.3556630291589877,0.1978207623994932
672.0,-0.17457895526071873,-0.6709303841358278,1.4991759527020339,-1.493204439558634,-1.353157005658964,0.20384315546692872
673.0,-0.17513300878245655,-0.676317217873364,1.5073052906408542,-1.5105957490641897,-1.35065098215894,0.20986554853436426
674.0,-0.1756870623041944,-0.6817040516109001,1.5154346285796747,-1.5279870585697455,-1.3481449586589163,0.21588794160179978
675.0,-0.17624111582593222,-0.6870908853484363,1.5235639665184952,-1.545378368075301,-1.3456389351588924,0.22191033466923527
676.0,-0.17679516934767003,-0.6924777190859726,1.5316933044573156,-1.5627696775808566,-1.3431329116588686,0.2279327277366708
677.0,-0.17734922286940785,-0.6978645528235087,1.539822642396136,-1.5801609870864124,-1.3406268881588448,0.23395512080410633
678.0,-0.17790327639114567,-0.7032513865610448,1.5479519803349566,-1.5975522965919682,-1.338120864658821,0.23997751387154184
679.0,-0.1784573299128835,-0.708638220298581,1.556081318273777,-1.614943606097524,-1.3356148411587971,0.2459999069389774
680.0,-0.1790113834346213,-0.7140250540361172,1.5642106562125973,-1.6323349156030793,-1.3331088176587733,0.2520223000064129
681.0,-0.17956543695635913,-0.7194118877736534,1.5723399941514178,-1.649726225108635,-1.3306027941587495,0.25804469307384836
682.0,-0.18011949047809694,-0.7247987215111895,1.5804693320902383,-1.6671175346141909,-1.3280967706587257,0.26406708614128394
683.0,-0.18067354399983476,-0.7301855552487257,1.5885986700290586,-1.6845088441197467,-1.3255907471587018,0.27008947920871945
684.0,-0.18122759752157258,-0.7355723889862619,1.5967280079678792,-1.7019001536253022,-1.323084723658678,0.27611187227615497
685.0,-0.1817816510433104,-0.740959222723798,1.6048573459066997,-1.7192914631308578,-1.3205787001586542,0.2821342653435905
686.0,-0.18233570456504822,-0.7463460564613342,1.61298668384552,-1.7366827726364136,-1.3180726766586304,0.288156658411026
687.0,-0.18233570456504822,-0.7463460564613342,1.61298668384552,-1.7366827726364136,-1.3180726766586304,0.288156658411026
688.0,-0.18168417164465275,-0.7479940681922727,1.6188052514704263,-1.7537385428824075,-1.3248932506979965,0.27738915710914425
689.0,-0.18103263872425732,-0.7496420799232111,1.6246238190953324,-1.7707943131284016,-1.3317138247373628,0.2666216558072625
690.0,-0.18038110580386185,-0.7512900916541495,1.6304423867202387,-1.7878500833743955,-1.3385343987767289,0.25585415450538074
691.0,-0.1797295728834664,-0.7529381033850879,1.636260954345145,-1.8049058536203897,-1.3453549728160952,0.24508665320349904
692.0,-0.17907803996307095,-0.7545861151160264,1.642079521970051,-1.8219616238663836,-1.3521755468554613,0.23431915190161728
693.0,-0.1784265070426755,-0.7562341268469648,1.6478980895949573,-1.8390173941123777,-1.3589961208948276,0.22355165059973553
694.0,-0.17777497412228002,-0.7578821385779032,1.6537166572198636,-1.8560731643583717,-1.3658166949341937,0.21278414929785378
695.0,-0.17712344120188458,-0.7595301503088416,1.6595352248447697,-1.8731289346043656,-1.37263726897356,0.20201664799597205
696.0,-0.17647190828148912,-0.7611781620397801,1.665353792469676,-1.8901847048503597,-1.379457843012926,0.19124914669409032
697.0,-0.17582037536109366,-0.7628261737707185,1.6711723600945823,-1.9072404750963536,-1.3862784170522922,0.18048164539220857
698.0,-0.1751688424406982,-0.7644741855016569,1.6769909277194883,-1.9242962453423478,-1.3930989910916585,0.1697141440903268
699.0,-0.17451730952030275,-0.7661221972325953,1.6828094953443946,-1.9413520155883417,-1.3999195651310246,0.15894664278844506
700.0,-0.1738657765999073,-0.7677702089635338,1.688628062969301,-1.9584077858343356,-1.4067401391703909,0.14817914148656333
701.0,-0.17321424367951183,-0.7694182206944722,1.694446630594207,-1.9754635560803298,-1.413560713209757,0.13741164018468158
702.0,-0.1725627107591164,-0.7710662324254106,1.7002651982191133,-1.9925193263263237,-1.4203812872491233,0.12664413888279985
703.0,-0.17191117783872092,-0.772714244156349,1.7060837658440196,-2.0095750965723176,-1.4272018612884894,0.1158766375809181
704.0,-0.17125964491832546,-0.7743622558872875,1.7119023334689256,-2.0266308668183117,-1.4340224353278557,0.10510913627903634
705.0,-0.17060811199793002,-0.7760102676182259,1.717720901093832,-2.043686637064306,-1.4408430093672218,0.09434163497715461
706.0,-0.16995657907753456,-0.7776582793491643,1.7235394687187382,-2.0607424073102996,-1.4476635834065879,0.08357413367527286
707.0,-0.1693050461571391,-0.7793062910801027,1.7293580363436443,-2.0777981775562937,-1.4544841574459542,0.07280663237339113
708.0,-0.16865351323674366,-0.7809543028110411,1.7351766039685506,-2.094853947802288,-1.4613047314853203,0.06203913107150938
709.0,-0.1680019803163482,-0.7826023145419796,1.7409951715934566,-2.111909718048282,-1.4681253055246866,0.051271629769627625
710.0,-0.16735044739595273,-0.7842503262729179,1.746813739218363,-2.1289654882942757,-1.4749458795640527,0.04050412846774587
711.0,-0.1666989144755573,-0.7858983380038563,1.7526323068432692,-2.14602125854027,-1.481766453603419,0.029736627165864116
712.0,-0.16604738155516183,-0.7875463497347948,1.7584508744681755,-2.163077028786264,-1.488587027642785,0.018969125863982417
713.0,-0.16539584863476636,-0.7891943614657332,1.7642694420930816,-2.1801327990322577,-1.4954076016821511,0.008201624562100662
714.0,-0.16474431571437093,-0.7908423731966716,1.7700880097179879,-2.197188569278252,-1.5022281757215175,-0.002565876739781092
715.0,-0.16409278279397546,-0.79249038492761,1.775906577342894,-2.214244339524246,-1.5090487497608835,-0.013333378041662847
716.0,-0.16344124987358,-0.7941383966585485,1.7817251449678002,-2.23130010977024,-1.5158693238002499,-0.0241008793435446
717.0,-0.16278971695318456,-0.7957864083894869,1.7875437125927065,-2.2483558800162338,-1.522689897839616,-0.0348683806454263
718.0,-0.1621381840327891,-0.7974344201204253,1.7933622802176126,-2.265411650262228,-1.5295104718789823,-0.045635881947308055
719.0,-0.16148665111239363,-0.7990824318513637,1.7991808478425189,-2.282467420508222,-1.5363310459183483,-0.05640338324918981
720.0,-0.16083511819199817,-0.8007304435823022,1.8049994154674252,-2.2995231907542157,-1.5431516199577144,-0.06717088455107156
721.0,-0.16018358527160273,-0.8023784553132406,1.8108179830923312,-2.31657896100021,-1.5499721939970807,-0.07793838585295332
722.0,-0.15953205235120727,-0.804026467044179,1.8166365507172375,-2.333634731246204,-1.5567927680364468,-0.08870588715483502
723.0,-0.1588805194308118,-0.8056744787751174,1.8224551183421438,-2.350690501492198,-1.5636133420758132,-0.09947338845671677
724.0,-0.15822898651041636,-0.8073224905060559,1.8282736859670499,-2.367746271738192,-1.5704339161151792,-0.11024088975859853
725.0,-0.1575774535900209,-0.8089705022369943,1.8340922535919562,-2.384802041984186,-1.5772544901545456,-0.12100839106048028
726.0,-0.15692592066962543,-0.8106185139679327,1.8399108212168624,-2.40185781223018,-1.5840750641939116,-0.13177589236236203
727.0,-0.15627438774923,-0.8122665256988711,1.8457293888417685,-2.418913582476174,-1.590895638233278,-0.14254339366424373
728.0,-0.15562285482883453,-0.8139145374298096,1.8515479564666748,-2.435969352722168,-1.597716212272644,-0.1533108949661255
729.0,-0.15562285482883453,-0.8139145374298096,1.8515479564666748,-2.435969352722168,-1.597716212272644,-0.1533108949661255
730.0,-0.16710726916790009,-0.8140597939491272,1.8520243167877197,-2.436615228652954,-1.5996832847595215,-0.16461829841136932
731.0,-0.16710726916790009,-0.8140597939491272,1.8520243167877197,-2.436615228652954,-1.5996832847595215,-0.16461829841136932
732.0,-0.1652427390217781,-0.8204220235347748,1.8647516965866089,-2.442925810813904,-1.5993648767471313,-0.16278452426195145
733.0,-0.16337820887565613,-0.8267842531204224,1.877479076385498,-2.4492363929748535,-1.5990464687347412,-0.16095075011253357
734.0,-0.16337820887565613,-0.8267842531204224,1.877479076385498,-2.4492363929748535,-1.5990464687347412,-0.16095075011253357
735.0,-0.15139620006084442,-0.8231735229492188,1.8700259923934937,-2.445075750350952,-1.5969924926757812,-0.1491546481847763
736.0,-0.15139620006084442,-0.8231735229492188,1.8700259923934937,-2.445075750350952,-1.5969924926757812,-0.1491546481847763
737.0,-0.14883948117494583,-0.8294022977352142,1.8825465440750122,-2.4516388177871704,-1.5965019464492798,-0.14662887901067734
738.0,-0.14628276228904724,-0.8356310725212097,1.8950670957565308,-2.4582018852233887,-1.5960114002227783,-0.14410310983657837
739.0,-0.14628276228904724,-0.8356310725212097,1.8950670957565308,-2.4582018852233887,-1.5960114002227783,-0.14410310983657837
740.0,-0.15592280526955923,-0.8362552722295126,1.9079400300979614,-2.4702460765838623,-1.5961842934290569,-0.14490186174710593
741.0,-0.1655628482500712,-0.8368794719378153,1.920812964439392,-2.482290267944336,-1.5963571866353352,-0.14570061365763345
742.0,-0.1752028912305832,-0.8375036716461182,1.9336858987808228,-2.4943344593048096,-1.5965300798416138,-0.146499365568161
743.0,-0.1752028912305832,-0.8375036716461182,1.9336858987808228,-2.4943344593048096,-1.5965300798416138,-0.146499365568161
744.0,-0.171682707965374,-0.8444485366344452,1.947806477546692,-2.5013821125030518,-1.5957046747207642,-0.14175956696271896
745.0,-0.1681625247001648,-0.8513934016227722,1.961927056312561,-2.508429765701294,-1.5948792695999146,-0.13701976835727692
746.0,-0.1681625247001648,-0.8513934016227722,1.961927056312561,-2.508429765701294,-1.5948792695999146,-0.13701976835727692
747.0,-0.17858468741178513,-0.8502601087093353,1.9599222540855408,-2.508280873298645,-1.5991311073303223,-0.16150251030921936
748.0,-0.18900685012340546,-0.8491268157958984,1.9579174518585205,-2.508131980895996,-1.60338294506073,-0.1859852522611618
749.0,-0.18900685012340546,-0.8491268157958984,1.9579174518585205,-2.508131980895996,-1.60338294506073,-0.1859852522611618
750.0,-0.19224102050065994,-0.855522483587265,1.9710946083068848,-2.5152008533477783,-1.6049056649208069,-0.19478442519903183
751.0,-0.19547519087791443,-0.8619181513786316,1.984271764755249,-2.5222697257995605,-1.6064283847808838,-0.20358359813690186
752.0,-0.19547519087791443,-0.8619181513786316,1.984271764755249,-2.5222697257995605,-1.6064283847808838,-0.20358359813690186
753.0,-0.20422516763210297,-0.856235682964325,1.9727739095687866,-2.5168538093566895,-1.6083296537399292,-0.21461611986160278
754.0,-0.20422516763210297,-0.856235682964325,1.9727739095687866,-2.5168538093566895,-1.6083296537399292,-0.21461611986160278
755.0,-0.20663850754499435,-0.8617908954620361,1.9841167330741882,-2.5226460695266724,-1.608349859714508,-0.21473394334316254
756.0,-0.20905184745788574,-0.8673461079597473,1.9954595565795898,-2.5284383296966553,-1.608370065689087,-0.2148517668247223
757.0,-0.20905184745788574,-0.8673461079597473,1.9954595565795898,-2.5284383296966553,-1.608370065689087,-0.2148517668247223
758.0,-0.2058337837457657,-0.8663289229075114,1.9993582248687745,-2.5448812802632648,-1.6250247716903687,-0.30582073132197063
759.0,-0.20261572003364564,-0.8653117378552755,2.003256893157959,-2.5613242308298747,-1.6416794776916503,-0.39678969581921897
760.0,-0.19939765632152556,-0.8642945528030396,2.0071555614471435,-2.577767181396484,-1.6583341836929322,-0.4877586603164673
761.0,-0.1961795926094055,-0.8632773677508037,2.0110542297363283,-2.594210131963094,-1.6749888896942138,-0.5787276248137156
762.0,-0.19296152889728546,-0.8622601826985677,2.0149528980255127,-2.6106530825297036,-1.6916435956954956,-0.6696965893109639
763.0,-0.1897434651851654,-0.8612429976463318,2.018851566314697,-2.6270960330963136,-1.7082983016967774,-0.7606655538082123
764.0,-0.18652540147304536,-0.8602258125940959,2.022750234603882,-2.643538983662923,-1.724953007698059,-0.8516345183054607
765.0,-0.18330733776092528,-0.8592086275418599,2.0266489028930663,-2.659981934229533,-1.7416077136993409,-0.9426034828027089
766.0,-0.18008927404880523,-0.858191442489624,2.030547571182251,-2.6764248847961425,-1.7582624197006225,-1.0335724472999572
767.0,-0.17687121033668518,-0.8571742574373881,2.0344462394714355,-2.6928678353627524,-1.7749171257019043,-1.1245414117972055
768.0,-0.17365314662456513,-0.8561570723851522,2.03834490776062,-2.709310785929362,-1.7915718317031861,-1.215510376294454
769.0,-0.17043508291244508,-0.8551398873329162,2.0422435760498048,-2.725753736495972,-1.8082265377044677,-1.3064793407917024
770.0,-0.167217019200325,-0.8541227022806803,2.046142244338989,-2.7421966870625814,-1.8248812437057496,-1.3974483052889506
771.0,-0.16399895548820495,-0.8531055172284444,2.050040912628174,-2.7586396376291913,-1.8415359497070312,-1.488417269786199
772.0,-0.1607808917760849,-0.8520883321762085,2.0539395809173584,-2.775082588195801,-1.858190655708313,-1.5793862342834473
773.0,-0.1607808917760849,-0.8520883321762085,2.0539395809173584,-2.775082588195801,-1.858190655708313,-1.5793862342834473
774.0,-0.16082637161016464,-0.8539446592330933,2.0522263765335085,-2.758142518997192,-1.857055950164795,-1.5334170818328858
775.0,-0.16087185144424437,-0.855800986289978,2.050513172149658,-2.741202449798584,-1.855921244621277,-1.4874479293823242
776.0,-0.16091733127832414,-0.8576573133468628,2.048799967765808,-2.7242623805999755,-1.8547865390777587,-1.4414787769317627
777.0,-0.16096281111240388,-0.8595136404037476,2.047086763381958,-2.7073223114013674,-1.8536518335342407,-1.395509624481201
778.0,-0.1610082909464836,-0.8613699674606323,2.045373558998108,-2.690382242202759,-1.8525171279907227,-1.3495404720306396
779.0,-0.16105377078056335,-0.8632262945175171,2.043660354614258,-2.67344217300415,-1.8513824224472046,-1.3035713195800782
780.0,-0.16109925061464309,-0.8650826215744019,2.0419471502304076,-2.656502103805542,-1.8502477169036866,-1.2576021671295166
781.0,-0.16114473044872285,-0.8669389486312866,2.0402339458465577,-2.6395620346069335,-1.8491130113601684,-1.2116330146789551
782.0,-0.1611902102828026,-0.8687952756881714,2.0385207414627073,-2.6226219654083254,-1.8479783058166503,-1.1656638622283935
783.0,-0.16123569011688232,-0.8706516027450562,2.0368075370788574,-2.605681896209717,-1.8468436002731323,-1.119694709777832
784.0,-0.16123569011688232,-0.8706516027450562,2.0368075370788574,-2.605681896209717,-1.8468436002731323,-1.119694709777832
785.0,-0.16326115599700383,-0.8718139784676688,2.0366821799959456,-2.6015250171933855,-1.8294711368424552,-1.0531004688569479
786.0,-0.16528662187712534,-0.8729763541902814,2.0365568229130337,-2.597368138177054,-1.812098673411778,-0.9865062279360635
787.0,-0.16731208775724685,-0.8741387299128941,2.036431465830122,-2.593211259160723,-1.794726209981101,-0.9199119870151793
788.0,-0.16933755363736833,-0.8753011056355068,2.0363061087472096,-2.589054380144392,-1.7773537465504237,-0.8533177460942949
789.0,-0.17136301951748983,-0.8764634813581195,2.036180751664298,-2.5848975011280606,-1.7599812831197466,-0.7867235051734107
790.0,-0.17338848539761134,-0.877625857080732,2.036055394581386,-2.5807406221117293,-1.7426088196890694,-0.7201292642525264
791.0,-0.17541395127773285,-0.8787882328033447,2.035930037498474,-2.576583743095398,-1.7252363562583923,-0.6535350233316422
792.0,-0.17743941715785436,-0.8799506085259574,2.0358046804155623,-2.5724268640790666,-1.7078638928277152,-0.5869407824107579
793.0,-0.17946488303797586,-0.88111298424857,2.0356793233326504,-2.5682699850627353,-1.6904914293970381,-0.5203465414898737
794.0,-0.18149034891809734,-0.8822753599711827,2.0355539662497386,-2.564113106046404,-1.673118965966361,-0.4537523005689894
795.0,-0.18351581479821885,-0.8834377356937954,2.0354286091668263,-2.559956227030073,-1.655746502535684,-0.3871580596481051
796.0,-0.18554128067834036,-0.884600111416408,2.0353032520839145,-2.5557993480137418,-1.6383740391050066,-0.32056381872722084
797.0,-0.18756674655846187,-0.8857624871390206,2.0351778950010027,-2.5516424689974104,-1.6210015756743295,-0.25396957780633667
798.0,-0.18959221243858337,-0.8869248628616333,2.035052537918091,-2.547485589981079,-1.6036291122436523,-0.18737533688545227
